;START
;%
;(VECTRIC POST REVISION)
;(2913AB479EA3000D32B9C42F7F010597)
;O0001
;G17 G90 G21 G40 G80
;G08 P1
;T0
;(TOOL#1)
;T1
;M11
;G0 G90 X0.000 Y0.000 M13 S12000
;G0 G43 Z20.000 H1
G0 X27.208 Y16.358 
G0   Z1.000
G1   Z-0.110F180.0
G1 X26.629 Y17.537 
G1 X26.088 Y18.348 
G1 X26.340 Y17.838 
G1 X26.673 Y17.231 
G1 X27.208 Y16.358 
G1 X27.756 Y15.423 
G1 X26.698 Y17.576 
G1 X26.011 Y18.594 
G1 X25.736 Y18.941 
G1 X25.975 Y18.397 
G1 X26.270 Y17.802 
G1 X26.605 Y17.191 
G1 X26.981 Y16.563 
G1 X27.396 Y15.922 
G1 X27.756 Y15.423 
G1 X28.128 Y14.847 
G1 X26.767 Y17.615 
G1 X26.075 Y18.642 
G1 X25.819 Y18.967 
G1 X25.502 Y19.325 
G1 X25.646 Y18.949 
G1 X25.903 Y18.363 
G1 X26.200 Y17.765 
G1 X26.536 Y17.152 
G1 X26.914 Y16.521 
G1 X27.331 Y15.877 
G1 X27.677 Y15.395 
G1 X28.128 Y14.847 
G1 X28.449 Y14.373 
G1 X26.835 Y17.655 
G1 X26.138 Y18.689 
G1 X25.880 Y19.017 
G1 X25.602 Y19.336 
G1 X25.303 Y19.645 
G1 X25.573 Y18.919 
G1 X25.832 Y18.330 
G1 X26.129 Y17.729 
G1 X26.467 Y17.113 
G1 X26.847 Y16.480 
G1 X27.265 Y15.833 
G1 X27.614 Y15.347 
G1 X28.023 Y14.844 
G1 X28.449 Y14.373 
G1 X28.735 Y13.960 
G1 X26.904 Y17.694 
G1 X26.202 Y18.736 
G1 X25.941 Y19.068 
G1 X25.660 Y19.389 
G1 X25.132 Y19.914 
G1 X25.276 Y19.472 
G1 X25.499 Y18.889 
G1 X25.760 Y18.296 
G1 X26.059 Y17.692 
G1 X26.398 Y17.073 
G1 X26.779 Y16.438 
G1 X27.200 Y15.788 
G1 X27.551 Y15.298 
G1 X27.963 Y14.793 
G1 X28.735 Y13.960 
G1 X29.014 Y13.560 
G1 X26.973 Y17.734 
G1 X26.265 Y18.784 
G1 X26.002 Y19.118 
G1 X25.718 Y19.443 
G1 X25.425 Y19.748 
G1 X24.979 Y20.152 
G1 X25.201 Y19.446 
G1 X25.426 Y18.859 
G1 X25.688 Y18.263 
G1 X25.989 Y17.655 
G1 X26.330 Y17.034 
G1 X26.712 Y16.396 
G1 X27.135 Y15.744 
G1 X27.488 Y15.250 
G1 X27.903 Y14.741 
G1 X28.408 Y14.182 
G1 X29.014 Y13.560 
G1 X29.291 Y13.171 
G1 X27.042 Y17.773 
G1 X26.329 Y18.831 
G1 X26.063 Y19.169 
G1 X25.777 Y19.496 
G1 X25.480 Y19.805 
G1 X25.182 Y20.085 
G1 X24.839 Y20.367 
G1 X24.936 Y20.004 
G1 X25.127 Y19.419 
G1 X25.353 Y18.829 
G1 X25.616 Y18.229 
G1 X25.919 Y17.619 
G1 X26.261 Y16.994 
G1 X26.645 Y16.354 
G1 X27.069 Y15.699 
G1 X27.426 Y15.202 
G1 X27.843 Y14.690 
G1 X28.350 Y14.128 
G1 X29.291 Y13.171 
G1 X29.576 Y12.776 
G1 X27.111 Y17.813 
G1 X26.392 Y18.878 
G1 X26.124 Y19.220 
G1 X25.835 Y19.550 
G1 X25.536 Y19.861 
G1 X25.234 Y20.144 
G1 X24.940 Y20.391 
G1 X24.704 Y20.563 
G1 X24.860 Y19.981 
G1 X25.052 Y19.393 
G1 X25.280 Y18.799 
G1 X25.545 Y18.196 
G1 X25.848 Y17.582 
G1 X26.192 Y16.955 
G1 X26.578 Y16.312 
G1 X27.004 Y15.654 
G1 X27.363 Y15.154 
G1 X27.783 Y14.638 
G1 X28.293 Y14.074 
G1 X29.576 Y12.776 
G1 X29.869 Y12.371 
G1 X29.336 Y13.438 
G1 X27.180 Y17.852 
G1 X26.456 Y18.926 
G1 X26.185 Y19.270 
G1 X25.894 Y19.603 
G1 X25.592 Y19.917 
G1 X25.287 Y20.203 
G1 X24.989 Y20.453 
G1 X24.581 Y20.734 
G1 X24.784 Y19.959 
G1 X24.977 Y19.366 
G1 X25.206 Y18.768 
G1 X25.473 Y18.162 
G1 X25.778 Y17.545 
G1 X26.124 Y16.915 
G1 X26.510 Y16.270 
G1 X26.938 Y15.610 
G1 X27.300 Y15.106 
G1 X27.723 Y14.587 
G1 X28.235 Y14.019 
G1 X29.869 Y12.371 
G1 X30.082 Y12.047 
G1 X30.148 Y12.014 
G1 X29.871 Y12.536 
G1 X28.893 Y14.547 
G1 X27.249 Y17.892 
G1 X26.520 Y18.973 
G1 X26.245 Y19.321 
G1 X25.952 Y19.657 
G1 X25.647 Y19.974 
G1 X25.340 Y20.263 
G1 X25.038 Y20.516 
G1 X24.751 Y20.724 
G1 X24.461 Y20.897 
G1 X24.708 Y19.936 
G1 X24.903 Y19.340 
G1 X25.133 Y18.738 
G1 X25.401 Y18.129 
G1 X25.708 Y17.509 
G1 X26.055 Y16.876 
G1 X26.443 Y16.228 
G1 X26.873 Y15.565 
G1 X27.237 Y15.058 
G1 X27.662 Y14.535 
G1 X28.177 Y13.965 
G1 X30.082 Y12.047 
G1 X30.035 Y11.982 
G1 X30.334 Y11.835 
G1 X29.942 Y12.572 
G1 X28.964 Y14.582 
G1 X27.318 Y17.931 
G1 X26.583 Y19.020 
G1 X26.306 Y19.371 
G1 X26.010 Y19.711 
G1 X25.703 Y20.030 
G1 X25.392 Y20.322 
G1 X25.087 Y20.578 
G1 X24.795 Y20.790 
G1 X24.344 Y21.043 
G1 X24.632 Y19.914 
G1 X24.828 Y19.313 
G1 X25.060 Y18.708 
G1 X25.329 Y18.095 
G1 X25.638 Y17.472 
G1 X25.986 Y16.837 
G1 X26.376 Y16.186 
G1 X26.807 Y15.520 
G1 X27.174 Y15.010 
G1 X27.602 Y14.483 
G1 X28.119 Y13.911 
G1 X30.035 Y11.982 
G1 X29.988 Y11.917 
G1 X30.528 Y11.655 
G1 X30.012 Y12.608 
G1 X29.036 Y14.616 
G1 X27.386 Y17.970 
G1 X26.647 Y19.068 
G1 X26.367 Y19.422 
G1 X26.069 Y19.764 
G1 X25.759 Y20.086 
G1 X25.445 Y20.381 
G1 X25.135 Y20.640 
G1 X24.839 Y20.856 
G1 X24.563 Y21.023 
G1 X24.230 Y21.180 
G1 X24.556 Y19.891 
G1 X24.753 Y19.287 
G1 X24.986 Y18.678 
G1 X25.257 Y18.062 
G1 X25.567 Y17.436 
G1 X25.917 Y16.797 
G1 X26.309 Y16.144 
G1 X26.742 Y15.476 
G1 X27.111 Y14.961 
G1 X27.542 Y14.432 
G1 X28.062 Y13.857 
G1 X29.988 Y11.917 
G1 X29.941 Y11.852 
G1 X30.716 Y11.486 
G1 X30.083 Y12.645 
G1 X29.107 Y14.651 
G1 X27.455 Y18.010 
G1 X26.710 Y19.115 
G1 X26.428 Y19.473 
G1 X26.127 Y19.818 
G1 X25.814 Y20.143 
G1 X25.497 Y20.440 
G1 X25.184 Y20.703 
G1 X24.883 Y20.923 
G1 X24.601 Y21.093 
G1 X24.180 Y21.285 
G1 X24.135 Y21.294 
G1 X24.135 Y21.236 
G1 X24.481 Y19.868 
G1 X24.679 Y19.261 
G1 X24.913 Y18.648 
G1 X25.186 Y18.028 
G1 X25.497 Y17.399 
G1 X25.849 Y16.758 
G1 X26.241 Y16.102 
G1 X26.676 Y15.431 
G1 X27.048 Y14.913 
G1 X27.482 Y14.380 
G1 X28.004 Y13.802 
G1 X29.941 Y11.852 
G1 X29.895 Y11.786 
G1 X30.632 Y11.432 
G1 X30.805 Y11.370 
G1 X30.874 Y11.369 
G1 X30.540 Y11.953 
G1 X30.153 Y12.681 
G1 X29.178 Y14.686 
G1 X27.524 Y18.049 
G1 X26.774 Y19.163 
G1 X26.489 Y19.523 
G1 X26.186 Y19.871 
G1 X25.870 Y20.199 
G1 X25.550 Y20.500 
G1 X25.233 Y20.765 
G1 X24.927 Y20.989 
G1 X24.639 Y21.162 
G1 X24.203 Y21.362 
G1 X24.092 Y21.382 
G1 X24.065 Y21.372 
G1 X24.056 Y21.226 
G1 X24.405 Y19.846 
G1 X24.604 Y19.234 
G1 X24.840 Y18.618 
G1 X25.114 Y17.995 
G1 X25.427 Y17.362 
G1 X25.780 Y16.718 
G1 X26.174 Y16.061 
G1 X26.611 Y15.386 
G1 X26.985 Y14.865 
G1 X27.422 Y14.329 
G1 X27.946 Y13.748 
G1 X29.895 Y11.786 
G0   Z1.000
G0 X32.905 Y21.978 
G1   Z-0.110F180.0
G1 X32.419 Y22.764 
G1 X32.028 Y23.444 
G1 X32.177 Y23.132 
G1 X32.368 Y22.782 
G1 X32.584 Y22.432 
G1 X32.905 Y21.978 
G1 X33.721 Y20.909 
G1 X32.907 Y22.119 
G1 X32.487 Y22.804 
G1 X32.083 Y23.507 
G1 X31.604 Y24.426 
G1 X31.679 Y24.147 
G1 X31.796 Y23.799 
G1 X31.938 Y23.448 
G1 X32.106 Y23.096 
G1 X32.299 Y22.742 
G1 X32.518 Y22.388 
G1 X32.763 Y22.034 
G1 X33.034 Y21.680 
G1 X33.331 Y21.328 
G1 X33.721 Y20.909 
G1 X34.218 Y20.322 
G1 X32.974 Y22.161 
G1 X32.555 Y22.845 
G1 X32.153 Y23.545 
G1 X31.420 Y24.970 
G1 X31.509 Y24.476 
G1 X31.603 Y24.124 
G1 X31.722 Y23.771 
G1 X31.866 Y23.416 
G1 X32.035 Y23.060 
G1 X32.231 Y22.703 
G1 X32.452 Y22.345 
G1 X32.699 Y21.988 
G1 X32.972 Y21.631 
G1 X33.271 Y21.275 
G1 X33.597 Y20.922 
G1 X34.218 Y20.322 
G1 X34.647 Y19.820 
G1 X33.041 Y22.204 
G1 X32.623 Y22.885 
G1 X32.222 Y23.583 
G1 X31.887 Y24.215 
G1 X31.302 Y25.385 
G1 X31.361 Y24.814 
G1 X31.432 Y24.458 
G1 X31.527 Y24.102 
G1 X31.648 Y23.743 
G1 X31.793 Y23.384 
G1 X31.965 Y23.024 
G1 X32.162 Y22.663 
G1 X32.385 Y22.302 
G1 X32.635 Y21.941 
G1 X32.910 Y21.581 
G1 X33.212 Y21.223 
G1 X33.540 Y20.867 
G1 X33.894 Y20.513 
G1 X34.647 Y19.820 
G1 X35.064 Y19.309 
G1 X34.555 Y20.109 
G1 X33.108 Y22.247 
G1 X32.691 Y22.926 
G1 X32.291 Y23.622 
G1 X31.957 Y24.251 
G1 X31.335 Y25.496 
G1 X31.215 Y25.628 
G1 X31.236 Y25.160 
G1 X31.283 Y24.801 
G1 X31.354 Y24.440 
G1 X31.451 Y24.079 
G1 X31.573 Y23.716 
G1 X31.721 Y23.352 
G1 X31.894 Y22.988 
G1 X32.094 Y22.623 
G1 X32.319 Y22.258 
G1 X32.571 Y21.894 
G1 X32.848 Y21.532 
G1 X33.152 Y21.171 
G1 X33.483 Y20.812 
G1 X33.839 Y20.456 
G1 X34.788 Y19.583 
G1 X35.064 Y19.309 
G1 X35.478 Y18.769 
G1 X35.035 Y19.510 
G1 X34.621 Y20.153 
G1 X33.175 Y22.289 
G1 X32.759 Y22.966 
G1 X32.361 Y23.660 
G1 X32.028 Y24.288 
G1 X31.401 Y25.541 
G1 X31.138 Y25.831 
G1 X31.135 Y25.516 
G1 X31.157 Y25.152 
G1 X31.205 Y24.788 
G1 X31.277 Y24.422 
G1 X31.375 Y24.056 
G1 X31.499 Y23.688 
G1 X31.648 Y23.320 
G1 X31.824 Y22.952 
G1 X32.025 Y22.583 
G1 X32.253 Y22.215 
G1 X32.507 Y21.848 
G1 X32.787 Y21.482 
G1 X33.093 Y21.118 
G1 X33.425 Y20.757 
G1 X33.784 Y20.399 
G1 X34.734 Y19.525 
G1 X35.478 Y18.769 
G1 X35.874 Y18.208 
G1 X35.455 Y18.971 
G1 X34.687 Y20.197 
G1 X33.241 Y22.332 
G1 X32.828 Y23.007 
G1 X32.430 Y23.698 
G1 X32.098 Y24.324 
G1 X31.467 Y25.586 
G1 X31.107 Y25.970 
G1 X31.064 Y26.004 
G1 X31.056 Y25.514 
G1 X31.078 Y25.145 
G1 X31.126 Y24.775 
G1 X31.200 Y24.404 
G1 X31.299 Y24.033 
G1 X31.425 Y23.661 
G1 X31.576 Y23.288 
G1 X31.753 Y22.916 
G1 X31.957 Y22.543 
G1 X32.187 Y22.172 
G1 X32.443 Y21.801 
G1 X32.725 Y21.432 
G1 X33.034 Y21.066 
G1 X33.368 Y20.702 
G1 X33.729 Y20.342 
G1 X34.679 Y19.468 
G1 X35.205 Y18.947 
G1 X35.874 Y18.208 
G1 X36.238 Y17.641 
G1 X35.825 Y18.475 
G1 X35.524 Y19.011 
G1 X34.753 Y20.241 
G1 X33.308 Y22.374 
G1 X32.896 Y23.047 
G1 X32.499 Y23.737 
G1 X32.169 Y24.360 
G1 X31.533 Y25.631 
G1 X31.159 Y26.030 
G1 X30.991 Y26.153 
G1 X30.977 Y25.512 
G1 X30.999 Y25.137 
G1 X31.048 Y24.762 
G1 X31.123 Y24.386 
G1 X31.224 Y24.010 
G1 X31.350 Y23.633 
G1 X31.503 Y23.256 
G1 X31.683 Y22.880 
G1 X31.888 Y22.503 
G1 X32.120 Y22.128 
G1 X32.379 Y21.754 
G1 X32.663 Y21.383 
G1 X32.974 Y21.013 
G1 X33.311 Y20.647 
G1 X33.674 Y20.285 
G1 X34.624 Y19.411 
G1 X35.148 Y18.892 
G1 X35.639 Y18.363 
G1 X36.238 Y17.641 
G1 X36.567 Y17.075 
G1 X36.385 Y17.512 
G1 X36.156 Y18.006 
G1 X35.895 Y18.513 
G1 X35.592 Y19.051 
G1 X34.819 Y20.285 
G1 X33.375 Y22.417 
G1 X32.964 Y23.087 
G1 X32.569 Y23.775 
G1 X32.239 Y24.396 
G1 X31.599 Y25.676 
G1 X31.211 Y26.090 
G1 X30.918 Y26.289 
G1 X30.897 Y25.510 
G1 X30.920 Y25.130 
G1 X30.970 Y24.749 
G1 X31.046 Y24.368 
G1 X31.148 Y23.987 
G1 X31.276 Y23.606 
G1 X31.431 Y23.224 
G1 X31.612 Y22.843 
G1 X31.820 Y22.463 
G1 X32.054 Y22.085 
G1 X32.314 Y21.708 
G1 X32.601 Y21.333 
G1 X32.915 Y20.961 
G1 X33.254 Y20.592 
G1 X33.620 Y20.227 
G1 X34.570 Y19.353 
G1 X35.091 Y18.837 
G1 X35.579 Y18.310 
G1 X36.039 Y17.769 
G1 X36.567 Y17.075 
G1 X36.843 Y16.545 
G1 X36.665 Y17.047 
G1 X36.458 Y17.544 
G1 X36.227 Y18.041 
G1 X35.965 Y18.551 
G1 X35.660 Y19.091 
G1 X34.885 Y20.328 
G1 X33.442 Y22.459 
G1 X33.032 Y23.128 
G1 X32.638 Y23.813 
G1 X32.309 Y24.433 
G1 X31.665 Y25.721 
G1 X31.263 Y26.150 
G1 X30.998 Y26.337 
G1 X30.844 Y26.415 
G1 X30.818 Y25.507 
G1 X30.842 Y25.122 
G1 X30.892 Y24.737 
G1 X30.968 Y24.350 
G1 X31.072 Y23.964 
G1 X31.202 Y23.578 
G1 X31.358 Y23.192 
G1 X31.542 Y22.807 
G1 X31.751 Y22.424 
G1 X31.988 Y22.041 
G1 X32.250 Y21.661 
G1 X32.540 Y21.283 
G1 X32.855 Y20.909 
G1 X33.197 Y20.538 
G1 X33.565 Y20.170 
G1 X34.515 Y19.296 
G1 X35.034 Y18.781 
G1 X35.520 Y18.258 
G1 X35.977 Y17.719 
G1 X36.410 Y17.161 
G1 X36.843 Y16.545 
G1 X37.096 Y16.007 
G1 X37.003 Y16.331 
G1 X36.739 Y17.075 
G1 X36.530 Y17.576 
G1 X36.299 Y18.076 
G1 X36.035 Y18.588 
G1 X35.729 Y19.131 
G1 X34.951 Y20.372 
G1 X33.508 Y22.502 
G1 X33.100 Y23.168 
G1 X32.707 Y23.851 
G1 X32.380 Y24.469 
G1 X31.731 Y25.766 
G1 X31.315 Y26.210 
G1 X31.037 Y26.405 
G1 X30.770 Y26.531 
G1 X30.739 Y25.505 
G1 X30.763 Y25.115 
G1 X30.814 Y24.724 
G1 X30.891 Y24.332 
G1 X30.996 Y23.941 
G1 X31.127 Y23.551 
G1 X31.286 Y23.160 
G1 X31.471 Y22.771 
G1 X31.683 Y22.384 
G1 X31.921 Y21.998 
G1 X32.186 Y21.615 
G1 X32.478 Y21.234 
G1 X32.796 Y20.856 
G1 X33.140 Y20.483 
G1 X33.510 Y20.113 
G1 X34.460 Y19.239 
G1 X34.977 Y18.726 
G1 X35.461 Y18.205 
G1 X35.916 Y17.669 
G1 X36.346 Y17.114 
G1 X36.756 Y16.533 
G1 X37.096 Y16.007 
G1 X37.319 Y15.483 
G1 X37.078 Y16.356 
G1 X36.813 Y17.103 
G1 X36.603 Y17.608 
G1 X36.370 Y18.110 
G1 X36.104 Y18.626 
G1 X35.797 Y19.171 
G1 X35.017 Y20.416 
G1 X33.575 Y22.545 
G1 X33.168 Y23.209 
G1 X32.777 Y23.890 
G1 X32.450 Y24.505 
G1 X31.797 Y25.811 
G1 X31.367 Y26.270 
G1 X31.077 Y26.474 
G1 X30.789 Y26.609 
G1 X30.695 Y26.633 
G1 X30.660 Y25.503 
G1 X30.684 Y25.107 
G1 X30.735 Y24.711 
G1 X30.814 Y24.315 
G1 X30.920 Y23.918 
G1 X31.053 Y23.523 
G1 X31.213 Y23.129 
G1 X31.400 Y22.735 
G1 X31.614 Y22.344 
G1 X31.855 Y21.955 
G1 X32.122 Y21.568 
G1 X32.416 Y21.184 
G1 X32.736 Y20.804 
G1 X33.083 Y20.428 
G1 X33.455 Y20.056 
G1 X34.406 Y19.182 
G1 X34.920 Y18.671 
G1 X35.402 Y18.152 
G1 X35.854 Y17.619 
G1 X36.283 Y17.067 
G1 X36.691 Y16.489 
G1 X37.083 Y15.881 
G1 X37.319 Y15.483 
G1 X37.395 Y15.199 
G1 X37.499 Y15.017 
G1 X37.367 Y15.638 
G1 X37.154 Y16.380 
G1 X36.887 Y17.132 
G1 X36.675 Y17.640 
G1 X36.441 Y18.145 
G1 X36.174 Y18.663 
G1 X35.865 Y19.211 
G1 X35.083 Y20.460 
G1 X33.642 Y22.587 
G1 X33.236 Y23.249 
G1 X32.846 Y23.928 
G1 X32.521 Y24.542 
G1 X31.863 Y25.856 
G1 X31.419 Y26.330 
G1 X31.117 Y26.543 
G1 X30.813 Y26.684 
G1 X30.635 Y26.717 
G1 X30.619 Y26.710 
G1 X30.580 Y25.501 
G1 X30.605 Y25.100 
G1 X30.657 Y24.698 
G1 X30.737 Y24.297 
G1 X30.844 Y23.896 
G1 X30.979 Y23.495 
G1 X31.141 Y23.097 
G1 X31.330 Y22.699 
G1 X31.546 Y22.304 
G1 X31.789 Y21.911 
G1 X32.058 Y21.521 
G1 X32.354 Y21.135 
G1 X32.677 Y20.752 
G1 X33.025 Y20.373 
G1 X33.400 Y19.999 
G1 X34.351 Y19.124 
G1 X34.863 Y18.616 
G1 X35.342 Y18.100 
G1 X35.793 Y17.569 
G1 X36.219 Y17.019 
G1 X36.625 Y16.444 
G1 X37.016 Y15.839 
G1 X37.395 Y15.199 
G1 X37.327 Y15.159 
G1 X37.602 Y14.675 
G1 X37.604 Y14.800 
G1 X37.577 Y15.030 
G1 X37.444 Y15.657 
G1 X37.229 Y16.404 
G1 X36.961 Y17.160 
G1 X36.748 Y17.672 
G1 X36.512 Y18.180 
G1 X36.244 Y18.701 
G1 X35.934 Y19.251 
G1 X35.149 Y20.503 
G1 X33.709 Y22.630 
G1 X33.304 Y23.290 
G1 X32.915 Y23.966 
G1 X32.591 Y24.578 
G1 X31.929 Y25.901 
G1 X31.471 Y26.390 
G1 X31.157 Y26.611 
G1 X30.838 Y26.759 
G1 X30.708 Y26.793 
G1 X30.620 Y26.797 
G1 X30.541 Y26.744 
G1 X30.501 Y25.499 
G1 X30.526 Y25.092 
G1 X30.579 Y24.685 
G1 X30.660 Y24.279 
G1 X30.768 Y23.873 
G1 X30.905 Y23.468 
G1 X31.068 Y23.065 
G1 X31.259 Y22.663 
G1 X31.477 Y22.264 
G1 X31.722 Y21.868 
G1 X31.994 Y21.475 
G1 X32.293 Y21.085 
G1 X32.617 Y20.699 
G1 X32.968 Y20.318 
G1 X33.345 Y19.942 
G1 X34.296 Y19.067 
G1 X34.806 Y18.561 
G1 X35.283 Y18.047 
G1 X35.731 Y17.519 
G1 X36.155 Y16.972 
G1 X36.559 Y16.400 
G1 X36.949 Y15.797 
G1 X37.327 Y15.159 
G1 X37.258 Y15.119 
G1 X37.650 Y14.431 
G1 X37.681 Y14.637 
G1 X37.684 Y14.804 
G1 X37.655 Y15.043 
G1 X37.521 Y15.676 
G1 X37.305 Y16.428 
G1 X37.035 Y17.189 
G1 X36.820 Y17.704 
G1 X36.583 Y18.215 
G1 X36.314 Y18.738 
G1 X36.002 Y19.291 
G1 X35.215 Y20.547 
G1 X33.776 Y22.672 
G1 X33.372 Y23.330 
G1 X32.985 Y24.005 
G1 X32.661 Y24.614 
G1 X31.995 Y25.947 
G1 X31.523 Y26.450 
G1 X31.196 Y26.680 
G1 X30.863 Y26.835 
G1 X30.720 Y26.872 
G1 X30.605 Y26.877 
G1 X30.529 Y26.844 
G1 X30.464 Y26.778 
G1 X30.422 Y25.497 
G1 X30.447 Y25.085 
G1 X30.501 Y24.672 
G1 X30.583 Y24.261 
G1 X30.692 Y23.850 
G1 X30.830 Y23.440 
G1 X30.996 Y23.033 
G1 X31.189 Y22.627 
G1 X31.409 Y22.224 
G1 X31.656 Y21.825 
G1 X31.930 Y21.428 
G1 X32.231 Y21.035 
G1 X32.558 Y20.647 
G1 X32.911 Y20.263 
G1 X33.290 Y19.884 
G1 X34.241 Y19.010 
G1 X34.749 Y18.506 
G1 X35.224 Y17.995 
G1 X35.670 Y17.470 
G1 X36.091 Y16.925 
G1 X36.494 Y16.356 
G1 X36.881 Y15.756 
G1 X37.258 Y15.119 
G0   Z1.000
G0 X33.991 Y10.922 
G1   Z-0.110F180.0
G1 X33.695 Y11.458 
G1 X33.128 Y12.289 
G1 X32.934 Y12.536 
G1 X32.689 Y12.811 
G1 X32.922 Y12.387 
G1 X33.162 Y12.000 
G1 X33.423 Y11.624 
G1 X33.704 Y11.259 
G1 X33.991 Y10.922 
G1 X34.354 Y10.428 
G1 X33.763 Y11.500 
G1 X33.191 Y12.337 
G1 X32.994 Y12.587 
G1 X32.399 Y13.237 
G1 X32.633 Y12.745 
G1 X32.853 Y12.346 
G1 X33.096 Y11.956 
G1 X33.359 Y11.577 
G1 X33.643 Y11.209 
G1 X33.945 Y10.855 
G1 X34.354 Y10.428 
G1 X34.664 Y10.031 
G1 X33.831 Y11.541 
G1 X33.255 Y12.384 
G1 X33.055 Y12.638 
G1 X32.594 Y13.155 
G1 X32.184 Y13.545 
G1 X32.364 Y13.117 
G1 X32.563 Y12.708 
G1 X32.785 Y12.306 
G1 X33.030 Y11.913 
G1 X33.296 Y11.530 
G1 X33.581 Y11.159 
G1 X33.886 Y10.802 
G1 X34.207 Y10.460 
G1 X34.664 Y10.031 
G1 X34.941 Y9.693 
G1 X33.898 Y11.582 
G1 X33.318 Y12.431 
G1 X33.116 Y12.689 
G1 X32.652 Y13.210 
G1 X32.199 Y13.638 
G1 X32.014 Y13.789 
G1 X32.115 Y13.503 
G1 X32.291 Y13.085 
G1 X32.492 Y12.672 
G1 X32.717 Y12.266 
G1 X32.963 Y11.869 
G1 X33.232 Y11.483 
G1 X33.520 Y11.109 
G1 X33.826 Y10.749 
G1 X34.151 Y10.404 
G1 X34.491 Y10.076 
G1 X34.941 Y9.693 
G1 X35.196 Y9.394 
G1 X33.966 Y11.623 
G1 X33.381 Y12.479 
G1 X33.177 Y12.740 
G1 X32.709 Y13.264 
G1 X32.251 Y13.699 
G1 X31.863 Y13.992 
G1 X32.041 Y13.474 
G1 X32.219 Y13.052 
G1 X32.422 Y12.635 
G1 X32.648 Y12.226 
G1 X32.897 Y11.826 
G1 X33.168 Y11.436 
G1 X33.458 Y11.059 
G1 X33.767 Y10.696 
G1 X34.094 Y10.348 
G1 X34.438 Y10.018 
G1 X34.796 Y9.706 
G1 X35.196 Y9.394 
G1 X35.431 Y9.132 
G1 X34.034 Y11.665 
G1 X33.445 Y12.526 
G1 X33.238 Y12.790 
G1 X32.767 Y13.319 
G1 X32.302 Y13.759 
G1 X31.900 Y14.063 
G1 X31.732 Y14.158 
G1 X31.814 Y13.876 
G1 X31.968 Y13.446 
G1 X32.147 Y13.019 
G1 X32.352 Y12.599 
G1 X32.580 Y12.186 
G1 X32.831 Y11.782 
G1 X33.104 Y11.390 
G1 X33.397 Y11.009 
G1 X33.708 Y10.643 
G1 X34.038 Y10.293 
G1 X34.384 Y9.960 
G1 X34.745 Y9.645 
G1 X35.120 Y9.351 
G1 X35.431 Y9.132 
G1 X35.662 Y8.888 
G1 X34.101 Y11.706 
G1 X33.508 Y12.574 
G1 X33.298 Y12.841 
G1 X32.824 Y13.373 
G1 X32.354 Y13.819 
G1 X31.942 Y14.130 
G1 X31.603 Y14.321 
G1 X31.739 Y13.852 
G1 X31.894 Y13.417 
G1 X32.075 Y12.987 
G1 X32.281 Y12.562 
G1 X32.512 Y12.146 
G1 X32.765 Y11.739 
G1 X33.040 Y11.343 
G1 X33.335 Y10.960 
G1 X33.649 Y10.590 
G1 X33.982 Y10.237 
G1 X34.331 Y9.901 
G1 X34.695 Y9.584 
G1 X35.073 Y9.287 
G1 X35.662 Y8.888 
G1 X35.891 Y8.656 
G1 X35.647 Y9.070 
G1 X34.169 Y11.747 
G1 X33.572 Y12.621 
G1 X33.359 Y12.892 
G1 X32.882 Y13.428 
G1 X32.405 Y13.879 
G1 X31.984 Y14.197 
G1 X31.637 Y14.393 
G1 X31.485 Y14.461 
G1 X31.663 Y13.828 
G1 X31.820 Y13.388 
G1 X32.003 Y12.954 
G1 X32.211 Y12.526 
G1 X32.443 Y12.106 
G1 X32.699 Y11.695 
G1 X32.976 Y11.296 
G1 X33.273 Y10.910 
G1 X33.590 Y10.538 
G1 X33.925 Y10.181 
G1 X34.277 Y9.843 
G1 X34.644 Y9.523 
G1 X35.026 Y9.224 
G1 X35.420 Y8.946 
G1 X35.891 Y8.656 
G1 X36.107 Y8.447 
G1 X35.715 Y9.109 
G1 X34.237 Y11.789 
G1 X33.635 Y12.668 
G1 X33.420 Y12.943 
G1 X32.939 Y13.482 
G1 X32.457 Y13.940 
G1 X32.026 Y14.265 
G1 X31.673 Y14.463 
G1 X31.367 Y14.601 
G1 X31.588 Y13.803 
G1 X31.746 Y13.360 
G1 X31.931 Y12.921 
G1 X32.141 Y12.489 
G1 X32.375 Y12.066 
G1 X32.632 Y11.652 
G1 X32.912 Y11.249 
G1 X33.212 Y10.860 
G1 X33.531 Y10.485 
G1 X33.869 Y10.126 
G1 X34.224 Y9.784 
G1 X34.594 Y9.462 
G1 X34.979 Y9.160 
G1 X35.376 Y8.880 
G1 X35.786 Y8.624 
G1 X36.107 Y8.447 
G1 X36.171 Y8.321 
G1 X36.315 Y8.251 
G1 X35.784 Y9.148 
G1 X34.304 Y11.830 
G1 X33.699 Y12.716 
G1 X33.481 Y12.994 
G1 X32.997 Y13.537 
G1 X32.508 Y14.000 
G1 X32.068 Y14.332 
G1 X31.709 Y14.534 
G1 X31.368 Y14.687 
G1 X31.253 Y14.722 
G1 X31.513 Y13.779 
G1 X31.672 Y13.331 
G1 X31.858 Y12.888 
G1 X32.070 Y12.453 
G1 X32.307 Y12.025 
G1 X32.566 Y11.608 
G1 X32.848 Y11.203 
G1 X33.150 Y10.810 
G1 X33.472 Y10.432 
G1 X33.813 Y10.070 
G1 X34.170 Y9.726 
G1 X34.543 Y9.401 
G1 X34.931 Y9.096 
G1 X35.333 Y8.814 
G1 X35.746 Y8.555 
G1 X36.171 Y8.321 
G1 X36.135 Y8.251 
G1 X36.518 Y8.063 
G1 X35.853 Y9.188 
G1 X34.372 Y11.871 
G1 X33.762 Y12.763 
G1 X33.541 Y13.045 
G1 X33.054 Y13.591 
G1 X32.560 Y14.060 
G1 X32.326 Y14.249 
G1 X32.111 Y14.399 
G1 X31.744 Y14.605 
G1 X31.396 Y14.761 
G1 X31.141 Y14.840 
G1 X31.437 Y13.754 
G1 X31.598 Y13.302 
G1 X31.786 Y12.856 
G1 X32.000 Y12.416 
G1 X32.238 Y11.985 
G1 X32.500 Y11.565 
G1 X32.784 Y11.156 
G1 X33.089 Y10.760 
G1 X33.413 Y10.379 
G1 X33.756 Y10.014 
G1 X34.117 Y9.667 
G1 X34.493 Y9.340 
G1 X34.884 Y9.033 
G1 X35.289 Y8.748 
G1 X35.706 Y8.487 
G1 X36.135 Y8.251 
G1 X36.098 Y8.181 
G1 X36.683 Y7.909 
G1  Y7.940 
G1 X35.922 Y9.227 
G1 X34.440 Y11.912 
G1 X33.826 Y12.811 
G1 X33.602 Y13.096 
G1 X33.112 Y13.646 
G1 X32.611 Y14.120 
G1 X32.373 Y14.313 
G1 X32.153 Y14.466 
G1 X31.780 Y14.676 
G1 X31.423 Y14.835 
G1 X31.147 Y14.921 
G1 X31.052 Y14.922 
G1 X31.041 Y14.910 
G1 X31.362 Y13.730 
G1 X31.524 Y13.274 
G1 X31.714 Y12.823 
G1 X31.930 Y12.380 
G1 X32.170 Y11.945 
G1 X32.434 Y11.521 
G1 X32.720 Y11.109 
G1 X33.027 Y10.710 
G1 X33.354 Y10.326 
G1 X33.700 Y9.959 
G1 X34.063 Y9.609 
G1 X34.443 Y9.279 
G1 X34.837 Y8.969 
G1 X35.245 Y8.682 
G1 X35.666 Y8.419 
G1 X36.098 Y8.181 
G1 X36.061 Y8.110 
G1 X36.478 Y7.906 
G1 X36.692 Y7.820 
G1 X36.742 Y7.840 
G1 X36.762 Y7.890 
G1  Y7.961 
G1 X35.991 Y9.266 
G1 X34.507 Y11.954 
G1 X33.889 Y12.858 
G1 X33.663 Y13.146 
G1 X33.169 Y13.701 
G1 X32.663 Y14.180 
G1 X32.421 Y14.376 
G1 X32.195 Y14.533 
G1 X31.816 Y14.747 
G1 X31.451 Y14.910 
G1 X31.163 Y14.999 
G1 X31.066 Y15.009 
G1 X31.010 Y14.991 
G1 X30.953 Y14.934 
G1 X31.286 Y13.706 
G1 X31.451 Y13.245 
G1 X31.642 Y12.790 
G1 X31.859 Y12.343 
G1 X32.102 Y11.905 
G1 X32.368 Y11.478 
G1 X32.656 Y11.062 
G1 X32.966 Y10.660 
G1 X33.295 Y10.273 
G1 X33.644 Y9.903 
G1 X34.010 Y9.551 
G1 X34.392 Y9.218 
G1 X34.790 Y8.906 
G1 X35.201 Y8.616 
G1 X35.626 Y8.350 
G1 X36.061 Y8.110 
G0   Z1.000
G0 X39.520 Y6.487 
G1   Z-0.110F180.0
G1 X39.327 Y6.838 
G1 X39.095 Y7.215 
G1 X38.744 Y7.719 
G1 X38.366 Y8.195 
G1 X37.873 Y8.734 
G1 X37.988 Y8.527 
G1 X39.520 Y6.487 
G1 X39.917 Y5.827 
G1 X39.609 Y6.490 
G1 X39.396 Y6.878 
G1 X39.161 Y7.258 
G1 X38.808 Y7.766 
G1 X38.427 Y8.246 
G1 X38.028 Y8.692 
G1 X37.575 Y9.133 
G1 X37.921 Y8.484 
G1 X39.917 Y5.827 
G1 X40.266 Y5.092 
G1 X40.040 Y5.742 
G1 X39.871 Y6.134 
G1 X39.679 Y6.527 
G1 X39.464 Y6.918 
G1 X39.227 Y7.302 
G1 X38.871 Y7.813 
G1 X38.488 Y8.298 
G1 X38.086 Y8.746 
G1 X37.678 Y9.148 
G1 X37.350 Y9.431 
G1 X37.602 Y8.894 
G1 X37.854 Y8.441 
G1 X40.078 Y5.481 
G1 X40.266 Y5.092 
G1 X40.533 Y4.326 
G1 X40.380 Y4.996 
G1 X40.259 Y5.380 
G1 X40.113 Y5.772 
G1 X39.943 Y6.167 
G1 X39.750 Y6.563 
G1 X39.532 Y6.958 
G1 X39.294 Y7.345 
G1 X38.935 Y7.861 
G1 X38.548 Y8.349 
G1 X38.143 Y8.801 
G1 X37.732 Y9.207 
G1 X37.327 Y9.554 
G1 X37.175 Y9.666 
G1 X37.304 Y9.328 
G1 X37.532 Y8.858 
G1 X37.788 Y8.398 
G1 X40.010 Y5.439 
G1 X40.419 Y4.594 
G1 X40.533 Y4.326 
G1 X40.681 Y3.746 
G1 X40.624 Y4.272 
G1 X40.553 Y4.638 
G1 X40.456 Y5.017 
G1 X40.334 Y5.406 
G1 X40.187 Y5.801 
G1 X40.015 Y6.200 
G1 X39.820 Y6.600 
G1 X39.601 Y6.998 
G1 X39.360 Y7.389 
G1 X38.998 Y7.908 
G1 X38.609 Y8.400 
G1 X38.201 Y8.856 
G1 X37.786 Y9.265 
G1 X37.377 Y9.617 
G1 X37.013 Y9.882 
G1 X37.232 Y9.297 
G1 X37.462 Y8.821 
G1 X37.721 Y8.354 
G1 X39.942 Y5.398 
G1 X40.347 Y4.561 
G1 X40.681 Y3.746 
G1 X40.764 Y3.257 
G1 X40.770 Y3.592 
G1 X40.749 Y3.929 
G1 X40.702 Y4.285 
G1 X40.630 Y4.656 
G1 X40.532 Y5.039 
G1 X40.409 Y5.432 
G1 X40.260 Y5.831 
G1 X40.087 Y6.233 
G1 X39.890 Y6.636 
G1 X39.669 Y7.037 
G1 X39.426 Y7.432 
G1 X39.062 Y7.955 
G1 X38.669 Y8.451 
G1 X38.258 Y8.910 
G1 X37.839 Y9.323 
G1 X37.426 Y9.679 
G1 X37.031 Y9.966 
G1 X36.880 Y10.055 
G1 X36.957 Y9.792 
G1 X37.159 Y9.265 
G1 X37.391 Y8.785 
G1 X37.655 Y8.311 
G1 X39.874 Y5.357 
G1 X40.275 Y4.529 
G1 X40.560 Y3.857 
G1 X40.764 Y3.257 
G1 X40.794 Y2.871 
G1 X40.845 Y3.273 
G1 X40.849 Y3.594 
G1 X40.828 Y3.937 
G1 X40.781 Y4.297 
G1 X40.707 Y4.673 
G1 X40.608 Y5.061 
G1 X40.484 Y5.457 
G1 X40.334 Y5.860 
G1 X40.159 Y6.266 
G1 X39.961 Y6.673 
G1 X39.738 Y7.077 
G1 X39.493 Y7.476 
G1 X39.126 Y8.002 
G1 X38.730 Y8.502 
G1 X38.315 Y8.965 
G1 X37.893 Y9.381 
G1 X37.475 Y9.741 
G1 X37.075 Y10.033 
G1 X36.748 Y10.223 
G1 X36.882 Y9.767 
G1 X37.086 Y9.234 
G1 X37.321 Y8.748 
G1 X37.588 Y8.268 
G1 X39.806 Y5.315 
G1 X40.203 Y4.496 
G1 X40.486 Y3.828 
G1 X40.736 Y3.093 
G1 X40.794 Y2.871 
G1 X40.796 Y2.554 
G1 X40.838 Y2.686 
G1 X40.894 Y2.964 
G1 X40.924 Y3.268 
G1 X40.929 Y3.596 
G1 X40.907 Y3.944 
G1 X40.859 Y4.310 
G1 X40.785 Y4.691 
G1 X40.684 Y5.083 
G1 X40.559 Y5.483 
G1 X40.407 Y5.890 
G1 X40.231 Y6.299 
G1 X40.031 Y6.709 
G1 X39.806 Y7.117 
G1 X39.559 Y7.519 
G1 X39.189 Y8.050 
G1 X38.791 Y8.553 
G1 X38.373 Y9.020 
G1 X37.947 Y9.440 
G1 X37.524 Y9.803 
G1 X37.118 Y10.099 
G1 X36.635 Y10.368 
G1 X36.807 Y9.741 
G1 X37.013 Y9.202 
G1 X37.251 Y8.712 
G1 X37.522 Y8.225 
G1 X39.739 Y5.274 
G1 X40.131 Y4.463 
G1 X40.412 Y3.800 
G1 X40.660 Y3.070 
G1 X40.796 Y2.554 
G1 X40.776 Y2.289 
G1 X40.832 Y2.409 
G1 X40.915 Y2.666 
G1 X40.972 Y2.952 
G1 X41.003 Y3.264 
G1 X41.008 Y3.598 
G1 X40.986 Y3.952 
G1 X40.937 Y4.323 
G1 X40.862 Y4.708 
G1 X40.761 Y5.104 
G1 X40.634 Y5.509 
G1 X40.481 Y5.919 
G1 X40.303 Y6.332 
G1 X40.101 Y6.746 
G1 X39.875 Y7.157 
G1 X39.625 Y7.563 
G1 X39.253 Y8.097 
G1 X38.851 Y8.604 
G1 X38.430 Y9.074 
G1 X38.000 Y9.498 
G1 X37.574 Y9.865 
G1 X37.162 Y10.166 
G1 X36.774 Y10.392 
G1 X36.539 Y10.493 
G1 X36.584 Y10.219 
G1 X36.732 Y9.716 
G1 X36.940 Y9.171 
G1 X37.180 Y8.675 
G1 X37.455 Y8.181 
G1 X39.671 Y5.232 
G1 X40.059 Y4.431 
G1 X40.338 Y3.772 
G1 X40.584 Y3.048 
G1 X40.776 Y2.289 
G1 X40.736 Y2.055 
G1 X40.795 Y2.143 
G1 X40.906 Y2.380 
G1 X40.992 Y2.646 
G1 X41.050 Y2.940 
G1 X41.082 Y3.259 
G1 X41.087 Y3.600 
G1 X41.065 Y3.959 
G1 X41.015 Y4.336 
G1 X40.939 Y4.725 
G1 X40.837 Y5.126 
G1 X40.709 Y5.535 
G1 X40.555 Y5.949 
G1 X40.375 Y6.365 
G1 X40.171 Y6.783 
G1 X39.943 Y7.197 
G1 X39.691 Y7.606 
G1 X39.316 Y8.144 
G1 X38.912 Y8.655 
G1 X38.487 Y9.129 
G1 X38.054 Y9.556 
G1 X37.623 Y9.927 
G1 X37.205 Y10.232 
G1 X36.810 Y10.462 
G1 X36.456 Y10.606 
G1 X36.467 Y10.401 
G1 X36.507 Y10.200 
G1 X36.656 Y9.690 
G1 X36.868 Y9.139 
G1 X37.110 Y8.639 
G1 X37.388 Y8.138 
G1 X39.603 Y5.191 
G1 X39.986 Y4.398 
G1 X40.264 Y3.744 
G1 X40.508 Y3.025 
G1 X40.683 Y2.360 
G1 X40.736 Y2.055 
G1 X40.674 Y1.851 
G1 X40.675 Y1.832 
G1 X40.864 Y2.104 
G1 X40.980 Y2.351 
G1 X41.068 Y2.626 
G1 X41.129 Y2.929 
G1 X41.161 Y3.255 
G1 X41.166 Y3.602 
G1 X41.143 Y3.967 
G1 X41.093 Y4.348 
G1 X41.017 Y4.743 
G1 X40.913 Y5.148 
G1 X40.783 Y5.560 
G1 X40.628 Y5.978 
G1 X40.447 Y6.399 
G1 X40.242 Y6.819 
G1 X40.012 Y7.237 
G1 X39.758 Y7.649 
G1 X39.380 Y8.191 
G1 X38.972 Y8.706 
G1 X38.545 Y9.184 
G1 X38.108 Y9.615 
G1 X37.672 Y9.989 
G1 X37.248 Y10.298 
G1 X36.846 Y10.533 
G1 X36.483 Y10.681 
G1 X36.390 Y10.698 
G1 X36.374 Y10.551 
G1 X36.430 Y10.181 
G1 X36.581 Y9.665 
G1 X36.795 Y9.108 
G1 X37.040 Y8.602 
G1 X37.322 Y8.095 
G1 X39.535 Y5.149 
G1 X39.914 Y4.365 
G1 X40.190 Y3.715 
G1 X40.432 Y3.002 
G1 X40.605 Y2.343 
G1 X40.655 Y2.068 
G1 X40.674 Y1.851 
G1 X40.595 Y1.847 
G1 X40.606 Y1.676 
G1 X40.620 Y1.664 
G1 X40.675 Y1.707 
G1 X40.933 Y2.065 
G1 X41.054 Y2.322 
G1 X41.145 Y2.607 
G1 X41.207 Y2.917 
G1 X41.241 Y3.250 
G1 X41.245 Y3.604 
G1 X41.222 Y3.975 
G1 X41.172 Y4.361 
G1 X41.094 Y4.760 
G1 X40.989 Y5.169 
G1 X40.858 Y5.586 
G1 X40.702 Y6.008 
G1 X40.519 Y6.432 
G1 X40.312 Y6.856 
G1 X40.080 Y7.277 
G1 X39.824 Y7.693 
G1 X39.444 Y8.239 
G1 X39.033 Y8.757 
G1 X38.602 Y9.238 
G1 X38.162 Y9.673 
G1 X37.721 Y10.051 
G1 X37.292 Y10.365 
G1 X36.883 Y10.603 
G1 X36.505 Y10.757 
G1 X36.395 Y10.782 
G1 X36.331 Y10.763 
G1 X36.302 Y10.690 
G1 X36.295 Y10.549 
G1 X36.310 Y10.379 
G1 X36.353 Y10.162 
G1 X36.506 Y9.640 
G1 X36.722 Y9.076 
G1 X36.969 Y8.566 
G1 X37.255 Y8.052 
G1 X39.467 Y5.108 
G1 X39.842 Y4.332 
G1 X40.116 Y3.687 
G1 X40.356 Y2.979 
G1 X40.528 Y2.326 
G1 X40.577 Y2.057 
G1 X40.595 Y1.847 
G0   Z1.000
G0 X42.742 Y5.302 
G1   Z-0.110F180.0
G1 X42.781 Y5.428 
G1 X42.828 Y5.647 
G1 X42.742 Y5.302 
G1 X42.562 Y4.441 
G1 X42.857 Y5.408 
G1 X43.056 Y6.336 
G1 X42.920 Y6.104 
G1 X42.824 Y5.884 
G1 X42.740 Y5.635 
G1 X42.671 Y5.354 
G1 X42.616 Y5.039 
G1 X42.562 Y4.441 
G1 X42.469 Y3.866 
G1 X42.934 Y5.388 
G1 X43.193 Y6.634 
G1 X43.086 Y6.515 
G1 X42.961 Y6.339 
G1 X42.849 Y6.139 
G1 X42.750 Y5.913 
G1 X42.664 Y5.657 
G1 X42.593 Y5.370 
G1 X42.538 Y5.050 
G1 X42.475 Y4.310 
G1 X42.469 Y3.866 
G1 X42.404 Y3.381 
G1 X43.011 Y5.368 
G1 X43.315 Y6.858 
G1 X43.169 Y6.727 
G1 X43.024 Y6.564 
G1 X42.894 Y6.381 
G1 X42.778 Y6.174 
G1 X42.676 Y5.941 
G1 X42.588 Y5.679 
G1 X42.516 Y5.386 
G1 X42.459 Y5.062 
G1 X42.396 Y4.313 
G1 X42.404 Y3.381 
G1 X42.355 Y2.951 
G1 X43.088 Y5.348 
G1 X43.279 Y6.236 
G1 X43.426 Y7.038 
G1 X43.282 Y6.935 
G1 X43.113 Y6.783 
G1 X42.962 Y6.614 
G1 X42.827 Y6.424 
G1 X42.707 Y6.210 
G1 X42.602 Y5.970 
G1 X42.512 Y5.701 
G1 X42.438 Y5.403 
G1 X42.381 Y5.073 
G1 X42.317 Y4.316 
G1 X42.321 Y3.426 
G1 X42.355 Y2.951 
G1 X42.307 Y2.520 
G1 X43.164 Y5.328 
G1 X43.357 Y6.221 
G1 X43.527 Y7.194 
G1 X43.232 Y6.997 
G1 X43.057 Y6.839 
G1 X42.900 Y6.663 
G1 X42.760 Y6.466 
G1 X42.636 Y6.245 
G1 X42.528 Y5.998 
G1 X42.436 Y5.723 
G1 X42.361 Y5.419 
G1 X42.302 Y5.084 
G1 X42.261 Y4.717 
G1 X42.231 Y3.886 
G1 X42.242 Y3.422 
G1 X42.307 Y2.520 
G1 X42.264 Y2.104 
G1 X43.241 Y5.308 
G1 X43.434 Y6.205 
G1 X43.612 Y7.223 
G1 X43.620 Y7.337 
G1 X43.385 Y7.203 
G1 X43.183 Y7.059 
G1 X43.001 Y6.896 
G1 X42.838 Y6.713 
G1 X42.693 Y6.508 
G1 X42.565 Y6.280 
G1 X42.454 Y6.027 
G1 X42.360 Y5.745 
G1 X42.283 Y5.435 
G1 X42.224 Y5.095 
G1 X42.182 Y4.724 
G1 X42.152 Y3.886 
G1 X42.163 Y3.419 
G1 X42.264 Y2.104 
G1 X42.225 Y1.689 
G1 X43.318 Y5.288 
G1 X43.512 Y6.189 
G1 X43.690 Y7.215 
G1 X43.703 Y7.465 
G1 X43.342 Y7.270 
G1 X43.133 Y7.120 
G1 X42.945 Y6.952 
G1 X42.776 Y6.762 
G1 X42.626 Y6.551 
G1 X42.494 Y6.316 
G1 X42.380 Y6.055 
G1 X42.284 Y5.767 
G1 X42.206 Y5.452 
G1 X42.145 Y5.106 
G1 X42.103 Y4.731 
G1 X42.073 Y3.885 
G1 X42.084 Y3.415 
G1 X42.159 Y2.365 
G1 X42.225 Y1.689 
G1 X42.180 Y1.342 
G1 X42.194 Y1.301 
G1 X43.395 Y5.269 
G1 X43.590 Y6.174 
G1 X43.769 Y7.206 
G1 X43.779 Y7.575 
G1 X43.777 Y7.583 
G1 X43.537 Y7.473 
G1 X43.299 Y7.337 
G1 X43.084 Y7.182 
G1 X42.889 Y7.008 
G1 X42.714 Y6.812 
G1 X42.559 Y6.593 
G1 X42.423 Y6.351 
G1 X42.306 Y6.084 
G1 X42.208 Y5.790 
G1 X42.128 Y5.468 
G1 X42.067 Y5.118 
G1 X42.024 Y4.738 
G1 X41.994 Y3.885 
G1 X42.005 Y3.411 
G1 X42.080 Y2.359 
G1 X42.180 Y1.342 
G1 X42.102 Y1.324 
G1 X42.202 Y1.044 
G1 X42.530 Y2.165 
G1 X43.471 Y5.249 
G1 X43.667 Y6.158 
G1 X43.848 Y7.198 
G1 X43.863 Y7.398 
G1 X43.844 Y7.638 
G1 X43.818 Y7.664 
G1 X43.710 Y7.645 
G1 X43.256 Y7.404 
G1 X43.034 Y7.244 
G1 X42.832 Y7.064 
G1 X42.652 Y6.861 
G1 X42.492 Y6.636 
G1 X42.352 Y6.386 
G1 X42.232 Y6.112 
G1 X42.131 Y5.812 
G1 X42.050 Y5.484 
G1 X41.989 Y5.129 
G1 X41.945 Y4.745 
G1 X41.914 Y3.885 
G1 X41.926 Y3.407 
G1 X42.001 Y2.352 
G1 X42.102 Y1.324 
G0   Z1.000
G0 X48.734 Y11.895 
G1   Z-0.110F180.0
G1 X48.738 Y11.900 
G1 X48.734 Y11.896 
G1 X48.734 Y11.895 
G1 X47.136 Y10.010 
G1 X49.711 Y12.867 
G1 X50.197 Y13.456 
G1 X50.671 Y14.098 
G1 X48.675 Y11.948 
G1 X48.074 Y11.240 
G1 X47.484 Y10.502 
G1 X47.136 Y10.010 
G1 X46.429 Y9.060 
G1 X46.956 Y9.688 
G1 X49.201 Y12.173 
G1 X49.771 Y12.815 
G1 X50.259 Y13.407 
G1 X50.672 Y13.957 
G1 X51.014 Y14.469 
G1 X51.171 Y14.742 
G1 X49.930 Y13.430 
G1 X48.616 Y12.001 
G1 X48.013 Y11.290 
G1 X47.421 Y10.549 
G1 X46.890 Y9.801 
G1 X46.429 Y9.060 
G1 X45.897 Y8.237 
G1 X46.542 Y9.076 
G1 X47.604 Y10.301 
G1 X49.832 Y12.764 
G1 X50.321 Y13.358 
G1 X50.737 Y13.911 
G1 X51.081 Y14.428 
G1 X51.359 Y14.910 
G1 X51.483 Y15.169 
G1 X49.872 Y13.484 
G1 X48.556 Y12.053 
G1 X47.952 Y11.341 
G1 X47.357 Y10.597 
G1 X46.824 Y9.845 
G1 X46.348 Y9.080 
G1 X45.897 Y8.237 
G1 X45.451 Y7.446 
G1 X45.860 Y8.052 
G1 X46.209 Y8.529 
G1 X46.603 Y9.026 
G1 X47.663 Y10.248 
G1 X49.892 Y12.712 
G1 X50.383 Y13.309 
G1 X50.801 Y13.866 
G1 X51.149 Y14.386 
G1 X51.429 Y14.873 
G1 X51.648 Y15.330 
G1 X51.718 Y15.518 
G1 X51.050 Y14.845 
G1 X49.814 Y13.538 
G1 X48.497 Y12.106 
G1 X47.891 Y11.391 
G1 X47.294 Y10.645 
G1 X46.759 Y9.889 
G1 X46.279 Y9.120 
G1 X45.858 Y8.341 
G1 X45.451 Y7.446 
G1 X45.115 Y6.778 
G1 X45.925 Y8.007 
G1 X46.272 Y8.480 
G1 X46.665 Y8.975 
G1 X47.722 Y10.195 
G1 X49.952 Y12.661 
G1 X50.446 Y13.260 
G1 X50.866 Y13.820 
G1 X51.216 Y14.344 
G1 X51.499 Y14.836 
G1 X51.721 Y15.299 
G1 X51.907 Y15.821 
G1 X50.993 Y14.900 
G1 X49.756 Y13.592 
G1 X48.437 Y12.158 
G1 X47.830 Y11.441 
G1 X47.231 Y10.693 
G1 X46.693 Y9.933 
G1 X46.211 Y9.159 
G1 X45.787 Y8.376 
G1 X45.421 Y7.583 
G1 X45.115 Y6.778 
G1 X44.866 Y6.241 
G1 X45.657 Y7.472 
G1 X45.990 Y7.961 
G1 X46.335 Y8.432 
G1 X46.726 Y8.925 
G1 X47.781 Y10.143 
G1 X50.012 Y12.609 
G1 X50.508 Y13.211 
G1 X50.931 Y13.774 
G1 X51.283 Y14.302 
G1 X51.570 Y14.799 
G1 X51.794 Y15.268 
G1 X51.960 Y15.714 
G1 X52.060 Y16.087 
G1 X50.936 Y14.955 
G1 X49.698 Y13.646 
G1 X48.378 Y12.211 
G1 X47.769 Y11.492 
G1 X47.168 Y10.740 
G1 X46.627 Y9.977 
G1 X46.142 Y9.199 
G1 X45.716 Y8.412 
G1 X45.348 Y7.614 
G1 X45.047 Y6.825 
G1 X44.866 Y6.241 
G1 X44.664 Y5.778 
G1 X45.723 Y7.428 
G1 X46.054 Y7.915 
G1 X46.398 Y8.384 
G1 X46.787 Y8.875 
G1 X47.840 Y10.090 
G1 X50.072 Y12.558 
G1 X50.570 Y13.162 
G1 X50.995 Y13.728 
G1 X51.351 Y14.260 
G1 X51.640 Y14.762 
G1 X51.867 Y15.237 
G1 X52.036 Y15.689 
G1 X52.153 Y16.128 
G1 X52.184 Y16.318 
G1 X50.880 Y15.010 
G1 X49.640 Y13.700 
G1 X48.319 Y12.263 
G1 X47.708 Y11.542 
G1 X47.104 Y10.788 
G1 X46.561 Y10.021 
G1 X46.074 Y9.239 
G1 X45.645 Y8.447 
G1 X45.276 Y7.645 
G1 X44.972 Y6.851 
G1 X44.731 Y6.056 
G1 X44.664 Y5.778 
G1 X44.469 Y5.226 
G1 X44.689 Y5.670 
G1 X45.789 Y7.384 
G1 X46.119 Y7.870 
G1 X46.461 Y8.336 
G1 X46.849 Y8.825 
G1 X47.899 Y10.037 
G1 X50.133 Y12.506 
G1 X50.633 Y13.113 
G1 X51.060 Y13.682 
G1 X51.418 Y14.219 
G1 X51.710 Y14.725 
G1 X51.940 Y15.206 
G1 X52.111 Y15.665 
G1 X52.230 Y16.112 
G1 X52.302 Y16.542 
G1 X50.823 Y15.066 
G1 X49.583 Y13.754 
G1 X48.259 Y12.315 
G1 X47.646 Y11.593 
G1 X47.041 Y10.836 
G1 X46.495 Y10.065 
G1 X46.005 Y9.279 
G1 X45.574 Y8.483 
G1 X45.203 Y7.677 
G1 X44.897 Y6.877 
G1 X44.655 Y6.076 
G1 X44.469 Y5.226 
G1 X44.305 Y4.668 
G1 X44.513 Y5.137 
G1 X44.758 Y5.631 
G1 X45.855 Y7.340 
G1 X46.184 Y7.824 
G1 X46.524 Y8.288 
G1 X46.910 Y8.775 
G1 X47.958 Y9.984 
G1 X50.193 Y12.455 
G1 X50.695 Y13.064 
G1 X51.125 Y13.637 
G1 X51.485 Y14.177 
G1 X51.780 Y14.688 
G1 X52.013 Y15.175 
G1 X52.187 Y15.641 
G1 X52.308 Y16.095 
G1 X52.405 Y16.751 
G1 X51.885 Y16.249 
G1 X50.766 Y15.121 
G1 X49.525 Y13.808 
G1 X48.200 Y12.368 
G1 X47.585 Y11.643 
G1 X46.978 Y10.883 
G1 X46.429 Y10.109 
G1 X45.937 Y9.319 
G1 X45.503 Y8.518 
G1 X45.130 Y7.708 
G1 X44.822 Y6.902 
G1 X44.578 Y6.096 
G1 X44.400 Y5.296 
G1 X44.305 Y4.668 
G1 X44.183 Y4.169 
G1 X44.585 Y5.103 
G1 X44.827 Y5.591 
G1 X45.921 Y7.297 
G1 X46.248 Y7.778 
G1 X46.587 Y8.240 
G1 X46.971 Y8.724 
G1 X48.017 Y9.931 
G1 X50.253 Y12.403 
G1 X50.757 Y13.015 
G1 X51.189 Y13.591 
G1 X51.553 Y14.135 
G1 X51.850 Y14.651 
G1 X52.086 Y15.144 
G1 X52.262 Y15.617 
G1 X52.385 Y16.078 
G1 X52.472 Y16.600 
G1 X52.501 Y16.954 
G1 X51.830 Y16.305 
G1 X50.709 Y15.176 
G1 X49.467 Y13.862 
G1 X48.141 Y12.420 
G1 X47.524 Y11.693 
G1 X46.914 Y10.931 
G1 X46.363 Y10.152 
G1 X45.868 Y9.359 
G1 X45.433 Y8.554 
G1 X45.057 Y7.740 
G1 X44.747 Y6.928 
G1 X44.501 Y6.116 
G1 X44.322 Y5.310 
G1 X44.238 Y4.793 
G1 X44.183 Y4.169 
G1 X44.091 Y3.728 
G1 X44.387 Y4.463 
G1 X44.656 Y5.069 
G1 X44.896 Y5.552 
G1 X45.987 Y7.253 
G1 X46.313 Y7.733 
G1 X46.650 Y8.192 
G1 X47.032 Y8.674 
G1 X48.076 Y9.878 
G1 X50.313 Y12.352 
G1 X50.819 Y12.966 
G1 X51.254 Y13.545 
G1 X51.620 Y14.093 
G1 X51.920 Y14.614 
G1 X52.159 Y15.113 
G1 X52.338 Y15.593 
G1 X52.463 Y16.061 
G1 X52.551 Y16.590 
G1 X52.589 Y17.149 
G1 X51.774 Y16.362 
G1 X50.652 Y15.231 
G1 X49.409 Y13.916 
G1 X48.081 Y12.473 
G1 X47.463 Y11.744 
G1 X46.851 Y10.979 
G1 X46.297 Y10.196 
G1 X45.799 Y9.398 
G1 X45.362 Y8.589 
G1 X44.984 Y7.771 
G1 X44.672 Y6.954 
G1 X44.425 Y6.136 
G1 X44.244 Y5.325 
G1 X44.160 Y4.804 
G1 X44.111 Y4.341 
G1 X44.091 Y3.728 
G1 X44.013 Y3.306 
G1 X44.460 Y4.433 
G1 X44.728 Y5.036 
G1 X44.965 Y5.513 
G1 X46.053 Y7.209 
G1 X46.378 Y7.687 
G1 X46.713 Y8.144 
G1 X47.094 Y8.624 
G1 X48.135 Y9.825 
G1 X50.373 Y12.300 
G1 X50.882 Y12.917 
G1 X51.319 Y13.499 
G1 X51.687 Y14.051 
G1 X51.991 Y14.577 
G1 X52.232 Y15.082 
G1 X52.414 Y15.569 
G1 X52.540 Y16.045 
G1 X52.630 Y16.580 
G1 X52.668 Y17.056 
G1 X52.660 Y17.327 
G1 X51.718 Y16.418 
G1 X50.595 Y15.286 
G1 X49.351 Y13.970 
G1 X48.022 Y12.525 
G1 X47.402 Y11.794 
G1 X46.788 Y11.026 
G1 X46.231 Y10.240 
G1 X45.731 Y9.438 
G1 X45.291 Y8.625 
G1 X44.912 Y7.802 
G1 X44.597 Y6.979 
G1 X44.348 Y6.156 
G1 X44.166 Y5.339 
G1 X44.081 Y4.814 
G1 X44.032 Y4.346 
G1 X44.011 Y3.845 
G1 X44.013 Y3.306 
G1 X43.934 Y3.218 
G1 X43.948 Y2.915 
G1 X44.533 Y4.402 
G1 X44.800 Y5.002 
G1 X45.034 Y5.474 
G1 X46.119 Y7.165 
G1 X46.776 Y8.096 
G1 X47.155 Y8.574 
G1 X48.194 Y9.772 
G1 X50.434 Y12.249 
G1 X50.944 Y12.868 
G1 X51.383 Y13.453 
G1 X51.755 Y14.010 
G1 X52.061 Y14.541 
G1 X52.304 Y15.051 
G1 X52.489 Y15.545 
G1 X52.618 Y16.028 
G1 X52.708 Y16.571 
G1 X52.748 Y17.053 
G1 X52.734 Y17.386 
G1 X52.714 Y17.456 
G1 X52.679  
G1 X51.663 Y16.475 
G1 X50.538 Y15.341 
G1 X49.293 Y14.024 
G1 X47.962 Y12.578 
G1 X47.341 Y11.844 
G1 X46.725 Y11.074 
G1 X46.165 Y10.284 
G1 X45.662 Y9.478 
G1 X45.220 Y8.660 
G1 X44.839 Y7.834 
G1 X44.522 Y7.005 
G1 X44.271 Y6.177 
G1 X44.089 Y5.353 
G1 X44.003 Y4.825 
G1 X43.953 Y4.352 
G1 X43.932 Y3.846 
G1 X43.934 Y3.218 
G1 X43.855 Y3.216 
G1 X43.887 Y2.721 
G1 X43.903 Y2.679 
G1 X43.942  
G1 X44.606 Y4.371 
G1 X44.872 Y4.968 
G1 X45.103 Y5.435 
G1 X46.185 Y7.121 
G1 X46.839 Y8.048 
G1 X47.216 Y8.524 
G1 X48.253 Y9.720 
G1 X50.494 Y12.197 
G1 X51.006 Y12.819 
G1 X51.448 Y13.408 
G1 X51.822 Y13.968 
G1 X52.131 Y14.504 
G1 X52.377 Y15.020 
G1 X52.565 Y15.521 
G1 X52.695 Y16.011 
G1 X52.787 Y16.561 
G1 X52.827 Y17.050 
G1 X52.812 Y17.401 
G1 X52.764 Y17.526 
G1 X52.647 Y17.535 
G1 X51.607 Y16.531 
G1 X50.481 Y15.396 
G1 X49.235 Y14.078 
G1 X47.903 Y12.630 
G1 X47.280 Y11.895 
G1 X46.661 Y11.122 
G1 X46.099 Y10.328 
G1 X45.594 Y9.518 
G1 X45.149 Y8.695 
G1 X44.766 Y7.865 
G1 X44.447 Y7.031 
G1 X44.195 Y6.197 
G1 X44.011 Y5.367 
G1 X43.924 Y4.835 
G1 X43.874 Y4.358 
G1 X43.853 Y3.848 
G1 X43.855 Y3.216 
G0   Z1.000
G0 X53.485 Y11.370 
G1   Z-0.110F180.0
G1 X54.488 Y12.018 
G1 X55.230 Y12.603 
G1 X55.498 Y12.844 
G1 X56.083 Y13.423 
G1 X56.571 Y13.967 
G1 X55.414 Y12.958 
G1 X53.485 Y11.370 
G1 X52.371 Y10.556 
G1 X54.534 Y11.954 
G1 X55.281 Y12.543 
G1 X55.552 Y12.786 
G1 X56.140 Y13.368 
G1 X56.674 Y13.963 
G1 X57.029 Y14.428 
G1 X57.086 Y14.521 
G1 X55.363 Y13.018 
G1 X52.371 Y10.556 
G1 X51.775 Y10.076 
G1 X54.580 Y11.889 
G1 X55.333 Y12.483 
G1 X55.606 Y12.728 
G1 X56.197 Y13.313 
G1 X56.734 Y13.911 
G1 X57.095 Y14.384 
G1 X57.239 Y14.620 
G1 X57.377 Y14.890 
G1 X55.312 Y13.079 
G1 X52.254 Y10.562 
G1 X51.775 Y10.076 
G1 X51.224 Y9.626 
G1 X54.626 Y11.824 
G1 X55.384 Y12.423 
G1 X55.661 Y12.671 
G1 X56.255 Y13.259 
G1 X56.795 Y13.860 
G1 X57.162 Y14.340 
G1 X57.308 Y14.581 
G1 X57.439 Y14.835 
G1 X57.625 Y15.306 
G1 X57.287 Y14.907 
G1 X55.261 Y13.139 
G1 X52.200 Y10.620 
G1 X51.224 Y9.626 
G1 X50.714 Y9.202 
G1 X54.672 Y11.759 
G1 X55.436 Y12.363 
G1 X55.715 Y12.613 
G1 X56.312 Y13.204 
G1 X56.855 Y13.809 
G1 X57.228 Y14.297 
G1 X57.377 Y14.542 
G1 X57.511 Y14.801 
G1 X57.629 Y15.077 
G1 X57.813 Y15.659 
G1 X57.231 Y14.962 
G1 X55.210 Y13.200 
G1 X52.147 Y10.679 
G1 X51.268 Y9.788 
G1 X50.714 Y9.202 
G1 X50.148 Y8.682 
G1 X50.707 Y9.103 
G1 X54.717 Y11.695 
G1 X55.487 Y12.303 
G1 X55.769 Y12.555 
G1 X56.370 Y13.149 
G1 X56.916 Y13.758 
G1 X57.294 Y14.253 
G1 X57.447 Y14.503 
G1 X57.583 Y14.767 
G1 X57.703 Y15.048 
G1 X57.809 Y15.350 
G1 X57.966 Y15.981 
G1 X57.174 Y15.018 
G1 X55.158 Y13.260 
G1 X52.093 Y10.737 
G1 X51.211 Y9.843 
G1 X50.460 Y9.048 
G1 X50.148 Y8.682 
G1 X49.709 Y8.230 
G1 X49.807 Y8.327 
G1 X50.752 Y9.038 
G1 X54.763 Y11.630 
G1 X55.539 Y12.242 
G1 X55.824 Y12.498 
G1 X56.427 Y13.095 
G1 X56.976 Y13.706 
G1 X57.360 Y14.209 
G1 X57.516 Y14.464 
G1 X57.654 Y14.733 
G1 X57.777 Y15.020 
G1 X57.884 Y15.327 
G1 X57.977 Y15.658 
G1 X58.101 Y16.291 
G1 X57.573 Y15.611 
G1 X57.118 Y15.074 
G1 X55.107 Y13.320 
G1 X52.040 Y10.796 
G1 X51.154 Y9.898 
G1 X50.401 Y9.101 
G1 X49.858 Y8.441 
G1 X49.709 Y8.230 
G1 X49.281 Y7.695 
G1 X49.859 Y8.267 
G1 X50.797 Y8.973 
G1 X54.809 Y11.565 
G1 X55.591 Y12.182 
G1 X55.878 Y12.440 
G1 X56.484 Y13.040 
G1 X57.036 Y13.655 
G1 X57.426 Y14.165 
G1 X57.585 Y14.425 
G1 X57.726 Y14.700 
G1 X57.851 Y14.991 
G1 X57.960 Y15.303 
G1 X58.054 Y15.639 
G1 X58.198 Y16.395 
G1 X58.222 Y16.594 
G1 X57.932 Y16.192 
G1 X57.511 Y15.661 
G1 X57.061 Y15.130 
G1 X55.056 Y13.381 
G1 X51.986 Y10.855 
G1 X51.097 Y9.953 
G1 X50.342 Y9.154 
G1 X49.794 Y8.489 
G1 X49.569 Y8.169 
G1 X49.281 Y7.695 
G1 X48.964 Y7.270 
G1 X49.911 Y8.207 
G1 X50.843 Y8.908 
G1 X54.855 Y11.501 
G1 X55.642 Y12.122 
G1 X55.932 Y12.382 
G1 X56.542 Y12.985 
G1 X57.097 Y13.604 
G1 X57.492 Y14.121 
G1 X57.654 Y14.387 
G1 X57.798 Y14.666 
G1 X57.925 Y14.962 
G1 X58.035 Y15.279 
G1 X58.131 Y15.620 
G1 X58.277 Y16.384 
G1 X58.336 Y16.887 
G1 X57.869 Y16.240 
G1 X57.450 Y15.712 
G1 X57.004 Y15.185 
G1 X55.005 Y13.441 
G1 X51.933 Y10.913 
G1 X51.040 Y10.008 
G1 X50.283 Y9.207 
G1 X49.731 Y8.536 
G1 X49.503 Y8.213 
G1 X49.093 Y7.524 
G1 X48.964 Y7.270 
G1 X48.680 Y6.878 
G1 X49.963 Y8.147 
G1 X50.888 Y8.843 
G1 X54.901 Y11.436 
G1 X55.694 Y12.062 
G1 X55.987 Y12.325 
G1 X56.599 Y12.931 
G1 X57.157 Y13.552 
G1 X57.558 Y14.078 
G1 X57.723 Y14.348 
G1 X57.869 Y14.632 
G1 X57.999 Y14.933 
G1 X58.111 Y15.255 
G1 X58.208 Y15.600 
G1 X58.289 Y15.972 
G1 X58.407 Y16.807 
G1 X58.444 Y17.173 
G1 X57.806 Y16.288 
G1 X57.389 Y15.762 
G1 X56.948 Y15.241 
G1 X54.954 Y13.502 
G1 X51.879 Y10.972 
G1 X50.983 Y10.063 
G1 X50.224 Y9.260 
G1 X49.667 Y8.583 
G1 X49.437 Y8.257 
G1 X49.024 Y7.561 
G1 X48.680 Y6.878 
G1 X48.401 Y6.491 
G1 X50.015 Y8.087 
G1 X50.933 Y8.778 
G1 X54.946 Y11.371 
G1 X55.745 Y12.002 
G1 X56.041 Y12.267 
G1 X56.656 Y12.876 
G1 X57.218 Y13.501 
G1 X57.624 Y14.034 
G1 X57.792 Y14.309 
G1 X57.941 Y14.598 
G1 X58.072 Y14.905 
G1 X58.187 Y15.231 
G1 X58.285 Y15.581 
G1 X58.367 Y15.957 
G1 X58.486 Y16.799 
G1 X58.549 Y17.427 
G1 X58.420 Y17.275 
G1 X57.743 Y16.336 
G1 X57.328 Y15.812 
G1 X56.891 Y15.297 
G1 X54.902 Y13.562 
G1 X51.826 Y11.030 
G1 X50.926 Y10.118 
G1 X50.165 Y9.313 
G1 X49.604 Y8.630 
G1 X49.371 Y8.301 
G1 X48.954 Y7.599 
G1 X48.401 Y6.491 
G1 X48.229 Y6.319 
G1 X48.203 Y6.184 
G1 X50.067 Y8.026 
G1 X50.979 Y8.713 
G1 X54.992 Y11.307 
G1 X55.797 Y11.942 
G1 X56.095 Y12.209 
G1 X56.714 Y12.821 
G1 X57.278 Y13.450 
G1 X57.690 Y13.990 
G1 X57.861 Y14.270 
G1 X58.013 Y14.564 
G1 X58.146 Y14.876 
G1 X58.262 Y15.208 
G1 X58.361 Y15.562 
G1 X58.444 Y15.942 
G1 X58.565 Y16.790 
G1 X58.651 Y17.650 
G1 X58.591 Y17.599 
G1 X58.358 Y17.324 
G1 X57.679 Y16.384 
G1 X57.266 Y15.862 
G1 X56.835 Y15.353 
G1 X54.851 Y13.623 
G1 X51.772 Y11.089 
G1 X50.869 Y10.173 
G1 X50.106 Y9.366 
G1 X49.540 Y8.678 
G1 X49.305 Y8.345 
G1 X49.090 Y8.002 
G1 X48.678 Y7.233 
G1 X48.229 Y6.319 
G1 X48.153 Y6.345 
G1 X48.079 Y5.950 
G1 X50.118 Y7.966 
G1 X51.024 Y8.648 
G1 X55.038 Y11.242 
G1 X55.848 Y11.882 
G1 X56.150 Y12.152 
G1 X56.771 Y12.767 
G1 X57.338 Y13.399 
G1 X57.756 Y13.946 
G1 X57.930 Y14.231 
G1 X58.085 Y14.531 
G1 X58.220 Y14.847 
G1 X58.338 Y15.184 
G1 X58.438 Y15.543 
G1 X58.522 Y15.927 
G1 X58.644 Y16.781 
G1 X58.746 Y17.802 
G1 X58.734 Y17.814 
G1 X58.535 Y17.655 
G1 X58.295 Y17.373 
G1 X57.616 Y16.431 
G1 X57.205 Y15.912 
G1 X56.778 Y15.409 
G1 X54.800 Y13.683 
G1 X51.719 Y11.147 
G1 X50.812 Y10.228 
G1 X50.048 Y9.419 
G1 X49.477 Y8.725 
G1 X49.239 Y8.389 
G1 X49.022 Y8.042 
G1 X48.607 Y7.269 
G1 X48.153 Y6.345 
G1 X48.077 Y6.370 
G1 X47.955 Y5.716 
G1 X50.170 Y7.906 
G1 X51.069 Y8.583 
G1 X55.084 Y11.177 
G1 X55.900 Y11.821 
G1 X56.204 Y12.094 
G1 X56.829 Y12.712 
G1 X57.399 Y13.347 
G1 X57.822 Y13.903 
G1 X57.999 Y14.192 
G1 X58.156 Y14.497 
G1 X58.294 Y14.819 
G1 X58.413 Y15.160 
G1 X58.515 Y15.524 
G1 X58.600 Y15.912 
G1 X58.722 Y16.773 
G1 X58.828 Y17.832 
G1 X58.775 Y17.885 
G1 X58.730 Y17.898 
G1 X58.665 Y17.872 
G1 X58.479 Y17.711 
G1 X58.233 Y17.422 
G1 X57.553 Y16.479 
G1 X57.144 Y15.963 
G1 X56.722 Y15.464 
G1 X54.749 Y13.743 
G1 X51.665 Y11.206 
G1 X50.755 Y10.283 
G1 X49.989 Y9.472 
G1 X49.682 Y9.115 
G1 X49.413 Y8.772 
G1 X49.174 Y8.433 
G1 X48.954 Y8.083 
G1 X48.536 Y7.304 
G1 X48.077 Y6.370 
G0   Z1.000
G0 X43.419 Y20.113 
G1   Z-0.110F180.0
G1 X43.576 Y20.610 
G1 X43.458 Y20.445 
G1 X43.419 Y20.113 
G1 X43.296 Y19.580 
G1 X43.395 Y19.808 
G1 X43.545 Y20.229 
G1 X43.732 Y20.874 
G1 X43.463 Y20.604 
G1 X43.382 Y20.470 
G1 X43.362 Y20.384 
G1 X43.296 Y19.580 
G1 X43.170 Y19.087 
G1 X43.468 Y19.779 
G1 X43.620 Y20.204 
G1 X43.877 Y21.115 
G1 X43.544 Y20.808 
G1 X43.336 Y20.561 
G1 X43.284 Y20.396 
G1 X43.170 Y19.087 
G1 X43.021 Y18.613 
G1 X43.241 Y19.053 
G1 X43.542 Y19.750 
G1 X43.695 Y20.180 
G1 X43.846 Y20.682 
G1 X44.015 Y21.351 
G1 X43.488 Y20.864 
G1 X43.339 Y20.704 
G1 X43.266 Y20.600 
G1 X43.205 Y20.408 
G1 X43.108 Y19.213 
G1 X43.021 Y18.613 
G1 X42.824 Y18.071 
G1 X42.957 Y18.308 
G1 X43.313 Y19.020 
G1 X43.616 Y19.721 
G1 X43.771 Y20.155 
G1 X43.922 Y20.661 
G1 X44.147 Y21.577 
G1 X43.432 Y20.920 
G1 X43.278 Y20.754 
G1 X43.197 Y20.639 
G1 X43.156 Y20.546 
G1 X43.127 Y20.420 
G1 X43.029 Y19.222 
G1 X42.940 Y18.602 
G1 X42.824 Y18.071 
G1 X42.562 Y17.457 
G1 X43.027 Y18.271 
G1 X43.385 Y18.987 
G1 X43.690 Y19.692 
G1 X43.846 Y20.130 
G1 X43.999 Y20.640 
G1 X44.256 Y21.704 
G1 X44.273 Y21.798 
G1 X43.376 Y20.976 
G1 X43.216 Y20.803 
G1 X43.128 Y20.678 
G1 X43.080 Y20.571 
G1 X43.048 Y20.433 
G1 X42.950 Y19.230 
G1 X42.862 Y18.617 
G1 X42.732 Y18.022 
G1 X42.562 Y17.457 
G1 X42.185 Y16.721 
G1 X42.697 Y17.523 
G1 X43.097 Y18.234 
G1 X43.457 Y18.953 
G1 X43.763 Y19.663 
G1 X43.921 Y20.106 
G1 X44.075 Y20.618 
G1 X44.334 Y21.688 
G1 X44.394 Y22.013 
G1 X43.320 Y21.032 
G1 X43.154 Y20.853 
G1 X43.059 Y20.717 
G1 X43.005 Y20.596 
G1 X42.970 Y20.445 
G1 X42.871 Y19.239 
G1 X42.784 Y18.631 
G1 X42.655 Y18.042 
G1 X42.480 Y17.461 
G1 X42.185 Y16.721 
G1 X41.707 Y15.927 
G1 X41.885 Y16.154 
G1 X42.333 Y16.795 
G1 X42.765 Y17.482 
G1 X43.167 Y18.196 
G1 X43.529 Y18.920 
G1 X43.837 Y19.633 
G1 X43.996 Y20.081 
G1 X44.151 Y20.597 
G1 X44.411 Y21.672 
G1 X44.509 Y22.223 
G1 X43.263 Y21.089 
G1 X43.092 Y20.903 
G1 X42.989 Y20.757 
G1 X42.929 Y20.622 
G1 X42.891 Y20.457 
G1 X42.793 Y19.248 
G1 X42.706 Y18.645 
G1 X42.579 Y18.062 
G1 X42.405 Y17.486 
G1 X42.182 Y16.904 
G1 X41.903 Y16.299 
G1 X41.707 Y15.927 
G1 X41.221 Y15.224 
G1 X41.492 Y15.525 
G1 X41.948 Y16.107 
G1 X42.399 Y16.752 
G1 X42.833 Y17.442 
G1 X43.237 Y18.159 
G1 X43.600 Y18.886 
G1 X43.911 Y19.604 
G1 X44.072 Y20.056 
G1 X44.227 Y20.576 
G1 X44.489 Y21.656 
G1 X44.615 Y22.425 
G1 X43.207 Y21.145 
G1 X43.030 Y20.953 
G1 X42.920 Y20.796 
G1 X42.854 Y20.647 
G1 X42.813 Y20.469 
G1 X42.714 Y19.257 
G1 X42.628 Y18.659 
G1 X42.502 Y18.082 
G1 X42.330 Y17.512 
G1 X42.109 Y16.934 
G1 X41.832 Y16.335 
G1 X41.495 Y15.696 
G1 X41.221 Y15.224 
G1 X40.818 Y14.698 
G1 X41.099 Y14.969 
G1 X41.553 Y15.474 
G1 X42.012 Y16.060 
G1 X42.465 Y16.708 
G1 X42.901 Y17.401 
G1 X43.307 Y18.122 
G1 X43.672 Y18.853 
G1 X43.985 Y19.575 
G1 X44.147 Y20.032 
G1 X44.304 Y20.555 
G1 X44.566 Y21.641 
G1 X44.656 Y22.123 
G1 X44.708 Y22.614 
G1 X43.151 Y21.201 
G1 X42.969 Y21.003 
G1 X42.851 Y20.835 
G1 X42.778 Y20.672 
G1 X42.734 Y20.482 
G1 X42.635 Y19.266 
G1 X42.550 Y18.673 
G1 X42.425 Y18.102 
G1 X42.255 Y17.538 
G1 X42.036 Y16.965 
G1 X41.761 Y16.370 
G1 X41.426 Y15.735 
G1 X40.818 Y14.698 
G1 X40.510 Y14.339 
G1 X40.934 Y14.696 
G1 X41.156 Y14.914 
G1 X41.614 Y15.424 
G1 X42.076 Y16.012 
G1 X42.531 Y16.664 
G1 X42.969 Y17.361 
G1 X43.377 Y18.085 
G1 X43.744 Y18.819 
G1 X44.058 Y19.546 
G1 X44.222 Y20.007 
G1 X44.380 Y20.533 
G1 X44.644 Y21.625 
G1 X44.734 Y22.111 
G1 X44.785 Y22.502 
G1 X44.783 Y22.782 
G1 X43.095 Y21.257 
G1 X42.907 Y21.053 
G1 X42.782 Y20.874 
G1 X42.703 Y20.697 
G1 X42.656 Y20.494 
G1 X42.556 Y19.275 
G1 X42.472 Y18.687 
G1 X42.348 Y18.122 
G1 X42.180 Y17.563 
G1 X41.963 Y16.996 
G1 X41.690 Y16.405 
G1 X41.357 Y15.773 
G1 X40.510 Y14.339 
G1 X40.313 Y14.165 
G1  Y14.113 
G1 X40.447 Y14.188 
G1 X40.989 Y14.638 
G1 X41.214 Y14.859 
G1 X41.674 Y15.373 
G1 X42.139 Y15.965 
G1 X42.597 Y16.620 
G1 X43.037 Y17.320 
G1 X43.447 Y18.048 
G1 X43.816 Y18.786 
G1 X44.132 Y19.517 
G1 X44.298 Y19.982 
G1 X44.456 Y20.512 
G1 X44.722 Y21.609 
G1 X44.812 Y22.098 
G1 X44.864 Y22.496 
G1 X44.869 Y22.763 
G1 X44.851 Y22.836 
G1 X44.819 Y22.861 
G1 X44.746  
G1 X43.039 Y21.313 
G1 X42.845 Y21.103 
G1 X42.712 Y20.913 
G1 X42.628 Y20.722 
G1 X42.577 Y20.506 
G1 X42.478 Y19.283 
G1 X42.394 Y18.701 
G1 X42.272 Y18.142 
G1 X42.105 Y17.589 
G1 X41.890 Y17.027 
G1 X41.619 Y16.440 
G1 X41.287 Y15.812 
G1 X40.313 Y14.165 
G0   Z1.000
G0 X43.913 Y24.599 
G1   Z-0.110F180.0
G1 X44.103 Y24.815 
G1 X44.159 Y24.890 
G1 X43.913 Y24.599 
G1 X43.038 Y23.490 
G1 X44.165 Y24.765 
G1 X44.663 Y25.460 
G1 X44.760 Y25.620 
G1 X44.386 Y25.256 
G1 X43.851 Y24.649 
G1 X43.351 Y23.978 
G1 X43.038 Y23.490 
G1 X42.598 Y22.873 
G1 X44.227 Y24.715 
G1 X44.729 Y25.417 
G1 X45.025 Y25.938 
G1 X45.040 Y25.969 
G1 X44.608 Y25.589 
G1 X44.055 Y25.013 
G1 X43.532 Y24.368 
G1 X43.051 Y23.665 
G1 X42.598 Y22.873 
G1 X42.277 Y22.390 
G1 X44.289 Y24.666 
G1 X44.796 Y25.374 
G1 X45.096 Y25.903 
G1 X45.240 Y26.228 
G1 X44.841 Y25.908 
G1 X44.271 Y25.366 
G1 X43.728 Y24.748 
G1 X43.221 Y24.068 
G1 X42.760 Y23.335 
G1 X42.354 Y22.561 
G1 X42.277 Y22.390 
G1 X41.985 Y21.901 
G1 X42.206 Y22.190 
G1 X44.350 Y24.616 
G1 X44.862 Y25.331 
G1 X45.167 Y25.868 
G1 X45.389 Y26.396 
G1 X45.405 Y26.447 
G1 X45.083 Y26.211 
G1 X44.499 Y25.704 
G1 X43.936 Y25.118 
G1 X43.405 Y24.462 
G1 X42.917 Y23.749 
G1 X42.479 Y22.989 
G1 X42.102 Y22.194 
G1 X41.985 Y21.901 
G1 X41.746 Y21.453 
G1 X42.267 Y22.139 
G1 X44.412 Y24.566 
G1 X44.929 Y25.288 
G1 X45.238 Y25.833 
G1 X45.464 Y26.370 
G1 X45.544 Y26.634 
G1 X45.035 Y26.273 
G1 X44.444 Y25.762 
G1 X43.877 Y25.170 
G1 X43.342 Y24.510 
G1 X42.850 Y23.791 
G1 X42.409 Y23.026 
G1 X42.029 Y22.225 
G1 X41.867 Y21.820 
G1 X41.746 Y21.453 
G1 X41.526 Y21.012 
G1 X42.328 Y22.089 
G1 X44.474 Y24.516 
G1 X44.995 Y25.245 
G1 X45.309 Y25.798 
G1 X45.539 Y26.344 
G1 X45.663 Y26.801 
G1 X45.289 Y26.560 
G1 X44.685 Y26.088 
G1 X44.100 Y25.530 
G1 X43.543 Y24.898 
G1 X43.024 Y24.202 
G1 X42.554 Y23.453 
G1 X42.139 Y22.663 
G1 X41.793 Y21.848 
G1 X41.526 Y21.012 
G1 X41.334 Y20.594 
G1 X41.948 Y21.462 
G1 X42.390 Y22.039 
G1 X44.536 Y24.467 
G1 X45.062 Y25.202 
G1 X45.381 Y25.763 
G1 X45.614 Y26.319 
G1 X45.696 Y26.584 
G1 X45.767 Y26.952 
G1 X45.244 Y26.625 
G1 X44.634 Y26.148 
G1 X44.043 Y25.585 
G1 X43.481 Y24.948 
G1 X42.959 Y24.247 
G1 X42.485 Y23.493 
G1 X42.068 Y22.697 
G1 X41.718 Y21.875 
G1 X41.485 Y21.167 
G1 X41.334 Y20.594 
G1 X41.158 Y20.190 
G1 X41.548 Y20.771 
G1 X42.011 Y21.415 
G1 X42.451 Y21.988 
G1 X44.597 Y24.417 
G1 X45.128 Y25.159 
G1 X45.452 Y25.727 
G1 X45.689 Y26.293 
G1 X45.772 Y26.564 
G1 X45.830 Y26.822 
G1 X45.864 Y27.097 
G1 X45.511 Y26.896 
G1 X45.198 Y26.690 
G1 X44.888 Y26.460 
G1 X44.281 Y25.934 
G1 X43.698 Y25.327 
G1 X43.151 Y24.652 
G1 X42.648 Y23.918 
G1 X42.199 Y23.136 
G1 X41.811 Y22.318 
G1 X41.644 Y21.902 
G1 X41.409 Y21.190 
G1 X41.158 Y20.190 
G1 X40.998 Y19.803 
G1 X41.613 Y20.726 
G1 X42.075 Y21.368 
G1 X42.512 Y21.938 
G1 X44.659 Y24.367 
G1 X45.195 Y25.116 
G1 X45.523 Y25.692 
G1 X45.764 Y26.267 
G1 X45.849 Y26.544 
G1 X45.908 Y26.808 
G1 X45.951 Y27.230 
G1 X45.470 Y26.964 
G1 X45.153 Y26.755 
G1 X44.839 Y26.523 
G1 X44.226 Y25.991 
G1 X43.639 Y25.380 
G1 X43.088 Y24.699 
G1 X42.581 Y23.960 
G1 X42.128 Y23.173 
G1 X41.738 Y22.349 
G1 X41.569 Y21.929 
G1 X41.333 Y21.213 
G1 X41.125 Y20.425 
G1 X40.998 Y19.803 
G1 X40.862 Y19.444 
G1 X41.678 Y20.680 
G1 X42.139 Y21.321 
G1 X42.573 Y21.888 
G1 X44.721 Y24.318 
G1 X45.261 Y25.073 
G1 X45.594 Y25.657 
G1 X45.839 Y26.241 
G1 X45.925 Y26.524 
G1 X45.986 Y26.794 
G1 X46.020 Y27.052 
G1 X46.037 Y27.363 
G1 X45.428 Y27.031 
G1 X45.108 Y26.820 
G1 X44.791 Y26.585 
G1 X44.171 Y26.049 
G1 X43.580 Y25.432 
G1 X43.024 Y24.747 
G1 X42.514 Y24.002 
G1 X42.058 Y23.210 
G1 X41.665 Y22.380 
G1 X41.495 Y21.956 
G1 X41.257 Y21.235 
G1 X41.048 Y20.443 
G1 X40.900 Y19.715 
G1 X40.862 Y19.444 
G1 X40.766 Y19.207 
G1 X40.772 Y19.158 
G1 X41.743 Y20.635 
G1 X42.202 Y21.273 
G1 X42.634 Y21.837 
G1 X44.783 Y24.268 
G1 X45.328 Y25.030 
G1 X45.665 Y25.622 
G1 X45.801 Y25.921 
G1 X45.914 Y26.216 
G1 X46.002 Y26.503 
G1 X46.064 Y26.781 
G1 X46.099 Y27.044 
G1 X46.118 Y27.386 
G1 X46.105 Y27.465 
G1 X46.023 Y27.444 
G1 X45.386 Y27.099 
G1 X45.062 Y26.885 
G1 X44.742 Y26.647 
G1 X44.426 Y26.387 
G1 X43.814 Y25.805 
G1 X43.235 Y25.147 
G1 X42.698 Y24.426 
G1 X42.210 Y23.651 
G1 X41.782 Y22.833 
G1 X41.420 Y21.983 
G1 X41.181 Y21.258 
G1 X40.971 Y20.461 
G1 X40.822 Y19.729 
G1 X40.766 Y19.207 
G1 X40.687 Y19.205 
G1 X40.716 Y19.044 
G1 X40.735 Y19.030 
G1 X40.784  
G1 X41.808 Y20.590 
G1 X42.266 Y21.226 
G1 X42.695 Y21.787 
G1 X44.844 Y24.218 
G1 X45.395 Y24.987 
G1 X45.736 Y25.587 
G1 X45.874 Y25.890 
G1 X45.989 Y26.190 
G1 X46.079 Y26.483 
G1 X46.142 Y26.767 
G1 X46.178 Y27.037 
G1 X46.197 Y27.388 
G1 X46.186 Y27.486 
G1 X46.152 Y27.538 
G1 X46.090 Y27.548 
G1 X45.994 Y27.518 
G1 X45.676 Y27.357 
G1 X45.345 Y27.166 
G1 X45.017 Y26.950 
G1 X44.693 Y26.710 
G1 X44.374 Y26.447 
G1 X43.757 Y25.859 
G1 X43.174 Y25.197 
G1 X42.632 Y24.471 
G1 X42.142 Y23.690 
G1 X41.710 Y22.867 
G1 X41.346 Y22.011 
G1 X41.105 Y21.280 
G1 X40.894 Y20.479 
G1 X40.744 Y19.742 
G1 X40.701 Y19.440 
G1 X40.687 Y19.205 
G0   Z1.000
G0 X46.854 Y23.965 
G1   Z-0.110F180.0
G1 X47.158 Y24.782 
G1 X47.602 Y25.835 
G1 X48.591 Y27.528 
G1 X48.297 Y27.160 
G1 X47.982 Y26.714 
G1 X47.691 Y26.246 
G1 X47.433 Y25.771 
G1 X47.216 Y25.304 
G1 X47.049 Y24.860 
G1 X46.944 Y24.482 
G1 X46.854 Y23.965 
G1 X46.729 Y23.330 
G1 X47.034 Y24.242 
G1 X47.232 Y24.752 
G1 X47.673 Y25.799 
G1 X49.010 Y28.089 
G1 X48.564 Y27.622 
G1 X48.233 Y27.208 
G1 X47.916 Y26.758 
G1 X47.623 Y26.286 
G1 X47.362 Y25.806 
G1 X47.143 Y25.334 
G1 X46.974 Y24.885 
G1 X46.867 Y24.500 
G1 X46.789 Y24.094 
G1 X46.742 Y23.673 
G1 X46.729 Y23.330 
G1 X46.660 Y22.831 
G1 X46.897 Y23.603 
G1 X47.108 Y24.215 
G1 X47.305 Y24.723 
G1 X47.744 Y25.764 
G1 X49.318 Y28.461 
G1 X49.176 Y28.350 
G1 X48.842 Y28.042 
G1 X48.504 Y27.674 
G1 X48.170 Y27.255 
G1 X47.850 Y26.802 
G1 X47.554 Y26.326 
G1 X47.291 Y25.842 
G1 X47.070 Y25.365 
G1 X46.899 Y24.909 
G1 X46.790 Y24.518 
G1 X46.711 Y24.106 
G1 X46.663 Y23.679 
G1 X46.646 Y23.243 
G1 X46.660 Y22.831 
G1 X46.623 Y22.407 
G1 X46.972 Y23.578 
G1 X47.183 Y24.188 
G1 X47.379 Y24.693 
G1 X47.815 Y25.728 
G1 X49.587 Y28.764 
G1 X49.124 Y28.410 
G1 X48.786 Y28.098 
G1 X48.444 Y27.725 
G1 X48.107 Y27.303 
G1 X47.784 Y26.845 
G1 X47.486 Y26.366 
G1 X47.220 Y25.878 
G1 X46.997 Y25.396 
G1 X46.823 Y24.934 
G1 X46.712 Y24.537 
G1 X46.632 Y24.118 
G1 X46.584 Y23.685 
G1 X46.567 Y23.244 
G1 X46.581 Y22.801 
G1 X46.623 Y22.407 
G1 X46.608 Y22.033 
G1 X46.848 Y22.917 
G1 X47.257 Y24.161 
G1 X47.452 Y24.663 
G1 X47.886 Y25.692 
G1 X49.740 Y28.869 
G1 X49.794 Y29.005 
G1 X49.472 Y28.780 
G1 X49.073 Y28.471 
G1 X48.730 Y28.154 
G1 X48.384 Y27.777 
G1 X48.043 Y27.351 
G1 X47.718 Y26.889 
G1 X47.417 Y26.405 
G1 X47.150 Y25.913 
G1 X46.924 Y25.426 
G1 X46.748 Y24.959 
G1 X46.635 Y24.555 
G1 X46.554 Y24.130 
G1 X46.505 Y23.691 
G1 X46.487 Y23.244 
G1 X46.502 Y22.795 
G1 X46.550 Y22.352 
G1 X46.608 Y22.033 
G1 X46.605 Y21.703 
G1 X46.924 Y22.895 
G1 X47.331 Y24.133 
G1 X47.525 Y24.634 
G1 X47.957 Y25.657 
G1 X49.812 Y28.834 
G1 X49.960 Y29.211 
G1 X49.425 Y28.844 
G1 X49.022 Y28.531 
G1 X48.674 Y28.210 
G1 X48.324 Y27.828 
G1 X47.980 Y27.398 
G1 X47.652 Y26.933 
G1 X47.349 Y26.445 
G1 X47.079 Y25.949 
G1 X46.851 Y25.457 
G1 X46.673 Y24.983 
G1 X46.558 Y24.573 
G1 X46.476 Y24.142 
G1 X46.426 Y23.697 
G1 X46.408 Y23.244 
G1 X46.423 Y22.790 
G1 X46.471 Y22.341 
G1 X46.551 Y21.904 
G1 X46.605 Y21.703 
G1 X46.589 Y21.459 
G1 X46.609 Y21.399 
G1 X47.000 Y22.872 
G1 X47.406 Y24.106 
G1 X47.599 Y24.604 
G1 X48.028 Y25.621 
G1 X49.883 Y28.799 
G1 X50.110 Y29.398 
G1 X49.821 Y29.217 
G1 X49.378 Y28.908 
G1 X48.971 Y28.592 
G1 X48.618 Y28.266 
G1 X48.263 Y27.880 
G1 X47.917 Y27.446 
G1 X47.586 Y26.977 
G1 X47.280 Y26.485 
G1 X47.008 Y25.984 
G1 X46.778 Y25.488 
G1 X46.597 Y25.008 
G1 X46.481 Y24.591 
G1 X46.397 Y24.154 
G1 X46.347 Y23.703 
G1 X46.329 Y23.244 
G1 X46.344 Y22.784 
G1 X46.393 Y22.329 
G1 X46.474 Y21.886 
G1 X46.589 Y21.459 
G1 X46.513 Y21.436 
G1 X46.621 Y21.125 
G1 X47.076 Y22.850 
G1 X47.480 Y24.079 
G1 X47.672 Y24.574 
G1 X48.099 Y25.586 
G1 X49.954 Y28.765 
G1 X50.139 Y29.233 
G1 X50.248 Y29.568 
G1 X49.777 Y29.283 
G1 X49.331 Y28.972 
G1 X48.920 Y28.652 
G1 X48.561 Y28.322 
G1 X48.203 Y27.931 
G1 X47.853 Y27.493 
G1 X47.520 Y27.020 
G1 X47.212 Y26.525 
G1 X46.937 Y26.020 
G1 X46.704 Y25.518 
G1 X46.522 Y25.032 
G1 X46.404 Y24.609 
G1 X46.319 Y24.166 
G1 X46.268 Y23.709 
G1 X46.250 Y23.244 
G1 X46.265 Y22.779 
G1 X46.314 Y22.318 
G1 X46.397 Y21.869 
G1 X46.513 Y21.436 
G1 X46.437 Y21.413 
G1 X46.605 Y20.954 
G1 X46.629 Y20.924 
G1 X46.658 Y20.953 
G1 X47.152 Y22.827 
G1 X47.555 Y24.052 
G1 X47.746 Y24.544 
G1 X48.170 Y25.550 
G1 X50.026 Y28.730 
G1 X50.214 Y29.206 
G1 X50.324 Y29.542 
G1 X50.341 Y29.645 
G1 X50.327 Y29.682 
G1 X50.115 Y29.588 
G1 X49.733 Y29.350 
G1 X49.284 Y29.035 
G1 X48.868 Y28.713 
G1 X48.505 Y28.378 
G1 X48.143 Y27.983 
G1 X47.790 Y27.541 
G1 X47.454 Y27.064 
G1 X47.143 Y26.565 
G1 X46.866 Y26.056 
G1 X46.631 Y25.549 
G1 X46.446 Y25.057 
G1 X46.327 Y24.627 
G1 X46.241 Y24.178 
G1 X46.189 Y23.715 
G1 X46.170 Y23.245 
G1 X46.186 Y22.773 
G1 X46.236 Y22.307 
G1 X46.319 Y21.851 
G1 X46.437 Y21.413 
G0   Z1.000
G0 X44.788 Y28.416 
G1   Z-0.110F180.0
G1 X45.186 Y28.920 
G1 X45.640 Y29.611 
G1 X45.676 Y29.675 
G1 X45.248 Y29.176 
G1 X45.029 Y28.869 
G1 X44.870 Y28.596 
G1 X44.788 Y28.416 
G1 X44.537 Y28.039 
G1 X44.794 Y28.301 
G1 X45.250 Y28.873 
G1 X45.708 Y29.571 
G1 X46.020 Y30.133 
G1 X45.757 Y29.879 
G1 X45.456 Y29.553 
G1 X45.185 Y29.224 
G1 X44.963 Y28.912 
G1 X44.800 Y28.632 
G1 X44.537 Y28.039 
G1 X44.356 Y27.786 
G1 X44.638 Y28.023 
G1 X44.853 Y28.248 
G1 X45.314 Y28.827 
G1 X45.776 Y29.530 
G1 X46.200 Y30.308 
G1 X46.277 Y30.463 
G1 X46.020 Y30.243 
G1 X45.701 Y29.934 
G1 X45.396 Y29.605 
G1 X45.122 Y29.273 
G1 X44.896 Y28.955 
G1 X44.729 Y28.669 
G1 X44.506 Y28.181 
G1 X44.356 Y27.786 
G1 X44.203 Y27.579 
G1 X44.491 Y27.786 
G1 X44.693 Y27.966 
G1 X44.912 Y28.195 
G1 X45.379 Y28.781 
G1 X45.844 Y29.489 
G1 X46.271 Y30.272 
G1 X46.497 Y30.730 
G1 X46.286 Y30.575 
G1 X45.966 Y30.301 
G1 X45.644 Y29.990 
G1 X45.337 Y29.657 
G1 X45.060 Y29.321 
G1 X44.829 Y28.998 
G1 X44.659 Y28.705 
G1 X44.433 Y28.211 
G1 X44.203 Y27.579 
G1 X44.066 Y27.398 
G1 X44.540 Y27.724 
G1 X44.748 Y27.909 
G1 X44.971 Y28.142 
G1 X45.443 Y28.734 
G1 X45.912 Y29.448 
G1 X46.342 Y30.237 
G1 X46.693 Y30.950 
G1 X46.541 Y30.861 
G1 X46.237 Y30.637 
G1 X45.913 Y30.360 
G1 X45.588 Y30.045 
G1 X45.277 Y29.709 
G1 X44.997 Y29.369 
G1 X44.763 Y29.041 
G1 X44.588 Y28.742 
G1 X44.360 Y28.242 
G1 X44.167 Y27.734 
G1 X44.066 Y27.398 
G1 X43.942 Y27.234 
G1 X44.322 Y27.467 
G1 X44.590 Y27.663 
G1 X44.803 Y27.852 
G1 X45.030 Y28.089 
G1 X45.507 Y28.688 
G1 X45.980 Y29.408 
G1 X46.412 Y30.201 
G1 X46.873 Y31.136 
G1 X46.497 Y30.927 
G1 X46.188 Y30.699 
G1 X45.860 Y30.419 
G1 X45.531 Y30.101 
G1 X45.217 Y29.762 
G1 X44.934 Y29.417 
G1 X44.696 Y29.085 
G1 X44.518 Y28.778 
G1 X44.287 Y28.272 
G1 X44.092 Y27.759 
G1 X43.942 Y27.234 
G1 X43.839 Y27.088 
G1 X44.071 Y27.214 
G1 X44.367 Y27.401 
G1 X44.640 Y27.601 
G1 X44.858 Y27.795 
G1 X45.089 Y28.036 
G1 X45.329 Y28.321 
G1 X45.813 Y28.992 
G1 X46.272 Y29.759 
G1 X46.981 Y31.175 
G1 X46.992 Y31.281 
G1 X46.741 Y31.161 
G1 X46.454 Y30.993 
G1 X46.138 Y30.761 
G1 X45.806 Y30.477 
G1 X45.474 Y30.156 
G1 X45.157 Y29.814 
G1 X44.871 Y29.465 
G1 X44.630 Y29.128 
G1 X44.448 Y28.815 
G1 X44.214 Y28.303 
G1 X44.017 Y27.785 
G1 X43.882 Y27.335 
G1 X43.839 Y27.088 
G1 X43.756 Y27.050 
G1 X43.766 Y26.976 
G1 X43.856 Y27.007 
G1 X44.111 Y27.146 
G1 X44.411 Y27.336 
G1 X44.690 Y27.539 
G1 X44.913 Y27.738 
G1 X45.148 Y27.984 
G1 X45.391 Y28.271 
G1 X45.879 Y28.949 
G1 X46.342 Y29.721 
G1 X47.058 Y31.153 
G1 X47.081 Y31.399 
G1 X46.704 Y31.231 
G1 X46.410 Y31.060 
G1 X46.089 Y30.824 
G1 X45.753 Y30.536 
G1 X45.418 Y30.212 
G1 X45.098 Y29.866 
G1 X44.808 Y29.514 
G1 X44.563 Y29.171 
G1 X44.377 Y28.851 
G1 X44.141 Y28.334 
G1 X43.942 Y27.810 
G1 X43.805 Y27.354 
G1 X43.756 Y27.050 
G1 X43.677 Y27.049 
G1 X43.708 Y26.892 
G1 X43.728 Y26.879 
G1 X43.888 Y26.935 
G1 X44.152 Y27.077 
G1 X44.456 Y27.270 
G1 X44.739 Y27.477 
G1 X44.968 Y27.680 
G1 X45.207 Y27.931 
G1 X45.453 Y28.222 
G1 X45.945 Y28.905 
G1 X46.411 Y29.683 
G1 X47.136 Y31.130 
G1 X47.163 Y31.458 
G1 X47.148 Y31.487 
G1 X47.113 Y31.494 
G1 X46.963 Y31.442 
G1 X46.666 Y31.301 
G1 X46.367 Y31.126 
G1 X46.040 Y30.886 
G1 X45.700 Y30.594 
G1 X45.361 Y30.267 
G1 X45.038 Y29.918 
G1 X44.745 Y29.562 
G1 X44.497 Y29.214 
G1 X44.307 Y28.888 
G1 X44.068 Y28.364 
G1 X43.867 Y27.836 
G1 X43.728 Y27.374 
G1 X43.677 Y27.049 
G0   Z1.000
G0 X35.547 Y36.656 
G1   Z-0.110F180.0
G1 X35.226 Y36.823 
G1 X35.291 Y36.642 
G1 X35.547 Y36.656 
G1 X35.907 Y36.534 
G1 X35.355 Y36.850 
G1 X35.087 Y36.977 
G1 X35.238 Y36.557 
G1 X35.476 Y36.579 
G1 X35.717 Y36.570 
G1 X35.907 Y36.534 
G1 X36.379 Y36.264 
G1 X36.297 Y36.349 
G1 X36.064 Y36.528 
G1 X35.749 Y36.726 
G1 X35.391 Y36.920 
G1 X34.952 Y37.123 
G1 X35.185 Y36.472 
G1 X35.478 Y36.500 
G1 X35.708 Y36.491 
G1 X35.939 Y36.447 
G1 X36.166 Y36.369 
G1 X36.379 Y36.264 
G1 X36.740 Y35.924 
G1 X36.477 Y36.277 
G1 X36.350 Y36.408 
G1 X36.110 Y36.593 
G1 X35.789 Y36.795 
G1 X35.427 Y36.991 
G1 X34.819 Y37.262 
G1 X35.137 Y36.388 
G1 X35.480 Y36.420 
G1 X35.699 Y36.412 
G1 X35.918 Y36.370 
G1 X36.135 Y36.296 
G1 X36.352 Y36.189 
G1 X36.578 Y36.049 
G1 X36.740 Y35.924 
G1 X37.002 Y35.623 
G1 X37.009 Y35.618 
G1 X36.817 Y35.952 
G1 X36.536 Y36.330 
G1 X36.403 Y36.467 
G1 X36.155 Y36.658 
G1 X35.829 Y36.863 
G1 X35.463 Y37.062 
G1 X35.094 Y37.236 
G1 X34.690 Y37.392 
G1 X35.078 Y36.328 
G1 X35.095 Y36.304 
G1 X35.482 Y36.341 
G1 X35.690 Y36.333 
G1 X35.898 Y36.294 
G1 X36.105 Y36.222 
G1 X36.314 Y36.119 
G1 X36.533 Y35.984 
G1 X37.002 Y35.623 
G1 X36.954 Y35.560 
G1 X37.208 Y35.358 
G1 X37.121 Y35.573 
G1 X36.884 Y35.995 
G1 X36.596 Y36.382 
G1 X36.456 Y36.526 
G1 X36.201 Y36.723 
G1 X35.869 Y36.931 
G1 X35.498 Y37.132 
G1 X35.126 Y37.309 
G1 X34.790 Y37.444 
G1 X34.563 Y37.513 
G1 X34.959 Y36.396 
G1 X35.043 Y36.239 
G1 X35.083 Y36.223 
G1 X35.484 Y36.262 
G1 X35.681 Y36.254 
G1 X35.877 Y36.217 
G1 X36.074 Y36.149 
G1 X36.275 Y36.050 
G1 X36.487 Y35.918 
G1 X36.954 Y35.560 
G1 X36.905 Y35.498 
G1 X37.148 Y35.302 
G1 X37.320 Y35.197 
G1 X37.318 Y35.262 
G1 X37.274 Y35.415 
G1 X37.082 Y35.819 
G1 X36.805 Y36.247 
G1 X36.655 Y36.435 
G1 X36.508 Y36.585 
G1 X36.246 Y36.788 
G1 X35.909 Y37.000 
G1 X35.534 Y37.203 
G1 X35.158 Y37.382 
G1 X34.817 Y37.519 
G1 X34.460 Y37.614 
G1 X34.444 Y37.613 
G1 X34.886 Y36.365 
G1 X34.987 Y36.182 
G1 X35.027 Y36.154 
G1 X35.079 Y36.143 
G1 X35.486 Y36.182 
G1 X35.672 Y36.175 
G1 X35.857 Y36.140 
G1 X36.044 Y36.076 
G1 X36.237 Y35.981 
G1 X36.442 Y35.853 
G1 X36.905 Y35.498 
G1 X36.856 Y35.436 
G1 X37.101 Y35.238 
G1 X37.265 Y35.130 
G1 X37.360 Y35.104 
G1 X37.387 Y35.119 
G1 X37.401 Y35.153 
G1 X37.397 Y35.275 
G1 X37.349 Y35.442 
G1 X37.151 Y35.858 
G1 X36.869 Y36.295 
G1 X36.714 Y36.487 
G1 X36.561 Y36.645 
G1 X36.291 Y36.853 
G1 X35.949 Y37.068 
G1 X35.570 Y37.274 
G1 X35.190 Y37.454 
G1 X34.843 Y37.594 
G1 X34.565 Y37.678 
G1 X34.393 Y37.689 
G1 X34.356 Y37.664 
G1 X34.360 Y37.614 
G1 X34.812 Y36.335 
G1 X34.871 Y36.208 
G1 X34.930 Y36.125 
G1 X34.995 Y36.080 
G1 X35.074 Y36.063 
G1 X35.488 Y36.103 
G1 X35.663 Y36.096 
G1 X35.837 Y36.063 
G1 X36.013 Y36.002 
G1 X36.198 Y35.911 
G1 X36.397 Y35.788 
G1 X36.856 Y35.436 
G0   Z1.000
G0 X33.437 Y36.932 
G1   Z-0.110F180.0
G1 X33.387 Y37.065 
G1 X33.275 Y37.137 
G1 X33.040 Y37.327 
G1 X33.174 Y37.167 
G1 X33.437 Y36.932 
G1 X33.677 Y36.523 
G1 X33.452 Y37.117 
G1 X33.321 Y37.201 
G1 X32.945 Y37.502 
G1 X32.769 Y37.601 
G1 X32.890 Y37.439 
G1 X33.033 Y37.199 
G1 X33.394 Y36.865 
G1 X33.561 Y36.682 
G1 X33.677 Y36.523 
G1 X33.994 Y35.872 
G1 X33.516 Y37.170 
G1 X33.368 Y37.265 
G1 X32.990 Y37.568 
G1 X32.781 Y37.683 
G1 X32.568 Y37.710 
G1 X32.674 Y37.596 
G1 X32.823 Y37.396 
G1 X32.925 Y37.208 
G1 X33.064 Y37.052 
G1 X33.338 Y36.808 
G1 X33.500 Y36.632 
G1 X33.776 Y36.254 
G1 X33.994 Y35.872 
G1 X34.272 Y35.053 
G1 X34.173 Y35.546 
G1 X34.055 Y35.944 
G1 X33.581 Y37.222 
G1 X33.414 Y37.329 
G1 X33.035 Y37.633 
G1 X32.811 Y37.757 
G1 X32.651 Y37.788 
G1 X32.393 Y37.783 
G1 X32.613 Y37.545 
G1 X32.756 Y37.354 
G1 X32.858 Y37.164 
G1 X33.009 Y36.995 
G1 X33.282 Y36.752 
G1 X33.438 Y36.582 
G1 X33.709 Y36.211 
G1 X33.960 Y35.772 
G1 X34.185 Y35.284 
G1 X34.272 Y35.053 
G1 X34.399 Y34.428 
G1 X34.382 Y34.836 
G1 X34.333 Y35.192 
G1 X34.249 Y35.566 
G1 X34.131 Y35.969 
G1 X33.646 Y37.275 
G1 X33.461 Y37.394 
G1 X33.080 Y37.698 
G1 X32.840 Y37.830 
G1 X32.657 Y37.867 
G1 X32.224 Y37.849 
G1 X32.552 Y37.494 
G1 X32.689 Y37.311 
G1 X32.792 Y37.120 
G1 X32.955 Y36.938 
G1 X33.226 Y36.696 
G1 X33.377 Y36.532 
G1 X33.643 Y36.168 
G1 X33.889 Y35.736 
G1 X34.112 Y35.253 
G1 X34.308 Y34.732 
G1 X34.399 Y34.428 
G1 X34.446 Y33.936 
G1 X34.480 Y34.486 
G1 X34.461 Y34.843 
G1 X34.411 Y35.206 
G1 X34.326 Y35.586 
G1 X34.206 Y35.993 
G1 X33.710 Y37.330 
G1 X33.507 Y37.458 
G1 X33.125 Y37.763 
G1 X32.870 Y37.904 
G1 X32.784 Y37.932 
G1 X32.491 Y37.949 
G1 X32.056 Y37.912 
G1 X32.492 Y37.443 
G1 X32.622 Y37.268 
G1 X32.726 Y37.076 
G1 X32.900 Y36.880 
G1 X33.171 Y36.639 
G1 X33.315 Y36.481 
G1 X33.576 Y36.124 
G1 X33.819 Y35.699 
G1 X34.039 Y35.223 
G1 X34.233 Y34.706 
G1 X34.395 Y34.162 
G1 X34.446 Y33.936 
G1 X34.458 Y33.486 
G1 X34.502 Y33.730 
G1 X34.546 Y34.117 
G1 X34.559 Y34.487 
G1 X34.540 Y34.851 
G1 X34.489 Y35.220 
G1 X34.403 Y35.606 
G1 X34.281 Y36.018 
G1 X33.772 Y37.389 
G1 X33.554 Y37.522 
G1 X33.170 Y37.829 
G1 X32.899 Y37.978 
G1 X32.801 Y38.010 
G1 X32.489 Y38.029 
G1 X32.078 Y37.997 
G1 X31.900 Y37.962 
G1 X32.431 Y37.393 
G1 X32.555 Y37.226 
G1 X32.659 Y37.033 
G1 X32.845 Y36.823 
G1 X33.115 Y36.583 
G1 X33.254 Y36.431 
G1 X33.509 Y36.081 
G1 X33.749 Y35.663 
G1 X33.966 Y35.192 
G1 X34.158 Y34.681 
G1 X34.318 Y34.142 
G1 X34.458 Y33.486 
G1 X34.445 Y33.033 
G1 X34.447 Y33.022 
G1 X34.581 Y33.718 
G1 X34.625 Y34.111 
G1 X34.638 Y34.488 
G1 X34.619 Y34.858 
G1 X34.567 Y35.234 
G1 X34.480 Y35.625 
G1 X34.357 Y36.042 
G1 X33.833 Y37.452 
G1 X33.785 Y37.468 
G1 X33.600 Y37.586 
G1 X33.215 Y37.894 
G1 X32.929 Y38.052 
G1 X32.818 Y38.087 
G1 X32.486 Y38.108 
G1 X32.067 Y38.076 
G1 X31.749 Y38.013 
G1 X32.370 Y37.342 
G1 X32.488 Y37.183 
G1 X32.593 Y36.989 
G1 X32.790 Y36.766 
G1 X33.059 Y36.527 
G1 X33.193 Y36.381 
G1 X33.443 Y36.038 
G1 X33.678 Y35.627 
G1 X33.893 Y35.161 
G1 X34.083 Y34.656 
G1 X34.242 Y34.122 
G1 X34.365 Y33.575 
G1 X34.445 Y33.033 
G1 X34.367 Y33.021 
G1 X34.437 Y32.592 
G1 X34.659 Y33.707 
G1 X34.704 Y34.105 
G1 X34.718 Y34.488 
G1 X34.698 Y34.866 
G1 X34.645 Y35.248 
G1 X34.556 Y35.645 
G1 X34.432 Y36.067 
G1 X33.894 Y37.514 
G1 X33.820 Y37.540 
G1 X33.647 Y37.651 
G1 X33.260 Y37.959 
G1 X32.958 Y38.125 
G1 X32.835 Y38.165 
G1 X32.484 Y38.187 
G1 X32.056 Y38.154 
G1 X31.705 Y38.085 
G1 X31.624 Y38.052 
G1 X31.711 Y37.932 
G1 X32.309 Y37.291 
G1 X32.421 Y37.140 
G1 X32.527 Y36.945 
G1 X32.736 Y36.708 
G1 X33.003 Y36.471 
G1 X33.131 Y36.331 
G1 X33.376 Y35.995 
G1 X33.608 Y35.590 
G1 X33.820 Y35.131 
G1 X34.007 Y34.630 
G1 X34.165 Y34.102 
G1 X34.287 Y33.560 
G1 X34.367 Y33.021 
G1 X34.289 Y33.009 
G1 X34.356 Y32.587 
G1 X34.409 Y32.441 
G1 X34.425 Y32.437 
G1 X34.495 Y32.481 
G1 X34.738 Y33.695 
G1 X34.783 Y34.099 
G1 X34.797 Y34.489 
G1 X34.777 Y34.873 
G1 X34.723 Y35.262 
G1 X34.633 Y35.665 
G1 X34.507 Y36.091 
G1 X33.955 Y37.577 
G1 X33.854 Y37.612 
G1 X33.693 Y37.715 
G1 X33.305 Y38.025 
G1 X32.988 Y38.199 
G1 X32.852 Y38.243 
G1 X32.482 Y38.266 
G1 X32.045 Y38.233 
G1 X31.682 Y38.161 
G1 X31.540 Y38.093 
G1 X31.530 Y38.069 
G1 X31.562 Y37.998 
G1 X31.650 Y37.880 
G1 X32.248 Y37.240 
G1 X32.354 Y37.098 
G1 X32.460 Y36.901 
G1 X32.681 Y36.651 
G1 X32.947 Y36.414 
G1 X33.070 Y36.280 
G1 X33.310 Y35.952 
G1 X33.537 Y35.554 
G1 X33.747 Y35.100 
G1 X33.932 Y34.605 
G1 X34.088 Y34.082 
G1 X34.209 Y33.546 
G1 X34.289 Y33.009 
G0   Z1.000
G0 X32.088 Y35.217 
G1   Z-0.110F180.0
G1 X32.229 Y35.274 
G1 X32.194 Y35.376 
G1 X32.088 Y35.217 
G1 X31.851 Y35.054 
G1 X32.237 Y35.189 
G1 X32.326 Y35.237 
G1 X32.212 Y35.565 
G1 X32.029 Y35.269 
G1 X31.851 Y35.054 
G1 X31.570 Y34.910 
G1 X31.960 Y34.999 
G1 X32.271 Y35.117 
G1 X32.422 Y35.200 
G1 X32.225 Y35.768 
G1 X32.092 Y35.509 
G1 X31.965 Y35.315 
G1 X31.820 Y35.135 
G1 X31.655 Y34.972 
G1 X31.570 Y34.910 
G1 X31.261 Y34.794 
G1 X31.625 Y34.837 
G1 X31.983 Y34.923 
G1 X32.304 Y35.045 
G1 X32.515 Y35.161 
G1 X32.229 Y35.995 
G1 X32.130 Y35.747 
G1 X31.900 Y35.362 
G1 X31.761 Y35.188 
G1 X31.604 Y35.033 
G1 X31.261 Y34.794 
G1 X31.016 Y34.708 
G1 X31.239 Y34.711 
G1 X31.639 Y34.759 
G1 X32.006 Y34.847 
G1 X32.337 Y34.972 
G1 X32.606 Y35.121 
G1 X32.211 Y36.282 
G1 X32.199 Y36.178 
G1 X32.141 Y35.978 
G1 X32.059 Y35.781 
G1 X31.836 Y35.409 
G1 X31.702 Y35.241 
G1 X31.553 Y35.093 
G1 X31.016 Y34.708 
G1 X30.793 Y34.626 
G1 X31.245 Y34.632 
G1 X31.653 Y34.681 
G1 X32.030 Y34.771 
G1 X32.371 Y34.900 
G1 X32.696 Y35.086 
G1 X32.656 Y35.251 
G1 X32.257 Y36.389 
G1 X32.143 Y36.372 
G1 X32.121 Y36.194 
G1 X32.067 Y36.004 
G1 X31.888 Y35.631 
G1 X31.643 Y35.294 
G1 X31.501 Y35.154 
G1 X31.065 Y34.852 
G1 X30.793 Y34.626 
G1 X30.611 Y34.559 
G1 X30.780 Y34.546 
G1 X31.250 Y34.553 
G1 X31.667 Y34.603 
G1 X32.053 Y34.695 
G1 X32.404 Y34.828 
G1 X32.715 Y35.000 
G1 X32.783 Y35.053 
G1 X32.732 Y35.273 
G1 X32.308 Y36.472 
G1 X32.168 Y36.463 
G1 X32.077 Y36.426 
G1 X32.043 Y36.209 
G1 X31.992 Y36.031 
G1 X31.820 Y35.671 
G1 X31.584 Y35.347 
G1 X31.450 Y35.214 
G1 X31.018 Y34.915 
G1 X30.611 Y34.559 
G1 X30.505 Y34.501 
G1 X30.777 Y34.467 
G1 X31.255 Y34.474 
G1 X31.681 Y34.525 
G1 X32.076 Y34.619 
G1 X32.437 Y34.756 
G1 X32.759 Y34.933 
G1 X32.861 Y35.026 
G1 X32.863 Y35.069 
G1 X32.808 Y35.295 
G1 X32.389 Y36.492 
G1 X32.352 Y36.544 
G1 X32.154 Y36.541 
G1 X32.069 Y36.516 
G1 X32.019 Y36.482 
G1 X31.993 Y36.442 
G1 X31.965 Y36.225 
G1 X31.917 Y36.057 
G1 X31.752 Y35.712 
G1 X31.525 Y35.400 
G1 X31.399 Y35.275 
G1 X30.970 Y34.979 
G1 X30.669 Y34.728 
G1 X30.475 Y34.519 
G1 X30.505 Y34.501 
G1 X30.476 Y34.427 
G1 X30.775 Y34.388 
G1 X31.260 Y34.395 
G1 X31.695 Y34.446 
G1 X32.100 Y34.543 
G1 X32.471 Y34.684 
G1 X32.803 Y34.867 
G1 X32.914 Y34.954 
G1 X32.939 Y35.006 
G1 X32.943 Y35.077 
G1 X32.885 Y35.318 
G1 X32.461 Y36.527 
G1 X32.418 Y36.596 
G1 X32.383 Y36.619 
G1 X32.318 Y36.631 
G1 X32.139 Y36.620 
G1 X32.034 Y36.588 
G1 X31.961 Y36.539 
G1 X31.918 Y36.470 
G1 X31.887 Y36.241 
G1 X31.842 Y36.083 
G1 X31.684 Y35.753 
G1 X31.466 Y35.454 
G1 X31.347 Y35.336 
G1 X30.922 Y35.042 
G1 X30.616 Y34.787 
G1 X30.458 Y34.632 
G1 X30.388 Y34.535 
G1 X30.383 Y34.501 
G1 X30.397 Y34.474 
G1 X30.476 Y34.427 
G0   Z1.000
G0 X28.859 Y27.774 
G1   Z-0.110F180.0
G1 X28.830 Y27.946 
G1 X28.728 Y28.317 
G1 X28.588 Y28.665 
G1 X28.466 Y28.887 
G1 X28.859 Y27.774 
G1 X28.907 Y27.963 
G1 X28.803 Y28.342 
G1 X28.660 Y28.698 
G1 X28.494 Y28.995 
G1 X28.295 Y29.253 
G1 X28.230 Y29.318 
G1 X28.890 Y27.446 
G1 X28.993 Y26.605 
G1 X29.007 Y27.135 
G1 X28.976 Y27.558 
G1 X28.907 Y27.963 
G1 X28.985 Y27.980 
G1 X28.878 Y28.367 
G1 X28.732 Y28.731 
G1 X28.560 Y29.038 
G1 X28.354 Y29.307 
G1 X28.127 Y29.534 
G1 X28.050 Y29.592 
G1 X28.813 Y27.428 
G1 X28.935 Y26.374 
G1 X28.943 Y26.030 
G1 X28.924 Y25.696 
G1 X29.039 Y26.261 
G1 X29.081 Y26.699 
G1 X29.087 Y27.138 
G1 X29.054 Y27.567 
G1 X28.985 Y27.980 
G1 X29.062 Y27.997 
G1 X28.953 Y28.393 
G1 X28.804 Y28.764 
G1 X28.626 Y29.082 
G1 X28.412 Y29.360 
G1 X28.179 Y29.594 
G1 X27.980 Y29.743 
G1 X27.898 Y29.783 
G1 X28.735 Y27.409 
G1 X28.856 Y26.370 
G1 X28.864 Y26.031 
G1 X28.845 Y25.695 
G1 X28.798 Y25.358 
G1 X28.722 Y25.015 
G1 X28.626 Y24.692 
G1 X28.777 Y24.999 
G1 X28.924 Y25.394 
G1 X29.038 Y25.813 
G1 X29.117 Y26.250 
G1 X29.160 Y26.695 
G1 X29.166 Y27.140 
G1 X29.133 Y27.577 
G1 X29.062 Y27.997 
G1 X29.140 Y28.014 
G1 X29.028 Y28.418 
G1 X28.876 Y28.797 
G1 X28.692 Y29.125 
G1 X28.471 Y29.414 
G1 X28.231 Y29.654 
G1 X28.021 Y29.811 
G1 X27.763 Y29.928 
G1 X28.658 Y27.391 
G1 X28.777 Y26.365 
G1 X28.784 Y26.032 
G1 X28.766 Y25.703 
G1 X28.720 Y25.372 
G1 X28.645 Y25.035 
G1 X28.542 Y24.687 
G1 X28.321 Y24.103 
G1 X28.459 Y24.268 
G1 X28.668 Y24.598 
G1 X28.850 Y24.967 
G1 X28.999 Y25.369 
G1 X29.116 Y25.796 
G1 X29.196 Y26.239 
G1 X29.240 Y26.691 
G1 X29.245 Y27.142 
G1 X29.212 Y27.586 
G1 X29.140 Y28.014 
G1 X29.217 Y28.031 
G1 X29.104 Y28.444 
G1 X28.949 Y28.830 
G1 X28.759 Y29.169 
G1 X28.529 Y29.467 
G1 X28.283 Y29.714 
G1 X28.063 Y29.879 
G1 X27.836 Y29.990 
G1 X27.642 Y30.046 
G1 X28.580 Y27.373 
G1 X28.697 Y26.360 
G1 X28.705 Y26.034 
G1 X28.687 Y25.710 
G1 X28.642 Y25.386 
G1 X28.568 Y25.055 
G1 X28.467 Y24.712 
G1 X28.179 Y23.966 
G1 X28.085 Y23.750 
G1 X28.276 Y23.926 
G1 X28.523 Y24.222 
G1 X28.738 Y24.559 
G1 X28.923 Y24.936 
G1 X29.075 Y25.345 
G1 X29.193 Y25.778 
G1 X29.275 Y26.228 
G1 X29.319 Y26.686 
G1 X29.324 Y27.145 
G1 X29.291 Y27.596 
G1 X29.217 Y28.031 
G1 X29.294 Y28.049 
G1 X29.179 Y28.469 
G1 X29.021 Y28.863 
G1 X28.825 Y29.212 
G1 X28.588 Y29.520 
G1 X28.335 Y29.774 
G1 X28.104 Y29.947 
G1 X27.864 Y30.064 
G1 X27.563 Y30.149 
G1  Y30.020 
G1 X28.503 Y27.354 
G1 X28.618 Y26.356 
G1 X28.626 Y26.035 
G1 X28.608 Y25.718 
G1 X28.564 Y25.400 
G1 X28.492 Y25.074 
G1 X28.392 Y24.736 
G1 X28.106 Y23.997 
G1 X27.897 Y23.516 
G1 X28.203 Y23.745 
G1 X28.334 Y23.872 
G1 X28.587 Y24.175 
G1 X28.807 Y24.520 
G1 X28.995 Y24.905 
G1 X29.150 Y25.321 
G1 X29.270 Y25.761 
G1 X29.353 Y26.217 
G1 X29.398 Y26.682 
G1 X29.404 Y27.147 
G1 X29.369 Y27.606 
G1 X29.294 Y28.049 
G1 X29.372 Y28.066 
G1 X29.254 Y28.494 
G1 X29.093 Y28.896 
G1 X28.891 Y29.256 
G1 X28.646 Y29.574 
G1 X28.387 Y29.834 
G1 X28.146 Y30.015 
G1 X27.893 Y30.138 
G1 X27.486 Y30.243 
G1 X27.484 Y30.007 
G1 X28.425 Y27.336 
G1 X28.539 Y26.351 
G1 X28.547 Y26.036 
G1 X28.529 Y25.726 
G1 X28.486 Y25.414 
G1 X28.415 Y25.094 
G1 X28.316 Y24.761 
G1 X28.033 Y24.028 
G1 X27.736 Y23.343 
G1 X27.956 Y23.459 
G1 X28.255 Y23.685 
G1 X28.393 Y23.818 
G1 X28.651 Y24.128 
G1 X28.876 Y24.481 
G1 X29.068 Y24.873 
G1 X29.226 Y25.297 
G1 X29.347 Y25.743 
G1 X29.432 Y26.206 
G1 X29.477 Y26.678 
G1 X29.483 Y27.150 
G1 X29.448 Y27.615 
G1 X29.372 Y28.066 
G1 X29.449 Y28.083 
G1 X29.329 Y28.520 
G1 X29.165 Y28.929 
G1 X28.957 Y29.299 
G1 X28.705 Y29.627 
G1 X28.439 Y29.894 
G1 X28.187 Y30.082 
G1 X27.922 Y30.213 
G1 X27.611 Y30.302 
G1 X27.461 Y30.328 
G1 X27.413 Y30.323 
G1 X27.404 Y29.993 
G1 X28.348 Y27.318 
G1 X28.460 Y26.346 
G1 X28.467 Y26.037 
G1 X28.450 Y25.733 
G1 X28.408 Y25.428 
G1 X28.338 Y25.114 
G1 X28.241 Y24.786 
G1 X27.960 Y24.059 
G1 X27.591 Y23.201 
G1 X27.834 Y23.298 
G1 X28.157 Y23.502 
G1 X28.451 Y23.764 
G1 X28.715 Y24.081 
G1 X28.945 Y24.442 
G1 X29.141 Y24.842 
G1 X29.301 Y25.272 
G1 X29.425 Y25.726 
G1 X29.510 Y26.196 
G1 X29.556 Y26.673 
G1 X29.562 Y27.152 
G1 X29.527 Y27.625 
G1 X29.449 Y28.083 
G1 X29.527 Y28.100 
G1 X29.404 Y28.545 
G1 X29.237 Y28.962 
G1 X29.024 Y29.343 
G1 X28.764 Y29.681 
G1 X28.491 Y29.954 
G1 X28.229 Y30.150 
G1 X27.950 Y30.287 
G1 X27.629 Y30.379 
G1 X27.464 Y30.408 
G1 X27.373 Y30.398 
G1 X27.333 Y30.337 
G1 X27.325 Y29.980 
G1 X28.270 Y27.299 
G1 X28.381 Y26.342 
G1 X28.388 Y26.039 
G1 X28.371 Y25.741 
G1 X28.330 Y25.442 
G1 X28.262 Y25.134 
G1 X28.166 Y24.810 
G1 X27.887 Y24.089 
G1 X27.512 Y23.226 
G1  Y23.135 
G1 X27.540 Y23.114 
G1 X27.617 Y23.124 
G1 X27.869 Y23.226 
G1 X28.205 Y23.438 
G1 X28.509 Y23.710 
G1 X28.779 Y24.034 
G1 X29.014 Y24.404 
G1 X29.214 Y24.811 
G1 X29.377 Y25.248 
G1 X29.502 Y25.708 
G1 X29.589 Y26.185 
G1 X29.635 Y26.669 
G1 X29.641 Y27.155 
G1 X29.605 Y27.634 
G1 X29.527 Y28.100 
G0   Z1.000
G0 X33.228 Y40.767 
G1   Z-0.110F180.0
G1 X32.700 Y40.821 
G1 X32.448 Y40.792 
G1 X32.163 Y40.732 
G1 X31.959 Y40.638 
G1 X33.104 Y40.676 
G1 X34.076 Y40.640 
G1 X33.228 Y40.767 
G1 X33.239 Y40.845 
G1 X32.701 Y40.901 
G1 X32.434 Y40.870 
G1 X32.138 Y40.808 
G1 X31.527 Y40.525 
G1 X32.495 Y40.586 
G1 X33.104 Y40.597 
G1 X33.691 Y40.585 
G1 X34.168 Y40.555 
G1 X34.281 Y40.694 
G1 X33.239 Y40.845 
G1 X33.250 Y40.924 
G1 X32.701 Y40.980 
G1 X32.419 Y40.948 
G1 X32.112 Y40.883 
G1 X31.086 Y40.408 
G1 X31.872 Y40.475 
G1 X32.498 Y40.507 
G1 X33.104 Y40.517 
G1 X33.688 Y40.505 
G1 X34.206 Y40.473 
G1 X34.445 Y40.758 
G1 X34.201 Y40.782 
G1 X33.250 Y40.924 
G1 X33.260 Y41.002 
G1 X32.702 Y41.059 
G1 X32.405 Y41.026 
G1 X32.087 Y40.959 
G1 X30.647 Y40.292 
G1 X31.877 Y40.396 
G1 X32.501 Y40.428 
G1 X33.104 Y40.438 
G1 X33.684 Y40.426 
G1 X34.245 Y40.391 
G1 X34.409 Y40.600 
G1 X34.638 Y40.824 
G1 X34.210 Y40.860 
G1 X33.260 Y41.002 
G1 X33.271 Y41.080 
G1 X32.702 Y41.139 
G1 X32.390 Y41.103 
G1 X32.062 Y41.035 
G1 X30.218 Y40.181 
G1 X31.883 Y40.317 
G1 X32.503 Y40.349 
G1 X33.104 Y40.359 
G1 X33.681 Y40.347 
G1 X34.285 Y40.307 
G1 X34.470 Y40.550 
G1 X34.739 Y40.802 
G1 X34.900 Y40.915 
G1 X34.641 Y40.899 
G1 X34.220 Y40.939 
G1 X33.271 Y41.080 
G0   Z1.000
G0 X35.743 Y41.188 
G1   Z-0.110F180.0
G1 X35.743 Y41.189 
G1 X35.741 Y41.188 
G1 X35.743 Y41.188 
G1 X35.769 Y41.111 
G1 X35.823 Y41.116 
G1 X35.821 Y41.341 
G1 X35.503 Y41.153 
G1 X35.373 Y41.098 
G1 X35.231 Y41.048 
G1 X35.083 Y41.014 
G1 X34.934 Y40.996 
G1 X34.643 Y40.978 
G1 X34.229 Y41.017 
G1 X32.920 Y41.205 
G1 X32.560 Y41.211 
G1 X32.037 Y41.110 
G1 X29.802 Y40.076 
G1 X31.888 Y40.238 
G1 X32.506 Y40.270 
G1 X33.104 Y40.280 
G1 X33.678 Y40.268 
G1 X34.327 Y40.223 
G1 X34.531 Y40.500 
G1 X34.785 Y40.737 
G1 X34.884 Y40.808 
G1 X35.195 Y40.974 
G1 X35.312 Y41.018 
G1 X35.635 Y41.096 
G1 X35.769 Y41.111 
G1 X35.778 Y41.032 
G1 X35.903 Y41.040 
G1 X35.907 Y41.527 
G1 X35.881 Y41.501 
G1 X35.757 Y41.392 
G1 X35.620 Y41.299 
G1 X35.473 Y41.226 
G1 X35.342 Y41.171 
G1 X35.209 Y41.124 
G1 X35.070 Y41.092 
G1 X34.929 Y41.075 
G1 X34.644 Y41.058 
G1 X34.239 Y41.096 
G1 X32.927 Y41.284 
G1 X32.551 Y41.290 
G1 X32.012 Y41.186 
G1 X29.397 Y39.975 
G1 X30.416 Y40.034 
G1 X31.894 Y40.159 
G1 X32.509 Y40.190 
G1 X33.104 Y40.201 
G1 X33.675 Y40.189 
G1 X34.370 Y40.138 
G1 X34.592 Y40.449 
G1 X34.832 Y40.673 
G1 X34.930 Y40.744 
G1 X35.222 Y40.900 
G1 X35.487 Y40.999 
G1 X35.778 Y41.032 
G1 X35.787 Y40.954 
G1 X35.983 Y40.960 
G1 X35.979 Y41.413 
G1 X36.002 Y41.742 
G1 X35.824 Y41.556 
G1 X35.709 Y41.454 
G1 X35.580 Y41.368 
G1 X35.442 Y41.299 
G1 X35.312 Y41.244 
G1 X35.186 Y41.200 
G1 X35.056 Y41.170 
G1 X34.924 Y41.154 
G1 X34.645 Y41.137 
G1 X34.248 Y41.175 
G1 X32.935 Y41.363 
G1 X32.703 Y41.377 
G1 X32.543 Y41.369 
G1 X31.987 Y41.262 
G1 X29.023 Y39.889 
G1 X29.515 Y39.899 
G1 X31.290 Y40.028 
G1 X31.899 Y40.080 
G1 X32.511 Y40.111 
G1 X33.104 Y40.121 
G1 X33.671 Y40.110 
G1 X34.416 Y40.053 
G1 X34.484 Y40.194 
G1 X34.654 Y40.399 
G1 X34.878 Y40.608 
G1 X34.976 Y40.679 
G1 X35.250 Y40.826 
G1 X35.506 Y40.922 
G1 X35.787 Y40.954 
G1 X35.927 Y40.890 
G1 X36.063 Y40.873 
G1 X36.058 Y41.411 
G1 X36.104 Y42.030 
G1 X35.954 Y41.799 
G1 X35.768 Y41.612 
G1 X35.660 Y41.517 
G1 X35.540 Y41.436 
G1 X35.411 Y41.372 
G1 X35.281 Y41.317 
G1 X34.919 Y41.233 
G1 X34.647 Y41.217 
G1 X34.258 Y41.253 
G1 X32.942 Y41.442 
G1 X32.704 Y41.456 
G1 X32.535 Y41.448 
G1 X31.962 Y41.337 
G1 X28.771 Y39.860 
G1 X28.604 Y39.818 
G1 X29.518 Y39.820 
G1 X31.297 Y39.949 
G1 X31.904 Y40.001 
G1 X32.514 Y40.032 
G1 X33.103 Y40.042 
G1 X33.668 Y40.031 
G1 X34.463 Y39.968 
G1 X34.551 Y40.151 
G1 X34.807 Y40.460 
G1 X35.141 Y40.700 
G1 X35.524 Y40.844 
G1 X35.927 Y40.890 
G1 X35.927 Y40.810 
G1 X36.144 Y40.783 
G1 X36.137 Y41.408 
G1 X36.179 Y42.004 
G1 X36.241 Y42.378 
G1 X35.892 Y41.849 
G1 X35.712 Y41.668 
G1 X35.612 Y41.580 
G1 X35.500 Y41.505 
G1 X35.381 Y41.445 
G1 X35.250 Y41.391 
G1 X34.914 Y41.312 
G1 X34.648 Y41.296 
G1 X34.268 Y41.332 
G1 X32.950 Y41.521 
G1 X32.704 Y41.535 
G1 X32.527 Y41.527 
G1 X31.937 Y41.413 
G1 X28.745 Y39.935 
G1 X28.133 Y39.781 
G1 X28.411 Y39.747 
G1 X29.134 Y39.730 
G1 X30.433 Y39.797 
G1 X31.910 Y39.921 
G1 X32.517 Y39.953 
G1 X33.103 Y39.963 
G1 X33.665 Y39.951 
G1 X34.510 Y39.883 
G1 X34.619 Y40.108 
G1 X34.861 Y40.402 
G1 X35.179 Y40.630 
G1 X35.543 Y40.767 
G1 X35.927 Y40.810 
G1 X35.926 Y40.730 
G1 X36.230 Y40.691 
G1 X36.216 Y41.406 
G1 X36.258 Y41.995 
G1 X36.353 Y42.568 
G1 X36.393 Y42.717 
G1 X36.117 Y42.342 
G1 X35.830 Y41.899 
G1 X35.656 Y41.724 
G1 X35.564 Y41.642 
G1 X35.461 Y41.573 
G1 X35.350 Y41.518 
G1 X35.220 Y41.464 
G1 X34.910 Y41.391 
G1 X34.649 Y41.376 
G1 X34.277 Y41.411 
G1 X32.957 Y41.600 
G1 X32.705 Y41.615 
G1 X32.518 Y41.606 
G1 X31.912 Y41.489 
G1 X28.718 Y40.010 
G1 X27.791 Y39.789 
G1 X28.189 Y39.690 
G1 X28.742 Y39.654 
G1 X29.525 Y39.662 
G1 X31.310 Y39.791 
G1 X32.520 Y39.874 
G1 X33.103 Y39.884 
G1 X33.661 Y39.872 
G1 X34.191 Y39.839 
G1 X34.559 Y39.798 
G1 X34.686 Y40.065 
G1 X34.916 Y40.343 
G1 X35.217 Y40.559 
G1 X35.562 Y40.689 
G1 X35.926 Y40.730 
G1 X35.926 Y40.651 
G1 X36.317 Y40.591 
G1 X36.296 Y41.404 
G1 X36.337 Y41.985 
G1 X36.431 Y42.551 
G1 X36.558 Y43.024 
G1 X36.321 Y42.755 
G1 X36.052 Y42.387 
G1 X35.768 Y41.949 
G1 X35.600 Y41.780 
G1 X35.515 Y41.705 
G1 X35.421 Y41.642 
G1 X35.320 Y41.591 
G1 X35.189 Y41.537 
G1 X34.905 Y41.470 
G1 X34.651 Y41.455 
G1 X34.287 Y41.489 
G1 X32.964 Y41.679 
G1 X32.705 Y41.694 
G1 X32.510 Y41.685 
G1 X31.887 Y41.564 
G1 X28.692 Y40.085 
G1 X28.033 Y39.919 
G1 X27.528 Y39.816 
G1 X27.854 Y39.684 
G1 X28.178 Y39.611 
G1 X28.740 Y39.574 
G1 X29.529 Y39.583 
G1 X31.317 Y39.712 
G1 X32.522 Y39.795 
G1 X33.103 Y39.804 
G1 X33.658 Y39.793 
G1 X34.184 Y39.760 
G1 X34.611 Y39.713 
G1 X34.753 Y40.022 
G1 X34.970 Y40.285 
G1 X35.254 Y40.489 
G1 X35.581 Y40.611 
G1 X35.926 Y40.651 
G1 X35.925 Y40.571 
G1 X36.215 Y40.535 
G1 X36.404 Y40.488 
G1 X36.381 Y40.801 
G1 X36.375 Y41.401 
G1 X36.416 Y41.976 
G1 X36.508 Y42.534 
G1 X36.655 Y43.082 
G1 X36.748 Y43.332 
G1 X36.575 Y43.163 
G1 X36.259 Y42.804 
G1 X35.986 Y42.432 
G1 X35.706 Y41.999 
G1 X35.544 Y41.836 
G1 X35.289 Y41.664 
G1 X35.159 Y41.610 
G1 X34.900 Y41.549 
G1 X34.652 Y41.534 
G1 X34.296 Y41.568 
G1 X32.972 Y41.758 
G1 X32.706 Y41.773 
G1 X32.502 Y41.764 
G1 X31.862 Y41.640 
G1 X28.665 Y40.160 
G1 X28.015 Y39.996 
G1 X27.309 Y39.857 
G1 X27.543 Y39.718 
G1 X27.831 Y39.608 
G1 X28.167 Y39.533 
G1 X28.738 Y39.495 
G1 X29.532 Y39.504 
G1 X31.323 Y39.633 
G1 X32.525 Y39.715 
G1 X33.103 Y39.725 
G1 X33.655 Y39.714 
G1 X34.177 Y39.681 
G1 X34.668 Y39.626 
G1 X34.820 Y39.979 
G1 X35.025 Y40.227 
G1 X35.292 Y40.418 
G1 X35.599 Y40.534 
G1 X35.925 Y40.571 
G1 X35.925 Y40.491 
G1 X36.201 Y40.457 
G1 X36.491 Y40.382 
G1 X36.460 Y40.805 
G1 X36.454 Y41.399 
G1 X36.494 Y41.967 
G1 X36.586 Y42.517 
G1 X36.731 Y43.058 
G1 X36.943 Y43.623 
G1 X36.517 Y43.218 
G1 X36.197 Y42.854 
G1 X35.921 Y42.477 
G1 X35.644 Y42.049 
G1 X35.488 Y41.892 
G1 X35.258 Y41.737 
G1 X35.128 Y41.683 
G1 X34.895 Y41.629 
G1 X34.653 Y41.614 
G1 X34.306 Y41.647 
G1 X32.979 Y41.836 
G1 X32.706 Y41.853 
G1 X32.494 Y41.842 
G1 X31.836 Y41.716 
G1 X28.639 Y40.235 
G1 X27.997 Y40.074 
G1 X27.380 Y39.948 
G1 X27.125 Y39.911 
G1 X27.269 Y39.788 
G1 X27.509 Y39.647 
G1 X27.808 Y39.532 
G1 X28.155 Y39.454 
G1 X28.736 Y39.416 
G1 X29.536 Y39.424 
G1 X31.330 Y39.554 
G1 X32.528 Y39.636 
G1 X33.103 Y39.646 
G1 X33.652 Y39.635 
G1 X34.170 Y39.602 
G1 X34.728 Y39.536 
G1 X34.761 Y39.673 
G1 X34.887 Y39.936 
G1 X35.079 Y40.168 
G1 X35.330 Y40.348 
G1 X35.618 Y40.456 
G1 X35.925 Y40.491 
G1 X35.924 Y40.411 
G1 X36.186 Y40.379 
G1 X36.578 Y40.270 
G1 X36.539 Y40.808 
G1 X36.533 Y41.396 
G1 X36.573 Y41.957 
G1 X36.663 Y42.501 
G1 X36.807 Y43.034 
G1 X37.003 Y43.565 
G1 X37.164 Y43.912 
G1 X36.821 Y43.624 
G1 X36.460 Y43.272 
G1 X36.136 Y42.904 
G1 X35.856 Y42.522 
G1 X35.582 Y42.099 
G1 X35.432 Y41.948 
G1 X35.228 Y41.810 
G1 X34.998 Y41.714 
G1 X34.655 Y41.693 
G1 X34.315 Y41.725 
G1 X32.986 Y41.915 
G1 X32.707 Y41.932 
G1 X32.485 Y41.921 
G1 X31.811 Y41.791 
G1 X28.612 Y40.310 
G1 X27.980 Y40.151 
G1 X27.366 Y40.026 
G1 X26.970 Y39.969 
G1 X27.120 Y39.806 
G1 X27.341 Y39.646 
G1 X27.623 Y39.512 
G1 X27.961 Y39.410 
G1 X28.383 Y39.352 
G1 X29.138 Y39.334 
G1 X30.462 Y39.402 
G1 X31.937 Y39.526 
G1 X32.531 Y39.557 
G1 X33.103 Y39.567 
G1 X33.648 Y39.556 
G1 X34.163 Y39.524 
G1 X34.787 Y39.445 
G1 X34.836 Y39.646 
G1 X34.955 Y39.893 
G1 X35.134 Y40.110 
G1 X35.367 Y40.277 
G1 X35.637 Y40.379 
G1 X35.924 Y40.411 
G1 X35.924 Y40.331 
G1 X36.172 Y40.301 
G1 X36.667 Y40.158 
G1 X36.618 Y40.811 
G1 X36.613 Y41.394 
G1 X36.652 Y41.948 
G1 X36.741 Y42.484 
G1 X36.882 Y43.010 
G1 X37.077 Y43.535 
G1 X37.375 Y44.165 
G1 X37.150 Y44.004 
G1 X36.768 Y43.683 
G1 X36.402 Y43.327 
G1 X36.074 Y42.953 
G1 X35.791 Y42.566 
G1 X35.520 Y42.149 
G1 X35.375 Y42.004 
G1 X35.197 Y41.883 
G1 X34.980 Y41.792 
G1 X34.656 Y41.773 
G1 X34.325 Y41.804 
G1 X32.994 Y41.994 
G1 X32.707 Y42.011 
G1 X32.477 Y42.000 
G1 X31.786 Y41.867 
G1 X28.585 Y40.385 
G1 X27.962 Y40.228 
G1 X27.353 Y40.104 
G1 X26.823 Y40.028 
G1 X26.977 Y39.834 
G1 X27.177 Y39.659 
G1 X27.440 Y39.504 
G1 X27.762 Y39.381 
G1 X28.132 Y39.297 
G1 X28.732 Y39.258 
G1 X29.543 Y39.266 
G1 X31.343 Y39.397 
G1 X32.533 Y39.478 
G1 X33.103 Y39.488 
G1 X33.645 Y39.477 
G1 X34.156 Y39.445 
G1 X34.852 Y39.354 
G1 X34.911 Y39.620 
G1 X35.022 Y39.849 
G1 X35.188 Y40.052 
G1 X35.405 Y40.207 
G1 X35.655 Y40.301 
G1 X35.924 Y40.331 
G1 X35.923 Y40.252 
G1 X36.157 Y40.223 
G1 X36.662 Y40.076 
G1 X36.758 Y40.038 
G1 X36.697 Y40.815 
G1 X36.692 Y41.392 
G1 X36.731 Y41.939 
G1 X36.818 Y42.467 
G1 X36.958 Y42.986 
G1 X37.150 Y43.505 
G1 X37.396 Y44.036 
G1 X37.594 Y44.405 
G1 X37.102 Y44.067 
G1 X36.714 Y43.741 
G1 X36.345 Y43.382 
G1 X36.012 Y43.003 
G1 X35.725 Y42.611 
G1 X35.458 Y42.199 
G1 X35.253 Y41.993 
G1 X34.962 Y41.871 
G1 X34.657 Y41.852 
G1 X34.335 Y41.883 
G1 X33.001 Y42.073 
G1 X32.707 Y42.091 
G1 X32.469 Y42.079 
G1 X31.761 Y41.943 
G1 X28.559 Y40.460 
G1 X27.945 Y40.305 
G1 X27.339 Y40.182 
G1 X26.690 Y40.089 
G1 X26.918 Y39.781 
G1 X27.130 Y39.595 
G1 X27.406 Y39.433 
G1 X27.739 Y39.305 
G1 X28.121 Y39.219 
G1 X28.730 Y39.179 
G1 X29.546 Y39.187 
G1 X31.350 Y39.318 
G1 X32.536 Y39.399 
G1 X33.102 Y39.408 
G1 X33.642 Y39.397 
G1 X34.149 Y39.366 
G1 X34.621 Y39.313 
G1 X34.925 Y39.260 
G1 X34.931 Y39.365 
G1 X34.986 Y39.593 
G1 X35.089 Y39.806 
G1 X35.243 Y39.993 
G1 X35.443 Y40.136 
G1 X35.674 Y40.223 
G1 X35.923 Y40.252 
G1 X35.923 Y40.172 
G1 X36.142 Y40.145 
G1 X36.635 Y40.002 
G1 X36.850 Y39.916 
G1 X36.777 Y40.818 
G1 X36.771 Y41.389 
G1 X36.809 Y41.929 
G1 X36.896 Y42.450 
G1 X37.033 Y42.962 
G1 X37.223 Y43.474 
G1 X37.466 Y44.001 
G1 X37.801 Y44.618 
G1 X37.444 Y44.409 
G1 X37.053 Y44.129 
G1 X36.661 Y43.800 
G1 X36.287 Y43.436 
G1 X35.950 Y43.053 
G1 X35.660 Y42.656 
G1 X35.396 Y42.249 
G1 X35.208 Y42.060 
G1 X34.943 Y41.949 
G1 X34.659 Y41.932 
G1 X34.344 Y41.961 
G1 X33.008 Y42.152 
G1 X32.708 Y42.170 
G1 X32.460 Y42.158 
G1 X31.736 Y42.018 
G1 X28.532 Y40.535 
G1 X27.927 Y40.383 
G1 X27.325 Y40.260 
G1 X26.558 Y40.148 
G1 X26.697 Y39.930 
G1 X26.859 Y39.727 
G1 X27.084 Y39.530 
G1 X27.372 Y39.361 
G1 X27.717 Y39.229 
G1 X28.110 Y39.140 
G1 X28.728 Y39.099 
G1 X29.550 Y39.108 
G1 X31.356 Y39.239 
G1 X32.539 Y39.319 
G1 X33.102 Y39.329 
G1 X33.639 Y39.318 
G1 X34.143 Y39.287 
G1 X34.610 Y39.235 
G1 X35.000 Y39.167 
G1 X35.009 Y39.353 
G1 X35.061 Y39.566 
G1 X35.156 Y39.763 
G1 X35.297 Y39.935 
G1 X35.480 Y40.066 
G1 X35.693 Y40.146 
G1 X35.923 Y40.172 
G1 X35.923 Y40.092 
G1 X36.128 Y40.067 
G1 X36.608 Y39.927 
G1 X36.942 Y39.792 
G1 X36.856 Y40.821 
G1 X36.850 Y41.387 
G1 X36.888 Y41.920 
G1 X36.973 Y42.433 
G1 X37.109 Y42.937 
G1 X37.296 Y43.444 
G1 X37.537 Y43.965 
G1 X37.988 Y44.787 
G1 X37.776 Y44.695 
G1 X37.401 Y44.475 
G1 X37.004 Y44.192 
G1 X36.608 Y43.859 
G1 X36.230 Y43.491 
G1 X35.888 Y43.102 
G1 X35.595 Y42.701 
G1 X35.334 Y42.299 
G1 X35.163 Y42.127 
G1 X34.925 Y42.027 
G1 X34.660 Y42.011 
G1 X34.354 Y42.040 
G1 X33.016 Y42.231 
G1 X32.708 Y42.249 
G1 X32.452 Y42.237 
G1 X31.711 Y42.094 
G1 X28.506 Y40.610 
G1 X27.909 Y40.460 
G1 X27.312 Y40.338 
G1 X26.435 Y40.209 
G1 X26.633 Y39.884 
G1 X26.800 Y39.674 
G1 X27.038 Y39.466 
G1 X27.337 Y39.290 
G1 X27.694 Y39.153 
G1 X28.098 Y39.062 
G1 X28.726 Y39.020 
G1 X29.554 Y39.029 
G1 X31.363 Y39.160 
G1 X32.541 Y39.240 
G1 X33.102 Y39.250 
G1 X33.635 Y39.239 
G1 X34.136 Y39.208 
G1 X34.599 Y39.156 
G1 X35.085 Y39.067 
G1 X35.088 Y39.342 
G1 X35.136 Y39.539 
G1 X35.223 Y39.720 
G1 X35.352 Y39.876 
G1 X35.518 Y39.996 
G1 X35.711 Y40.068 
G1 X35.923 Y40.092 
G1 X35.922 Y40.012 
G1 X36.113 Y39.989 
G1 X36.581 Y39.853 
G1 X37.034 Y39.668 
G1 X36.935 Y40.824 
G1 X36.929 Y41.384 
G1 X36.967 Y41.911 
G1 X37.051 Y42.417 
G1 X37.184 Y42.913 
G1 X37.369 Y43.413 
G1 X37.608 Y43.930 
G1 X38.166 Y44.939 
G1 X37.740 Y44.766 
G1 X37.357 Y44.542 
G1 X36.956 Y44.254 
G1 X36.555 Y43.918 
G1 X36.173 Y43.545 
G1 X35.826 Y43.152 
G1 X35.530 Y42.746 
G1 X35.272 Y42.349 
G1 X35.118 Y42.194 
G1 X34.907 Y42.105 
G1 X34.661 Y42.090 
G1 X34.363 Y42.119 
G1 X33.023 Y42.310 
G1 X32.709 Y42.328 
G1 X32.444 Y42.316 
G1 X31.686 Y42.170 
G1 X28.479 Y40.685 
G1 X27.892 Y40.537 
G1 X27.298 Y40.416 
G1 X26.315 Y40.270 
G1 X26.405 Y40.094 
G1 X26.569 Y39.838 
G1 X26.741 Y39.621 
G1 X26.991 Y39.402 
G1 X27.303 Y39.218 
G1 X27.671 Y39.077 
G1 X28.087 Y38.984 
G1 X28.724 Y38.941 
G1 X29.557 Y38.950 
G1 X31.370 Y39.081 
G1 X32.544 Y39.161 
G1 X33.102 Y39.171 
G1 X33.632 Y39.160 
G1 X34.129 Y39.129 
G1 X34.588 Y39.078 
G1 X35.177 Y38.962 
G1 X35.157 Y39.136 
G1 X35.167 Y39.330 
G1 X35.211 Y39.512 
G1 X35.290 Y39.677 
G1 X35.407 Y39.818 
G1 X35.556 Y39.925 
G1 X35.730 Y39.991 
G1 X35.922 Y40.012 
G1 X35.922 Y39.933 
G1 X36.099 Y39.911 
G1 X36.553 Y39.779 
G1 X37.125 Y39.544 
G1 X37.014 Y40.828 
G1 X37.009 Y41.382 
G1 X37.046 Y41.901 
G1 X37.128 Y42.400 
G1 X37.260 Y42.889 
G1 X37.443 Y43.383 
G1 X37.679 Y43.894 
G1 X38.322 Y45.052 
G1 X38.061 Y44.991 
G1 X37.704 Y44.837 
G1 X37.314 Y44.608 
G1 X36.907 Y44.317 
G1 X36.502 Y43.976 
G1 X36.115 Y43.600 
G1 X35.765 Y43.201 
G1 X35.464 Y42.791 
G1 X35.210 Y42.399 
G1 X35.073 Y42.261 
G1 X34.889 Y42.184 
G1 X34.663 Y42.170 
G1 X34.373 Y42.197 
G1 X33.031 Y42.389 
G1 X32.709 Y42.408 
G1 X32.436 Y42.395 
G1 X31.661 Y42.245 
G1 X28.453 Y40.760 
G1 X27.874 Y40.614 
G1 X27.285 Y40.494 
G1 X26.202 Y40.326 
G1 X26.336 Y40.054 
G1 X26.504 Y39.792 
G1 X26.683 Y39.568 
G1 X26.945 Y39.337 
G1 X27.269 Y39.147 
G1 X27.648 Y39.001 
G1 X28.076 Y38.905 
G1 X28.722 Y38.862 
G1 X29.561 Y38.870 
G1 X31.376 Y39.002 
G1 X32.547 Y39.082 
G1 X33.102 Y39.091 
G1 X33.629 Y39.081 
G1 X34.122 Y39.050 
G1 X34.576 Y38.999 
G1 X34.987 Y38.928 
G1 X35.273 Y38.856 
G1 X35.236 Y39.139 
G1 X35.246 Y39.319 
G1 X35.286 Y39.485 
G1 X35.358 Y39.634 
G1 X35.461 Y39.760 
G1 X35.593 Y39.855 
G1 X35.749 Y39.913 
G1 X35.922 Y39.933 
G1 X35.921 Y39.853 
G1 X36.084 Y39.833 
G1 X36.526 Y39.704 
G1 X37.216 Y39.430 
G1 X37.093 Y40.831 
G1 X37.088 Y41.379 
G1 X37.124 Y41.892 
G1 X37.206 Y42.383 
G1 X37.335 Y42.865 
G1 X37.516 Y43.352 
G1 X37.750 Y43.859 
G1 X38.467 Y45.147 
G1 X38.196 Y45.112 
G1 X38.034 Y45.066 
G1 X37.668 Y44.907 
G1 X37.271 Y44.675 
G1 X36.859 Y44.380 
G1 X36.449 Y44.035 
G1 X36.058 Y43.655 
G1 X35.703 Y43.251 
G1 X35.399 Y42.836 
G1 X35.148 Y42.449 
G1 X35.028 Y42.328 
G1 X34.870 Y42.262 
G1 X34.664 Y42.249 
G1 X34.383 Y42.276 
G1 X33.038 Y42.468 
G1 X32.710 Y42.487 
G1 X32.427 Y42.474 
G1 X31.636 Y42.321 
G1 X28.426 Y40.835 
G1 X27.857 Y40.692 
G1 X27.271 Y40.572 
G1 X26.220 Y40.415 
G1 X26.103 Y40.379 
G1 X26.141 Y40.264 
G1 X26.267 Y40.015 
G1 X26.440 Y39.745 
G1 X26.624 Y39.514 
G1 X26.899 Y39.273 
G1 X27.235 Y39.075 
G1 X27.625 Y38.925 
G1 X28.064 Y38.827 
G1 X28.720 Y38.783 
G1 X29.564 Y38.791 
G1 X31.383 Y38.923 
G1 X32.550 Y39.003 
G1 X33.102 Y39.012 
G1 X33.625 Y39.002 
G1 X34.115 Y38.971 
G1 X34.565 Y38.921 
G1 X34.971 Y38.851 
G1 X35.362 Y38.754 
G1 X35.316 Y39.141 
G1 X35.324 Y39.308 
G1 X35.361 Y39.459 
G1 X35.425 Y39.591 
G1 X35.516 Y39.701 
G1 X35.631 Y39.784 
G1 X35.767 Y39.836 
G1 X35.921 Y39.853 
G1 X35.921 Y39.773 
G1 X36.070 Y39.755 
G1 X36.499 Y39.630 
G1 X37.109 Y39.380 
G1 X37.281 Y39.328 
G1 X37.304 Y39.353 
G1 X37.173 Y40.834 
G1 X37.167 Y41.377 
G1 X37.203 Y41.883 
G1 X37.283 Y42.366 
G1 X37.411 Y42.841 
G1 X37.589 Y43.322 
G1 X37.821 Y43.823 
G1 X38.611 Y45.239 
G1 X38.178 Y45.189 
G1 X38.007 Y45.140 
G1 X37.632 Y44.978 
G1 X37.228 Y44.741 
G1 X36.810 Y44.442 
G1 X36.395 Y44.094 
G1 X36.000 Y43.709 
G1 X35.641 Y43.301 
G1 X35.334 Y42.881 
G1 X35.086 Y42.499 
G1 X34.983 Y42.395 
G1 X34.852 Y42.340 
G1 X34.665 Y42.329 
G1 X34.392 Y42.355 
G1 X33.045 Y42.547 
G1 X32.710 Y42.566 
G1 X32.419 Y42.553 
G1 X31.611 Y42.397 
G1 X28.400 Y40.910 
G1 X27.839 Y40.769 
G1 X27.258 Y40.650 
G1 X26.202 Y40.492 
G1 X26.067 Y40.451 
G1 X26.017 Y40.412 
G1 X26.068 Y40.232 
G1 X26.198 Y39.975 
G1 X26.375 Y39.699 
G1 X26.565 Y39.461 
G1 X26.852 Y39.209 
G1 X27.200 Y39.004 
G1 X27.603 Y38.849 
G1 X28.053 Y38.748 
G1 X28.718 Y38.703 
G1 X29.568 Y38.712 
G1 X31.390 Y38.844 
G1 X32.552 Y38.924 
G1 X33.102 Y38.933 
G1 X33.622 Y38.922 
G1 X34.108 Y38.892 
G1 X34.554 Y38.842 
G1 X34.954 Y38.773 
G1 X35.395 Y38.667 
G1 X35.439 Y38.697 
G1 X35.443 Y38.794 
G1 X35.395 Y39.144 
G1 X35.403 Y39.296 
G1 X35.436 Y39.432 
G1 X35.492 Y39.548 
G1 X35.570 Y39.643 
G1 X35.669 Y39.714 
G1 X35.786 Y39.758 
G1 X35.921 Y39.773 
G0   Z1.000
G0 X34.389 Y45.371 
G1   Z-0.110F180.0
G1 X34.564 Y45.615 
G1 X34.395 Y45.458 
G1 X34.118 Y45.255 
G1 X34.300 Y45.267 
G1 X34.389 Y45.371 
G1 X34.451 Y45.322 
G1 X34.680 Y45.651 
G1 X34.852 Y46.024 
G1 X34.860 Y46.050 
G1 X34.620 Y45.776 
G1 X34.344 Y45.519 
G1 X34.038 Y45.294 
G1 X33.781 Y45.154 
G1 X34.339 Y45.190 
G1 X34.451 Y45.322 
G1 X34.513 Y45.272 
G1 X34.749 Y45.611 
G1 X34.926 Y45.996 
G1 X35.068 Y46.467 
G1 X34.809 Y46.111 
G1 X34.563 Y45.831 
G1 X34.294 Y45.580 
G1 X33.995 Y45.361 
G1 X33.666 Y45.181 
G1 X33.271 Y45.047 
G1 X34.379 Y45.116 
G1 X34.513 Y45.272 
G1 X34.575 Y45.223 
G1 X34.818 Y45.572 
G1 X35.000 Y45.969 
G1 X35.177 Y46.570 
G1 X35.249 Y46.914 
G1 X34.970 Y46.461 
G1 X34.747 Y46.161 
G1 X34.506 Y45.887 
G1 X34.243 Y45.641 
G1 X33.953 Y45.428 
G1 X33.633 Y45.254 
G1 X33.332 Y45.146 
G1 X32.554 Y44.926 
G1 X34.420 Y45.041 
G1 X34.575 Y45.223 
G1 X34.637 Y45.173 
G1 X34.886 Y45.532 
G1 X35.075 Y45.941 
G1 X35.254 Y46.552 
G1 X35.438 Y47.431 
G1 X35.111 Y46.829 
G1 X34.905 Y46.506 
G1 X34.685 Y46.210 
G1 X34.449 Y45.942 
G1 X34.192 Y45.702 
G1 X33.910 Y45.495 
G1 X33.601 Y45.326 
G1 X33.308 Y45.222 
G1 X32.184 Y44.893 
G1 X31.765 Y44.734 
G1 X31.358 Y44.545 
G1 X30.910 Y44.299 
G1 X30.379 Y43.972 
G1 X28.383 Y42.641 
G1 X27.901 Y42.359 
G1 X27.441 Y42.130 
G1 X26.992 Y41.956 
G1 X26.543 Y41.842 
G1 X26.226 Y41.813 
G1 X26.498 Y41.819 
G1 X26.786 Y41.861 
G1 X27.095 Y41.935 
G1 X27.420 Y42.043 
G1 X27.770 Y42.191 
G1 X28.155 Y42.386 
G1 X28.580 Y42.633 
G1 X29.053 Y42.935 
G1 X30.243 Y43.753 
G1 X30.845 Y44.122 
G1 X31.417 Y44.419 
G1 X31.969 Y44.650 
G1 X32.367 Y44.797 
G1 X32.648 Y44.855 
G1 X34.460 Y44.967 
G1 X34.637 Y45.173 
G1 X34.698 Y45.123 
G1 X34.955 Y45.493 
G1 X35.149 Y45.914 
G1 X35.331 Y46.533 
G1 X35.654 Y48.083 
G1 X35.586 Y47.883 
G1 X35.043 Y46.870 
G1 X34.840 Y46.551 
G1 X34.624 Y46.260 
G1 X34.392 Y45.997 
G1 X34.142 Y45.763 
G1 X33.868 Y45.562 
G1 X33.568 Y45.399 
G1 X33.284 Y45.297 
G1 X32.158 Y44.968 
G1 X31.734 Y44.807 
G1 X31.322 Y44.616 
G1 X30.870 Y44.368 
G1 X30.336 Y44.038 
G1 X28.341 Y42.708 
G1 X27.864 Y42.429 
G1 X27.409 Y42.203 
G1 X26.968 Y42.032 
G1 X26.530 Y41.920 
G1 X26.085 Y41.880 
G1 X25.638 Y41.932 
G1 X25.189 Y42.108 
G1 X25.365 Y41.968 
G1 X25.520 Y41.884 
G1 X25.706 Y41.814 
G1 X25.911 Y41.763 
G1 X26.199 Y41.734 
G1 X26.505 Y41.740 
G1 X26.801 Y41.783 
G1 X27.117 Y41.859 
G1 X27.448 Y41.969 
G1 X27.803 Y42.119 
G1 X28.192 Y42.316 
G1 X28.622 Y42.565 
G1 X29.097 Y42.869 
G1 X30.286 Y43.687 
G1 X30.884 Y44.053 
G1 X31.451 Y44.347 
G1 X31.998 Y44.576 
G1 X32.395 Y44.723 
G1 X32.652 Y44.776 
G1 X34.378 Y44.875 
G1 X34.501 Y44.893 
G1 X34.698 Y45.123 
G1 X34.760 Y45.074 
G1 X35.024 Y45.453 
G1 X35.127 Y45.653 
G1 X35.223 Y45.886 
G1 X35.409 Y46.515 
G1 X35.808 Y48.433 
G1 X36.026 Y49.244 
G1 X36.287 Y49.963 
G1 X36.593 Y50.592 
G1 X36.955 Y51.247 
G1 X38.853 Y53.615 
G1 X39.097 Y54.275 
G1 X39.142 Y54.489 
G1 X39.168 Y54.772 
G1 X39.164 Y55.493 
G1 X39.089 Y56.093 
G1 X38.925 Y56.733 
G1 X38.655 Y57.471 
G1 X38.223 Y58.450 
G1 X36.582 Y61.313 
G1 X36.436 Y61.614 
G1 X36.844 Y60.283 
G1 X37.051 Y59.496 
G1 X37.236 Y58.701 
G1 X37.398 Y57.897 
G1 X37.539 Y57.086 
G1 X37.657 Y56.267 
G1 X37.754 Y55.440 
G1 X37.876 Y53.904 
G1 X37.881 Y53.628 
G1 X37.861 Y53.363 
G1 X37.795 Y53.090 
G1 X37.669 Y52.830 
G1 X37.173 Y52.171 
G1 X36.912 Y51.737 
G1 X36.670 Y51.277 
G1 X35.513 Y47.915 
G1 X34.975 Y46.911 
G1 X34.775 Y46.596 
G1 X34.562 Y46.310 
G1 X34.335 Y46.052 
G1 X34.091 Y45.824 
G1 X33.825 Y45.629 
G1 X33.536 Y45.472 
G1 X33.260 Y45.373 
G1 X32.626 Y45.198 
G1 X32.133 Y45.043 
G1 X31.703 Y44.880 
G1 X31.286 Y44.686 
G1 X30.830 Y44.436 
G1 X30.293 Y44.105 
G1 X28.300 Y42.775 
G1 X27.826 Y42.498 
G1 X27.377 Y42.276 
G1 X26.944 Y42.107 
G1 X26.516 Y41.999 
G1 X26.086 Y41.960 
G1 X25.656 Y42.009 
G1 X25.294 Y42.142 
G1 X25.046 Y42.271 
G1 X24.877 Y42.388 
G1 X25.054 Y42.129 
G1 X25.180 Y42.005 
G1 X25.322 Y41.901 
G1 X25.487 Y41.812 
G1 X25.682 Y41.738 
G1 X25.897 Y41.684 
G1 X26.196 Y41.654 
G1 X26.512 Y41.661 
G1 X26.816 Y41.706 
G1 X27.139 Y41.783 
G1 X27.476 Y41.895 
G1 X27.837 Y42.048 
G1 X28.230 Y42.247 
G1 X28.663 Y42.497 
G1 X29.141 Y42.803 
G1 X30.329 Y43.620 
G1 X30.923 Y43.984 
G1 X31.485 Y44.275 
G1 X32.027 Y44.502 
G1 X32.535 Y44.691 
G1 X34.386 Y44.797 
G1 X34.546 Y44.823 
G1 X34.760 Y45.074 
G1 X34.822 Y45.024 
G1 X35.093 Y45.414 
G1 X35.199 Y45.620 
G1 X35.298 Y45.859 
G1 X35.486 Y46.497 
G1 X35.885 Y48.415 
G1 X36.102 Y49.221 
G1 X36.360 Y49.932 
G1 X36.662 Y50.555 
G1 X37.021 Y51.203 
G1 X38.922 Y53.575 
G1 X39.174 Y54.254 
G1 X39.221 Y54.477 
G1 X39.247 Y54.767 
G1 X39.244 Y55.498 
G1 X39.166 Y56.108 
G1 X39.001 Y56.756 
G1 X38.728 Y57.501 
G1 X38.294 Y58.486 
G1 X36.652 Y61.350 
G1 X35.797 Y63.129 
G1 X36.018 Y62.565 
G1 X36.290 Y61.806 
G1 X36.540 Y61.038 
G1 X36.768 Y60.262 
G1 X36.974 Y59.477 
G1 X37.158 Y58.684 
G1 X37.320 Y57.883 
G1 X37.461 Y57.073 
G1 X37.579 Y56.256 
G1 X37.675 Y55.431 
G1 X37.797 Y53.900 
G1 X37.802 Y53.630 
G1 X37.783 Y53.375 
G1 X37.720 Y53.117 
G1 X37.602 Y52.872 
G1 X37.107 Y52.214 
G1 X36.843 Y51.776 
G1 X36.597 Y51.309 
G1 X35.440 Y47.946 
G1 X34.907 Y46.951 
G1 X34.709 Y46.641 
G1 X34.501 Y46.360 
G1 X34.279 Y46.108 
G1 X34.040 Y45.885 
G1 X33.783 Y45.696 
G1 X33.504 Y45.544 
G1 X33.236 Y45.448 
G1 X32.603 Y45.274 
G1 X32.107 Y45.118 
G1 X31.672 Y44.953 
G1 X31.251 Y44.757 
G1 X30.790 Y44.505 
G1 X30.250 Y44.172 
G1 X28.258 Y42.843 
G1 X27.788 Y42.568 
G1 X27.345 Y42.348 
G1 X26.920 Y42.183 
G1 X26.503 Y42.077 
G1 X26.087 Y42.040 
G1 X25.675 Y42.087 
G1 X25.326 Y42.215 
G1 X24.990 Y42.389 
G1 X24.651 Y42.716 
G1 X24.766 Y42.423 
G1 X24.874 Y42.234 
G1 X24.995 Y42.076 
G1 X25.128 Y41.945 
G1 X25.280 Y41.833 
G1 X25.455 Y41.739 
G1 X25.659 Y41.662 
G1 X25.884 Y41.606 
G1 X26.193 Y41.575 
G1 X26.518 Y41.582 
G1 X26.831 Y41.628 
G1 X27.161 Y41.707 
G1 X27.503 Y41.821 
G1 X27.870 Y41.976 
G1 X28.268 Y42.177 
G1 X28.704 Y42.430 
G1 X29.185 Y42.737 
G1 X30.372 Y43.554 
G1 X30.962 Y43.915 
G1 X31.518 Y44.204 
G1 X32.056 Y44.428 
G1 X32.552 Y44.612 
G1 X34.394 Y44.718 
G1 X34.585 Y44.753 
G1 X34.822 Y45.024 
G1 X34.884 Y44.975 
G1 X35.161 Y45.374 
G1 X35.271 Y45.587 
G1 X35.372 Y45.831 
G1 X35.563 Y46.478 
G1 X35.962 Y48.396 
G1 X36.178 Y49.198 
G1 X36.433 Y49.901 
G1 X36.732 Y50.517 
G1 X37.088 Y51.159 
G1 X38.992 Y53.535 
G1 X39.250 Y54.233 
G1 X39.299 Y54.466 
G1 X39.326 Y54.763 
G1 X39.323 Y55.503 
G1 X39.244 Y56.123 
G1 X39.077 Y56.780 
G1 X38.802 Y57.531 
G1 X38.365 Y58.522 
G1 X36.722 Y61.387 
G1 X35.979 Y62.912 
G1 X34.216 Y66.918 
G1 X33.513 Y68.200 
G1 X33.259 Y68.610 
G1 X32.995 Y68.997 
G1 X32.722 Y69.362 
G1 X32.440 Y69.704 
G1 X32.150 Y70.023 
G1 X31.852 Y70.319 
G1 X31.173 Y70.896 
G1 X30.779 Y71.198 
G1 X29.926 Y71.799 
G1 X29.023 Y72.372 
G1 X28.092 Y72.906 
G1 X27.157 Y73.387 
G1 X26.239 Y73.803 
G1 X25.376 Y74.138 
G1 X24.580 Y74.384 
G1 X24.207 Y74.476 
G1 X22.745 Y73.194 
G1 X22.336 Y72.795 
G1 X21.955 Y72.381 
G1 X21.603 Y71.954 
G1 X21.279 Y71.517 
G1 X20.985 Y71.071 
G1 X20.721 Y70.617 
G1 X20.489 Y70.159 
G1 X20.288 Y69.697 
G1 X20.120 Y69.233 
G1 X19.985 Y68.770 
