;START
;%
;(VECTRIC POST REVISION)
;(2913AB479EA3000D32B9C42F7F010597)
;O0001
;G17 G90 G21 G40 G80
;G08 P1
;T0
;(TOOL#1)
;T1
;M11
;G0 G43 Z20.000 H1
G1 X79.881 Y269.475 Z-25.8029 E0.00000
G1 X79.881 Y269.475 Z-24.8029 E0.00000
G1 X79.881 Y269.475 Z-25.9529 E0.00000 F90.0
G1 X80.018 Y269.365 Z-25.9500 E0.00000 F120.0
G1 X80.178 Y269.288 Z-25.9474 E0.00000
G1 X80.355 Y269.251 Z-25.9453 E0.00000
G1 X80.548 Y269.260 Z-25.9438 E0.00000
G1 X80.652 Y269.288 Z-25.9434 E0.00000
G1 X80.755 Y269.329 Z-25.9432 E0.00000
G1 X80.857 Y269.397 Z-25.9435 E0.00000
G1 X80.962 Y269.489 Z-25.9442 E0.00000
G1 X81.071 Y269.634 Z-25.9457 E0.00000
G1 X81.136 Y269.791 Z-25.9478 E0.00000
G1 X81.162 Y269.959 Z-25.9505 E0.00000
G1 X81.149 Y270.129 Z-25.9535 E0.00000
G1 X81.098 Y270.293 Z-25.9566 E0.00000
G1 X81.012 Y270.444 Z-25.9599 E0.00000
G1 X80.891 Y270.573 Z-25.9630 E0.00000
G1 X80.740 Y270.672 Z-25.9658 E0.00000
G1 X80.597 Y270.715 Z-25.9676 E0.00000
G1 X80.410 Y270.731 Z-25.9693 E0.00000
G1 X80.225 Y270.715 Z-25.9704 E0.00000
G1 X80.088 Y270.672 Z-25.9707 E0.00000
G1 X79.943 Y270.576 Z-25.9703 E0.00000
G1 X79.825 Y270.453 Z-25.9692 E0.00000
G1 X79.738 Y270.306 Z-25.9675 E0.00000
G1 X79.685 Y270.138 Z-25.9652 E0.00000
G1 X79.670 Y269.949 Z-25.9623 E0.00000
G1 X79.702 Y269.774 Z-25.9592 E0.00000
G1 X79.774 Y269.614 Z-25.9560 E0.00000
G1 X79.881 Y269.475 Z-25.9529 E0.00000
G1 X79.881 Y269.475 Z-24.8029 E0.00000
G1 X79.801 Y269.383 Z-24.8021 E0.00000
G1 X79.721 Y269.290 Z-24.8013 E0.00000
G1 X79.641 Y269.197 Z-24.8004 E0.00000
G1 X79.561 Y269.105 Z-24.7996 E0.00000
G1 X79.561 Y269.105 Z-25.9496 E0.00000 F90.0
G1 X79.431 Y269.253 Z-25.9531 E0.00000 F120.0
G1 X79.327 Y269.421 Z-25.9567 E0.00000
G1 X79.290 Y269.514 Z-25.9584 E0.00000
G1 X79.252 Y269.607 Z-25.9602 E0.00000
G1 X79.230 Y269.707 Z-25.9620 E0.00000
G1 X79.207 Y269.806 Z-25.9637 E0.00000
G1 X79.200 Y269.911 Z-25.9655 E0.00000
G1 X79.193 Y270.017 Z-25.9672 E0.00000
G1 X79.203 Y270.145 Z-25.9691 E0.00000
G1 X79.214 Y270.273 Z-25.9710 E0.00000
G1 X79.255 Y270.389 Z-25.9726 E0.00000
G1 X79.297 Y270.505 Z-25.9741 E0.00000
G1 X79.351 Y270.600 Z-25.9752 E0.00000
G1 X79.405 Y270.695 Z-25.9763 E0.00000
G1 X79.475 Y270.780 Z-25.9771 E0.00000
G1 X79.545 Y270.865 Z-25.9779 E0.00000
G1 X79.628 Y270.937 Z-25.9785 E0.00000
G1 X79.711 Y271.009 Z-25.9790 E0.00000
G1 X79.802 Y271.063 Z-25.9792 E0.00000
G1 X79.893 Y271.117 Z-25.9794 E0.00000
G1 X80.008 Y271.165 Z-25.9794 E0.00000
G1 X80.124 Y271.194 Z-25.9790 E0.00000
G1 X80.224 Y271.199 Z-25.9783 E0.00000
G1 X80.325 Y271.203 Z-25.9777 E0.00000
G1 X80.425 Y271.208 Z-25.9770 E0.00000
G1 X80.529 Y271.203 Z-25.9762 E0.00000
G1 X80.633 Y271.198 Z-25.9754 E0.00000
G1 X80.737 Y271.193 Z-25.9745 E0.00000
G1 X80.846 Y271.150 Z-25.9730 E0.00000
G1 X80.956 Y271.108 Z-25.9715 E0.00000
G1 X81.049 Y271.047 Z-25.9698 E0.00000
G1 X81.143 Y270.986 Z-25.9681 E0.00000
G1 X81.227 Y270.909 Z-25.9661 E0.00000
G1 X81.312 Y270.831 Z-25.9642 E0.00000
G1 X81.382 Y270.744 Z-25.9621 E0.00000
G1 X81.453 Y270.656 Z-25.9601 E0.00000
G1 X81.504 Y270.564 Z-25.9581 E0.00000
G1 X81.554 Y270.472 Z-25.9562 E0.00000
G1 X81.585 Y270.362 Z-25.9540 E0.00000
G1 X81.617 Y270.253 Z-25.9519 E0.00000
G1 X81.625 Y270.120 Z-25.9495 E0.00000
G1 X81.632 Y269.986 Z-25.9472 E0.00000
G1 X81.625 Y269.847 Z-25.9448 E0.00000
G1 X81.617 Y269.709 Z-25.9425 E0.00000
G1 X81.577 Y269.596 Z-25.9409 E0.00000
G1 X81.536 Y269.482 Z-25.9393 E0.00000
G1 X81.456 Y269.336 Z-25.9374 E0.00000
G1 X81.360 Y269.206 Z-25.9360 E0.00000
G1 X81.247 Y269.089 Z-25.9350 E0.00000
G1 X81.120 Y268.989 Z-25.9344 E0.00000
G1 X80.981 Y268.905 Z-25.9341 E0.00000
G1 X80.832 Y268.840 Z-25.9343 E0.00000
G1 X80.674 Y268.793 Z-25.9349 E0.00000
G1 X80.506 Y268.766 Z-25.9360 E0.00000
G1 X80.404 Y268.767 Z-25.9368 E0.00000
G1 X80.303 Y268.767 Z-25.9377 E0.00000
G1 X80.196 Y268.788 Z-25.9390 E0.00000
G1 X80.089 Y268.809 Z-25.9403 E0.00000
G1 X79.991 Y268.845 Z-25.9417 E0.00000
G1 X79.893 Y268.880 Z-25.9432 E0.00000
G1 X79.804 Y268.930 Z-25.9447 E0.00000
G1 X79.716 Y268.980 Z-25.9463 E0.00000
G1 X79.561 Y269.105 Z-25.9496 E0.00000
G1 X79.561 Y269.105 Z-24.7996 E0.00000
G1 X79.652 Y269.148 Z-24.7996 E0.00000
G1 X79.744 Y269.192 Z-24.7995 E0.00000
G1 X79.835 Y269.235 Z-24.7994 E0.00000
G1 X79.927 Y269.278 Z-24.7993 E0.00000
G1 X80.018 Y269.322 Z-24.7993 E0.00000
G1 X80.110 Y269.365 Z-24.7992 E0.00000
G1 X80.201 Y269.408 Z-24.7991 E0.00000
G1 X80.293 Y269.452 Z-24.7991 E0.00000
G1 X80.384 Y269.495 Z-24.7990 E0.00000
G1 X80.476 Y269.538 Z-24.7990 E0.00000
G1 X80.567 Y269.582 Z-24.7990 E0.00000
G1 X80.659 Y269.625 Z-24.7989 E0.00000
G1 X80.750 Y269.668 Z-24.7989 E0.00000
G1 X80.842 Y269.712 Z-24.7989 E0.00000
G1 X80.933 Y269.755 Z-24.7989 E0.00000
G1 X81.025 Y269.798 Z-24.7989 E0.00000
G1 X81.116 Y269.842 Z-24.7989 E0.00000
G1 X81.208 Y269.885 Z-24.7989 E0.00000
G1 X81.299 Y269.928 Z-24.7989 E0.00000
G1 X81.391 Y269.972 Z-24.7989 E0.00000
G1 X81.482 Y270.015 Z-24.7989 E0.00000
G1 X81.574 Y270.058 Z-24.7989 E0.00000
G1 X81.665 Y270.102 Z-24.7989 E0.00000
G1 X81.757 Y270.145 Z-24.7989 E0.00000
G1 X81.848 Y270.188 Z-24.7990 E0.00000
G1 X81.940 Y270.232 Z-24.7990 E0.00000
G1 X82.031 Y270.275 Z-24.7991 E0.00000
G1 X82.123 Y270.318 Z-24.7991 E0.00000
G1 X82.214 Y270.362 Z-24.7991 E0.00000
G1 X82.306 Y270.405 Z-24.7992 E0.00000
G1 X82.397 Y270.448 Z-24.7993 E0.00000
G1 X82.489 Y270.492 Z-24.7993 E0.00000
G1 X82.580 Y270.535 Z-24.7994 E0.00000
G1 X82.672 Y270.578 Z-24.7995 E0.00000
G1 X82.763 Y270.622 Z-24.7996 E0.00000
G1 X82.855 Y270.665 Z-24.7996 E0.00000
G1 X82.946 Y270.709 Z-24.7997 E0.00000
G1 X83.037 Y270.752 Z-24.7998 E0.00000
G1 X83.129 Y270.795 Z-24.7999 E0.00000
G1 X83.220 Y270.839 Z-24.8000 E0.00000
G1 X83.312 Y270.882 Z-24.8002 E0.00000
G1 X83.403 Y270.925 Z-24.8003 E0.00000
G1 X83.495 Y270.969 Z-24.8004 E0.00000
G1 X83.586 Y271.012 Z-24.8005 E0.00000
G1 X83.678 Y271.055 Z-24.8006 E0.00000
G1 X83.769 Y271.099 Z-24.8008 E0.00000
G1 X83.861 Y271.142 Z-24.8009 E0.00000
G1 X83.952 Y271.185 Z-24.8011 E0.00000
G1 X84.044 Y271.229 Z-24.8012 E0.00000
G1 X84.135 Y271.272 Z-24.8014 E0.00000
G1 X84.227 Y271.315 Z-24.8015 E0.00000
G1 X84.318 Y271.359 Z-24.8017 E0.00000
G1 X84.410 Y271.402 Z-24.8019 E0.00000
G1 X84.501 Y271.445 Z-24.8020 E0.00000
G1 X84.593 Y271.489 Z-24.8022 E0.00000
G1 X84.684 Y271.532 Z-24.8024 E0.00000
G1 X84.776 Y271.575 Z-24.8026 E0.00000
G1 X84.867 Y271.619 Z-24.8028 E0.00000
G1 X84.959 Y271.662 Z-24.8030 E0.00000
G1 X85.050 Y271.705 Z-24.8032 E0.00000
G1 X85.142 Y271.749 Z-24.8034 E0.00000
G1 X85.233 Y271.792 Z-24.8036 E0.00000
G1 X85.325 Y271.835 Z-24.8038 E0.00000
G1 X85.416 Y271.879 Z-24.8040 E0.00000
G1 X85.508 Y271.922 Z-24.8043 E0.00000
G1 X85.599 Y271.965 Z-24.8045 E0.00000
G1 X85.691 Y272.009 Z-24.8047 E0.00000
G1 X85.782 Y272.052 Z-24.8050 E0.00000
G1 X85.874 Y272.095 Z-24.8052 E0.00000
G1 X85.965 Y272.139 Z-24.8055 E0.00000
G1 X86.057 Y272.182 Z-24.8057 E0.00000
G1 X86.148 Y272.225 Z-24.8060 E0.00000
G1 X86.240 Y272.269 Z-24.8063 E0.00000
G1 X86.331 Y272.312 Z-24.8066 E0.00000
G1 X86.331 Y272.312 Z-25.9566 E0.00000 F90.0
G1 X86.348 Y272.289 Z-25.9560 E0.00000 F120.0
G1 X86.377 Y272.269 Z-25.9554 E0.00000
G1 X86.399 Y272.265 Z-25.9552 E0.00000
G1 X86.420 Y272.269 Z-25.9551 E0.00000
G1 X86.448 Y272.288 Z-25.9553 E0.00000
G1 X86.467 Y272.316 Z-25.9557 E0.00000
G1 X86.469 Y272.321 Z-25.9558 E0.00000
G1 X86.466 Y272.331 Z-25.9561 E0.00000
G1 X86.445 Y272.365 Z-25.9569 E0.00000
G1 X86.416 Y272.388 Z-25.9575 E0.00000
G1 X86.399 Y272.392 Z-25.9577 E0.00000
G1 X86.381 Y272.388 Z-25.9578 E0.00000
G1 X86.351 Y272.364 Z-25.9575 E0.00000
G1 X86.332 Y272.334 Z-25.9570 E0.00000
G1 X86.329 Y272.321 Z-25.9567 E0.00000
G1 X86.331 Y272.312 Z-25.9566 E0.00000
G1 X86.331 Y272.312 Z-24.8066 E0.00000
G1 X86.261 Y272.383 Z-24.8085 E0.00000
G1 X86.190 Y272.455 Z-24.8103 E0.00000
G1 X86.120 Y272.526 Z-24.8122 E0.00000
G1 X86.050 Y272.598 Z-24.8141 E0.00000
G1 X85.979 Y272.669 Z-24.8160 E0.00000
G1 X85.909 Y272.741 Z-24.8179 E0.00000
G1 X85.838 Y272.812 Z-24.8197 E0.00000
G1 X85.768 Y272.884 Z-24.8216 E0.00000
G1 X85.698 Y272.955 Z-24.8234 E0.00000
G1 X85.627 Y273.027 Z-24.8253 E0.00000
G1 X85.557 Y273.098 Z-24.8271 E0.00000
G1 X85.487 Y273.170 Z-24.8290 E0.00000
G1 X85.416 Y273.241 Z-24.8308 E0.00000
G1 X85.346 Y273.313 Z-24.8326 E0.00000
G1 X85.275 Y273.384 Z-24.8344 E0.00000
G1 X85.205 Y273.455 Z-24.8362 E0.00000
G1 X85.135 Y273.527 Z-24.8380 E0.00000
G1 X85.064 Y273.598 Z-24.8398 E0.00000
G1 X84.994 Y273.670 Z-24.8416 E0.00000
G1 X84.924 Y273.741 Z-24.8434 E0.00000
G1 X84.853 Y273.813 Z-24.8452 E0.00000
G1 X84.783 Y273.884 Z-24.8469 E0.00000
G1 X84.713 Y273.956 Z-24.8487 E0.00000
G1 X84.642 Y274.027 Z-24.8505 E0.00000
G1 X84.572 Y274.099 Z-24.8522 E0.00000
G1 X84.501 Y274.170 Z-24.8540 E0.00000
G1 X84.431 Y274.242 Z-24.8557 E0.00000
G1 X84.361 Y274.313 Z-24.8574 E0.00000
G1 X84.290 Y274.385 Z-24.8592 E0.00000
G1 X84.220 Y274.456 Z-24.8609 E0.00000
G1 X84.150 Y274.527 Z-24.8626 E0.00000
G1 X84.079 Y274.599 Z-24.8643 E0.00000
G1 X84.009 Y274.670 Z-24.8660 E0.00000
G1 X83.939 Y274.742 Z-24.8677 E0.00000
G1 X83.868 Y274.813 Z-24.8694 E0.00000
G1 X83.798 Y274.885 Z-24.8711 E0.00000
G1 X83.727 Y274.956 Z-24.8727 E0.00000
G1 X83.657 Y275.028 Z-24.8744 E0.00000
G1 X83.587 Y275.099 Z-24.8761 E0.00000
G1 X83.516 Y275.171 Z-24.8777 E0.00000
G1 X83.446 Y275.242 Z-24.8794 E0.00000
G1 X83.376 Y275.314 Z-24.8810 E0.00000
G1 X83.305 Y275.385 Z-24.8827 E0.00000
G1 X83.235 Y275.457 Z-24.8843 E0.00000
G1 X83.165 Y275.528 Z-24.8859 E0.00000
G1 X83.094 Y275.599 Z-24.8876 E0.00000
G1 X83.024 Y275.671 Z-24.8892 E0.00000
G1 X82.953 Y275.742 Z-24.8908 E0.00000
G1 X82.883 Y275.814 Z-24.8924 E0.00000
G1 X82.813 Y275.885 Z-24.8940 E0.00000
G1 X82.742 Y275.957 Z-24.8956 E0.00000
G1 X82.672 Y276.028 Z-24.8972 E0.00000
G1 X82.602 Y276.100 Z-24.8987 E0.00000
G1 X82.531 Y276.171 Z-24.9003 E0.00000
G1 X82.461 Y276.243 Z-24.9019 E0.00000
G1 X82.390 Y276.314 Z-24.9034 E0.00000
G1 X82.320 Y276.386 Z-24.9050 E0.00000
G1 X82.250 Y276.457 Z-24.9065 E0.00000
G1 X82.179 Y276.529 Z-24.9081 E0.00000
G1 X82.109 Y276.600 Z-24.9096 E0.00000
G1 X82.109 Y276.600 Z-26.0596 E0.00000 F90.0
G1 X82.133 Y276.624 Z-26.0599 E0.00000 F120.0
G1 X82.154 Y276.660 Z-26.0605 E0.00000
G1 X82.157 Y276.674 Z-26.0607 E0.00000
G1 X82.157 Y276.680 Z-26.0608 E0.00000
G1 X82.127 Y276.736 Z-26.0619 E0.00000
G1 X82.116 Y276.746 Z-26.0621 E0.00000
G1 X82.099 Y276.755 Z-26.0624 E0.00000
G1 X82.086 Y276.757 Z-26.0624 E0.00000
G1 X82.072 Y276.756 Z-26.0625 E0.00000
G1 X82.038 Y276.740 Z-26.0623 E0.00000
G1 X82.015 Y276.721 Z-26.0621 E0.00000
G1 X82.002 Y276.701 Z-26.0618 E0.00000
G1 X81.997 Y276.682 Z-26.0615 E0.00000
G1 X81.997 Y276.663 Z-26.0611 E0.00000
G1 X82.004 Y276.645 Z-26.0608 E0.00000
G1 X82.018 Y276.625 Z-26.0604 E0.00000
G1 X82.049 Y276.603 Z-26.0599 E0.00000
G1 X82.074 Y276.593 Z-26.0596 E0.00000
G1 X82.087 Y276.591 Z-26.0595 E0.00000
G1 X82.096 Y276.593 Z-26.0595 E0.00000
G1 X82.109 Y276.600 Z-26.0596 E0.00000
G1 X82.109 Y276.600 Z-24.9096 E0.00000
G1 X82.108 Y276.700 Z-24.9114 E0.00000
G1 X82.108 Y276.801 Z-24.9131 E0.00000
G1 X82.107 Y276.901 Z-24.9149 E0.00000
G1 X82.107 Y277.001 Z-24.9167 E0.00000
G1 X82.106 Y277.102 Z-24.9184 E0.00000
G1 X82.105 Y277.202 Z-24.9202 E0.00000
G1 X82.105 Y277.302 Z-24.9220 E0.00000
G1 X82.104 Y277.403 Z-24.9237 E0.00000
G1 X82.104 Y277.503 Z-24.9255 E0.00000
G1 X82.103 Y277.603 Z-24.9273 E0.00000
G1 X82.102 Y277.704 Z-24.9290 E0.00000
G1 X82.102 Y277.804 Z-24.9308 E0.00000
G1 X82.101 Y277.904 Z-24.9325 E0.00000
G1 X82.101 Y278.005 Z-24.9343 E0.00000
G1 X82.100 Y278.105 Z-24.9361 E0.00000
G1 X82.099 Y278.206 Z-24.9378 E0.00000
G1 X82.099 Y278.306 Z-24.9396 E0.00000
G1 X82.098 Y278.406 Z-24.9414 E0.00000
G1 X82.098 Y278.507 Z-24.9431 E0.00000
G1 X82.097 Y278.607 Z-24.9449 E0.00000
G1 X82.097 Y278.707 Z-24.9467 E0.00000
G1 X82.096 Y278.808 Z-24.9484 E0.00000
G1 X82.095 Y278.908 Z-24.9502 E0.00000
G1 X82.095 Y279.008 Z-24.9520 E0.00000
G1 X82.094 Y279.109 Z-24.9537 E0.00000
G1 X82.094 Y279.209 Z-24.9555 E0.00000
G1 X82.093 Y279.309 Z-24.9572 E0.00000
G1 X82.092 Y279.410 Z-24.9590 E0.00000
G1 X82.092 Y279.510 Z-24.9608 E0.00000
G1 X82.091 Y279.610 Z-24.9625 E0.00000
G1 X82.091 Y279.711 Z-24.9643 E0.00000
G1 X82.090 Y279.811 Z-24.9661 E0.00000
G1 X82.089 Y279.911 Z-24.9678 E0.00000
G1 X82.089 Y280.012 Z-24.9696 E0.00000
G1 X82.088 Y280.112 Z-24.9714 E0.00000
G1 X82.088 Y280.212 Z-24.9731 E0.00000
G1 X82.087 Y280.313 Z-24.9749 E0.00000
G1 X82.086 Y280.413 Z-24.9766 E0.00000
G1 X82.086 Y280.513 Z-24.9784 E0.00000
G1 X82.085 Y280.614 Z-24.9802 E0.00000
G1 X82.085 Y280.714 Z-24.9819 E0.00000
G1 X82.084 Y280.814 Z-24.9837 E0.00000
G1 X82.083 Y280.915 Z-24.9855 E0.00000
G1 X82.083 Y281.015 Z-24.9872 E0.00000
G1 X82.082 Y281.115 Z-24.9890 E0.00000
G1 X82.082 Y281.216 Z-24.9907 E0.00000
G1 X82.081 Y281.316 Z-24.9925 E0.00000
G1 X82.081 Y281.416 Z-24.9943 E0.00000
G1 X82.080 Y281.517 Z-24.9960 E0.00000
G1 X82.079 Y281.617 Z-24.9978 E0.00000
G1 X82.079 Y281.718 Z-24.9996 E0.00000
G1 X82.078 Y281.818 Z-25.0013 E0.00000
G1 X82.078 Y281.918 Z-25.0031 E0.00000
G1 X82.077 Y282.019 Z-25.0051 E0.00000
G1 X82.076 Y282.119 Z-25.0076 E0.00000
G1 X82.076 Y282.219 Z-25.0100 E0.00000
G1 X82.075 Y282.320 Z-25.0124 E0.00000
G1 X82.075 Y282.420 Z-25.0148 E0.00000
G1 X82.074 Y282.520 Z-25.0172 E0.00000
G1 X82.073 Y282.621 Z-25.0196 E0.00000
G1 X82.073 Y282.721 Z-25.0220 E0.00000
G1 X82.072 Y282.821 Z-25.0244 E0.00000
G1 X82.072 Y282.922 Z-25.0268 E0.00000
G1 X82.071 Y283.022 Z-25.0292 E0.00000
G1 X82.071 Y283.022 Z-26.1792 E0.00000 F90.0
G1 X82.123 Y283.027 Z-26.1793 E0.00000 F120.0
G1 X82.141 Y283.033 Z-26.1794 E0.00000
G1 X82.151 Y283.042 Z-26.1796 E0.00000
G1 X82.178 Y283.083 Z-26.1806 E0.00000
G1 X82.196 Y283.127 Z-26.1816 E0.00000
G1 X82.198 Y283.143 Z-26.1820 E0.00000
G1 X82.195 Y283.153 Z-26.1822 E0.00000
G1 X82.175 Y283.185 Z-26.1830 E0.00000
G1 X82.137 Y283.223 Z-26.1840 E0.00000
G1 X82.109 Y283.239 Z-26.1844 E0.00000
G1 X82.083 Y283.242 Z-26.1845 E0.00000
G1 X82.041 Y283.235 Z-26.1843 E0.00000
G1 X82.010 Y283.220 Z-26.1840 E0.00000
G1 X81.989 Y283.203 Z-26.1836 E0.00000
G1 X81.976 Y283.186 Z-26.1832 E0.00000
G1 X81.968 Y283.166 Z-26.1827 E0.00000
G1 X81.965 Y283.144 Z-26.1822 E0.00000
G1 X81.969 Y283.118 Z-26.1816 E0.00000
G1 X81.981 Y283.088 Z-26.1809 E0.00000
G1 X82.001 Y283.057 Z-26.1801 E0.00000
G1 X82.035 Y283.028 Z-26.1794 E0.00000
G1 X82.071 Y283.022 Z-26.1792 E0.00000
G1 X82.071 Y283.022 Z-25.0292 E0.00000
G1 X81.988 Y282.943 Z-25.0274 E0.00000
G1 X81.905 Y282.863 Z-25.0255 E0.00000
G1 X81.821 Y282.784 Z-25.0237 E0.00000
G1 X81.738 Y282.704 Z-25.0218 E0.00000
G1 X81.655 Y282.625 Z-25.0200 E0.00000
G1 X81.655 Y282.625 Z-26.1700 E0.00000 F90.0
G1 X81.607 Y282.677 Z-26.1713 E0.00000 F120.0
G1 X81.521 Y282.790 Z-26.1741 E0.00000
G1 X81.461 Y282.925 Z-26.1774 E0.00000
G1 X81.431 Y283.070 Z-26.1809 E0.00000
G1 X81.433 Y283.220 Z-26.1845 E0.00000
G1 X81.456 Y283.338 Z-26.1874 E0.00000
G1 X81.500 Y283.446 Z-26.1899 E0.00000
G1 X81.562 Y283.541 Z-26.1921 E0.00000
G1 X81.641 Y283.623 Z-26.1940 E0.00000
G1 X81.735 Y283.687 Z-26.1955 E0.00000
G1 X81.841 Y283.733 Z-26.1965 E0.00000
G1 X81.956 Y283.761 Z-26.1970 E0.00000
G1 X82.079 Y283.770 Z-26.1971 E0.00000
G1 X82.248 Y283.755 Z-26.1966 E0.00000
G1 X82.401 Y283.703 Z-26.1952 E0.00000
G1 X82.531 Y283.612 Z-26.1929 E0.00000
G1 X82.632 Y283.484 Z-26.1897 E0.00000
G1 X82.674 Y283.383 Z-26.1873 E0.00000
G1 X82.717 Y283.282 Z-26.1848 E0.00000
G1 X82.724 Y283.175 Z-26.1823 E0.00000
G1 X82.731 Y283.068 Z-26.1797 E0.00000
G1 X82.701 Y282.965 Z-26.1773 E0.00000
G1 X82.671 Y282.862 Z-26.1749 E0.00000
G1 X82.611 Y282.774 Z-26.1728 E0.00000
G1 X82.551 Y282.685 Z-26.1707 E0.00000
G1 X82.484 Y282.611 Z-26.1690 E0.00000
G1 X82.484 Y282.510 Z-26.1666 E0.00000
G1 X82.484 Y282.409 Z-26.1642 E0.00000
G1 X82.484 Y282.308 Z-26.1618 E0.00000
G1 X82.484 Y282.206 Z-26.1594 E0.00000
G1 X82.484 Y282.105 Z-26.1570 E0.00000
G1 X82.484 Y282.004 Z-26.1546 E0.00000
G1 X82.484 Y281.903 Z-26.1526 E0.00000
G1 X82.484 Y281.802 Z-26.1508 E0.00000
G1 X82.484 Y281.700 Z-26.1490 E0.00000
G1 X82.484 Y281.599 Z-26.1472 E0.00000
G1 X82.484 Y281.498 Z-26.1454 E0.00000
G1 X82.484 Y281.397 Z-26.1436 E0.00000
G1 X82.484 Y281.296 Z-26.1418 E0.00000
G1 X82.484 Y281.195 Z-26.1400 E0.00000
G1 X82.484 Y281.094 Z-26.1381 E0.00000
G1 X82.484 Y280.992 Z-26.1363 E0.00000
G1 X82.484 Y280.891 Z-26.1345 E0.00000
G1 X82.484 Y280.790 Z-26.1327 E0.00000
G1 X82.484 Y280.689 Z-26.1309 E0.00000
G1 X82.484 Y280.588 Z-26.1291 E0.00000
G1 X82.484 Y280.486 Z-26.1273 E0.00000
G1 X82.484 Y280.385 Z-26.1255 E0.00000
G1 X82.484 Y280.284 Z-26.1237 E0.00000
G1 X82.484 Y280.183 Z-26.1219 E0.00000
G1 X82.484 Y280.082 Z-26.1201 E0.00000
G1 X82.484 Y279.981 Z-26.1183 E0.00000
G1 X82.484 Y279.880 Z-26.1165 E0.00000
G1 X82.484 Y279.778 Z-26.1147 E0.00000
G1 X82.484 Y279.677 Z-26.1129 E0.00000
G1 X82.484 Y279.576 Z-26.1111 E0.00000
G1 X82.484 Y279.475 Z-26.1093 E0.00000
G1 X82.484 Y279.374 Z-26.1075 E0.00000
G1 X82.484 Y279.273 Z-26.1057 E0.00000
G1 X82.484 Y279.171 Z-26.1039 E0.00000
G1 X82.484 Y279.070 Z-26.1021 E0.00000
G1 X82.484 Y278.969 Z-26.1003 E0.00000
G1 X82.484 Y278.868 Z-26.0985 E0.00000
G1 X82.484 Y278.767 Z-26.0967 E0.00000
G1 X82.484 Y278.666 Z-26.0949 E0.00000
G1 X82.484 Y278.564 Z-26.0931 E0.00000
G1 X82.484 Y278.463 Z-26.0913 E0.00000
G1 X82.484 Y278.362 Z-26.0895 E0.00000
G1 X82.484 Y278.261 Z-26.0877 E0.00000
G1 X82.484 Y278.160 Z-26.0859 E0.00000
G1 X82.484 Y278.059 Z-26.0841 E0.00000
G1 X82.484 Y277.957 Z-26.0823 E0.00000
G1 X82.484 Y277.856 Z-26.0805 E0.00000
G1 X82.484 Y277.755 Z-26.0787 E0.00000
G1 X82.484 Y277.654 Z-26.0769 E0.00000
G1 X82.484 Y277.553 Z-26.0751 E0.00000
G1 X82.484 Y277.452 Z-26.0733 E0.00000
G1 X82.484 Y277.350 Z-26.0715 E0.00000
G1 X82.484 Y277.249 Z-26.0697 E0.00000
G1 X82.484 Y277.148 Z-26.0679 E0.00000
G1 X82.535 Y277.089 Z-26.0667 E0.00000
G1 X82.603 Y276.997 Z-26.0648 E0.00000
G1 X82.655 Y276.890 Z-26.0627 E0.00000
G1 X82.687 Y276.778 Z-26.0605 E0.00000
G1 X82.697 Y276.664 Z-26.0585 E0.00000
G1 X82.686 Y276.550 Z-26.0564 E0.00000
G1 X82.653 Y276.440 Z-26.0546 E0.00000
G1 X82.598 Y276.337 Z-26.0530 E0.00000
G1 X82.534 Y276.261 Z-26.0519 E0.00000
G1 X82.493 Y276.208 Z-26.0511 E0.00000
G1 X82.484 Y276.175 Z-26.0506 E0.00000
G1 X82.555 Y276.104 Z-26.0490 E0.00000
G1 X82.626 Y276.033 Z-26.0474 E0.00000
G1 X82.697 Y275.961 Z-26.0458 E0.00000
G1 X82.768 Y275.890 Z-26.0443 E0.00000
G1 X82.839 Y275.819 Z-26.0427 E0.00000
G1 X82.909 Y275.748 Z-26.0411 E0.00000
G1 X82.980 Y275.677 Z-26.0395 E0.00000
G1 X83.051 Y275.605 Z-26.0379 E0.00000
G1 X83.122 Y275.534 Z-26.0362 E0.00000
G1 X83.193 Y275.463 Z-26.0346 E0.00000
G1 X83.264 Y275.392 Z-26.0330 E0.00000
G1 X83.335 Y275.321 Z-26.0314 E0.00000
G1 X83.406 Y275.249 Z-26.0297 E0.00000
G1 X83.477 Y275.178 Z-26.0281 E0.00000
G1 X83.548 Y275.107 Z-26.0264 E0.00000
G1 X83.619 Y275.036 Z-26.0248 E0.00000
G1 X83.690 Y274.964 Z-26.0231 E0.00000
G1 X83.760 Y274.893 Z-26.0214 E0.00000
G1 X83.831 Y274.822 Z-26.0197 E0.00000
G1 X83.902 Y274.751 Z-26.0180 E0.00000
G1 X83.973 Y274.680 Z-26.0164 E0.00000
G1 X84.044 Y274.608 Z-26.0147 E0.00000
G1 X84.115 Y274.537 Z-26.0130 E0.00000
G1 X84.186 Y274.466 Z-26.0112 E0.00000
G1 X84.257 Y274.395 Z-26.0095 E0.00000
G1 X84.328 Y274.324 Z-26.0078 E0.00000
G1 X84.399 Y274.252 Z-26.0061 E0.00000
G1 X84.470 Y274.181 Z-26.0043 E0.00000
G1 X84.541 Y274.110 Z-26.0026 E0.00000
G1 X84.612 Y274.039 Z-26.0008 E0.00000
G1 X84.682 Y273.968 Z-25.9991 E0.00000
G1 X84.753 Y273.896 Z-25.9973 E0.00000
G1 X84.824 Y273.825 Z-25.9956 E0.00000
G1 X84.895 Y273.754 Z-25.9938 E0.00000
G1 X84.966 Y273.683 Z-25.9920 E0.00000
G1 X85.037 Y273.611 Z-25.9902 E0.00000
G1 X85.108 Y273.540 Z-25.9884 E0.00000
G1 X85.179 Y273.469 Z-25.9866 E0.00000
G1 X85.250 Y273.398 Z-25.9848 E0.00000
G1 X85.321 Y273.327 Z-25.9830 E0.00000
G1 X85.392 Y273.255 Z-25.9812 E0.00000
G1 X85.463 Y273.184 Z-25.9794 E0.00000
G1 X85.533 Y273.113 Z-25.9776 E0.00000
G1 X85.604 Y273.042 Z-25.9757 E0.00000
G1 X85.675 Y272.971 Z-25.9739 E0.00000
G1 X85.746 Y272.899 Z-25.9720 E0.00000
G1 X85.817 Y272.828 Z-25.9702 E0.00000
G1 X85.888 Y272.757 Z-25.9683 E0.00000
G1 X85.921 Y272.783 Z-25.9686 E0.00000
G1 X86.020 Y272.867 Z-25.9697 E0.00000
G1 X86.137 Y272.934 Z-25.9703 E0.00000
G1 X86.264 Y272.971 Z-25.9703 E0.00000
G1 X86.403 Y272.982 Z-25.9696 E0.00000
G1 X86.544 Y272.968 Z-25.9685 E0.00000
G1 X86.678 Y272.925 Z-25.9668 E0.00000
G1 X86.798 Y272.854 Z-25.9646 E0.00000
G1 X86.902 Y272.756 Z-25.9619 E0.00000
G1 X87.005 Y272.592 Z-25.9579 E0.00000
G1 X87.057 Y272.415 Z-25.9539 E0.00000
G1 X87.059 Y272.237 Z-25.9502 E0.00000
G1 X87.013 Y272.067 Z-25.9470 E0.00000
G1 X86.924 Y271.916 Z-25.9445 E0.00000
G1 X86.795 Y271.793 Z-25.9429 E0.00000
G1 X86.632 Y271.708 Z-25.9423 E0.00000
G1 X86.445 Y271.670 Z-25.9428 E0.00000
G1 X86.260 Y271.676 Z-25.9442 E0.00000
G1 X86.107 Y271.723 Z-25.9462 E0.00000
G1 X85.990 Y271.801 Z-25.9486 E0.00000
G1 X85.908 Y271.879 Z-25.9507 E0.00000
G1 X85.864 Y271.915 Z-25.9517 E0.00000
G1 X85.796 Y271.925 Z-25.9524 E0.00000
G1 X85.678 Y271.938 Z-25.9534 E0.00000
G1 X85.568 Y271.974 Z-25.9549 E0.00000
G1 X85.479 Y272.029 Z-25.9566 E0.00000
G1 X85.408 Y272.100 Z-25.9584 E0.00000
G1 X85.337 Y272.171 Z-25.9603 E0.00000
G1 X85.266 Y272.243 Z-25.9622 E0.00000
G1 X85.195 Y272.314 Z-25.9640 E0.00000
G1 X85.124 Y272.385 Z-25.9659 E0.00000
G1 X85.053 Y272.456 Z-25.9677 E0.00000
G1 X84.982 Y272.527 Z-25.9696 E0.00000
G1 X84.911 Y272.598 Z-25.9714 E0.00000
G1 X84.841 Y272.670 Z-25.9732 E0.00000
G1 X84.770 Y272.741 Z-25.9750 E0.00000
G1 X84.699 Y272.812 Z-25.9768 E0.00000
G1 X84.628 Y272.883 Z-25.9786 E0.00000
G1 X84.557 Y272.954 Z-25.9804 E0.00000
G1 X84.486 Y273.025 Z-25.9822 E0.00000
G1 X84.415 Y273.097 Z-25.9840 E0.00000
G1 X84.344 Y273.168 Z-25.9858 E0.00000
G1 X84.273 Y273.239 Z-25.9876 E0.00000
G1 X84.202 Y273.310 Z-25.9893 E0.00000
G1 X84.131 Y273.381 Z-25.9911 E0.00000
G1 X84.060 Y273.452 Z-25.9929 E0.00000
G1 X83.989 Y273.524 Z-25.9946 E0.00000
G1 X83.918 Y273.595 Z-25.9964 E0.00000
G1 X83.847 Y273.666 Z-25.9981 E0.00000
G1 X83.776 Y273.737 Z-25.9998 E0.00000
G1 X83.705 Y273.808 Z-26.0015 E0.00000
G1 X83.634 Y273.879 Z-26.0033 E0.00000
G1 X83.564 Y273.951 Z-26.0050 E0.00000
G1 X83.493 Y274.022 Z-26.0067 E0.00000
G1 X83.422 Y274.093 Z-26.0084 E0.00000
G1 X83.351 Y274.164 Z-26.0101 E0.00000
G1 X83.280 Y274.235 Z-26.0118 E0.00000
G1 X83.209 Y274.306 Z-26.0134 E0.00000
G1 X83.138 Y274.378 Z-26.0151 E0.00000
G1 X83.067 Y274.449 Z-26.0168 E0.00000
G1 X82.996 Y274.520 Z-26.0184 E0.00000
G1 X82.925 Y274.591 Z-26.0201 E0.00000
G1 X82.854 Y274.662 Z-26.0217 E0.00000
G1 X82.783 Y274.733 Z-26.0234 E0.00000
G1 X82.712 Y274.805 Z-26.0250 E0.00000
G1 X82.641 Y274.876 Z-26.0267 E0.00000
G1 X82.570 Y274.947 Z-26.0283 E0.00000
G1 X82.499 Y275.018 Z-26.0299 E0.00000
G1 X82.428 Y275.089 Z-26.0315 E0.00000
G1 X82.357 Y275.160 Z-26.0331 E0.00000
G1 X82.287 Y275.232 Z-26.0347 E0.00000
G1 X82.216 Y275.303 Z-26.0363 E0.00000
G1 X82.145 Y275.374 Z-26.0379 E0.00000
G1 X82.074 Y275.445 Z-26.0395 E0.00000
G1 X82.003 Y275.516 Z-26.0410 E0.00000
G1 X81.932 Y275.587 Z-26.0426 E0.00000
G1 X81.861 Y275.659 Z-26.0442 E0.00000
G1 X81.790 Y275.730 Z-26.0457 E0.00000
G1 X81.719 Y275.801 Z-26.0473 E0.00000
G1 X81.674 Y275.899 Z-26.0492 E0.00000
G1 X81.662 Y276.073 Z-26.0522 E0.00000
G1 X81.640 Y276.205 Z-26.0546 E0.00000
G1 X81.583 Y276.299 Z-26.0565 E0.00000
G1 X81.531 Y276.371 Z-26.0579 E0.00000
G1 X81.486 Y276.468 Z-26.0598 E0.00000
G1 X81.477 Y276.573 Z-26.0616 E0.00000
G1 X81.467 Y276.678 Z-26.0634 E0.00000
G1 X81.477 Y276.788 Z-26.0653 E0.00000
G1 X81.487 Y276.899 Z-26.0672 E0.00000
G1 X81.590 Y277.065 Z-26.0696 E0.00000
G1 X81.655 Y277.147 Z-26.0708 E0.00000
G1 X81.655 Y277.248 Z-26.0726 E0.00000
G1 X81.655 Y277.350 Z-26.0743 E0.00000
G1 X81.655 Y277.451 Z-26.0761 E0.00000
G1 X81.655 Y277.553 Z-26.0778 E0.00000
G1 X81.655 Y277.654 Z-26.0796 E0.00000
G1 X81.655 Y277.756 Z-26.0814 E0.00000
G1 X81.655 Y277.857 Z-26.0831 E0.00000
G1 X81.655 Y277.959 Z-26.0849 E0.00000
G1 X81.655 Y278.060 Z-26.0866 E0.00000
G1 X81.655 Y278.161 Z-26.0884 E0.00000
G1 X81.655 Y278.263 Z-26.0901 E0.00000
G1 X81.655 Y278.364 Z-26.0919 E0.00000
G1 X81.655 Y278.466 Z-26.0936 E0.00000
G1 X81.655 Y278.567 Z-26.0954 E0.00000
G1 X81.655 Y278.669 Z-26.0971 E0.00000
G1 X81.655 Y278.770 Z-26.0989 E0.00000
G1 X81.655 Y278.872 Z-26.1007 E0.00000
G1 X81.655 Y278.973 Z-26.1024 E0.00000
G1 X81.655 Y279.074 Z-26.1042 E0.00000
G1 X81.655 Y279.176 Z-26.1059 E0.00000
G1 X81.655 Y279.277 Z-26.1077 E0.00000
G1 X81.655 Y279.379 Z-26.1094 E0.00000
G1 X81.655 Y279.480 Z-26.1112 E0.00000
G1 X81.655 Y279.582 Z-26.1129 E0.00000
G1 X81.655 Y279.683 Z-26.1147 E0.00000
G1 X81.655 Y279.785 Z-26.1164 E0.00000
G1 X81.655 Y279.886 Z-26.1182 E0.00000
G1 X81.655 Y279.987 Z-26.1200 E0.00000
G1 X81.655 Y280.089 Z-26.1217 E0.00000
G1 X81.655 Y280.190 Z-26.1235 E0.00000
G1 X81.655 Y280.292 Z-26.1252 E0.00000
G1 X81.655 Y280.393 Z-26.1270 E0.00000
G1 X81.655 Y280.495 Z-26.1287 E0.00000
G1 X81.655 Y280.596 Z-26.1305 E0.00000
G1 X81.655 Y280.698 Z-26.1322 E0.00000
G1 X81.655 Y280.799 Z-26.1340 E0.00000
G1 X81.655 Y280.900 Z-26.1357 E0.00000
G1 X81.655 Y281.002 Z-26.1375 E0.00000
G1 X81.655 Y281.103 Z-26.1392 E0.00000
G1 X81.655 Y281.205 Z-26.1410 E0.00000
G1 X81.655 Y281.306 Z-26.1428 E0.00000
G1 X81.655 Y281.408 Z-26.1445 E0.00000
G1 X81.655 Y281.509 Z-26.1463 E0.00000
G1 X81.655 Y281.611 Z-26.1480 E0.00000
G1 X81.655 Y281.712 Z-26.1498 E0.00000
G1 X81.655 Y281.813 Z-26.1515 E0.00000
G1 X81.655 Y281.915 Z-26.1533 E0.00000
G1 X81.655 Y282.016 Z-26.1553 E0.00000
G1 X81.655 Y282.118 Z-26.1578 E0.00000
G1 X81.655 Y282.219 Z-26.1602 E0.00000
G1 X81.655 Y282.321 Z-26.1627 E0.00000
G1 X81.655 Y282.422 Z-26.1651 E0.00000
G1 X81.655 Y282.524 Z-26.1676 E0.00000
G1 X81.655 Y282.625 Z-26.1700 E0.00000
G1 X81.655 Y282.625 Z-25.0200 E0.00000
G1 X81.704 Y282.537 Z-25.0178 E0.00000
G1 X81.752 Y282.448 Z-25.0157 E0.00000
G1 X81.801 Y282.360 Z-25.0135 E0.00000
G1 X81.849 Y282.271 Z-25.0114 E0.00000
G1 X81.898 Y282.183 Z-25.0092 E0.00000
G1 X81.947 Y282.094 Z-25.0070 E0.00000
G1 X81.995 Y282.006 Z-25.0049 E0.00000
G1 X82.044 Y281.917 Z-25.0031 E0.00000
G1 X82.092 Y281.829 Z-25.0015 E0.00000
G1 X82.141 Y281.741 Z-24.9999 E0.00000
G1 X82.190 Y281.652 Z-24.9983 E0.00000
G1 X82.238 Y281.564 Z-24.9967 E0.00000
G1 X82.287 Y281.475 Z-24.9951 E0.00000
G1 X82.335 Y281.387 Z-24.9935 E0.00000
G1 X82.384 Y281.298 Z-24.9919 E0.00000
G1 X82.433 Y281.210 Z-24.9903 E0.00000
G1 X82.481 Y281.121 Z-24.9887 E0.00000
G1 X82.530 Y281.033 Z-24.9870 E0.00000
G1 X82.578 Y280.945 Z-24.9854 E0.00000
G1 X82.627 Y280.856 Z-24.9837 E0.00000
G1 X82.676 Y280.768 Z-24.9821 E0.00000
G1 X82.724 Y280.679 Z-24.9804 E0.00000
G1 X82.773 Y280.591 Z-24.9788 E0.00000
G1 X82.821 Y280.502 Z-24.9771 E0.00000
G1 X82.870 Y280.414 Z-24.9755 E0.00000
G1 X82.919 Y280.325 Z-24.9738 E0.00000
G1 X82.967 Y280.237 Z-24.9721 E0.00000
G1 X83.016 Y280.149 Z-24.9704 E0.00000
G1 X83.064 Y280.060 Z-24.9687 E0.00000
G1 X83.113 Y279.972 Z-24.9670 E0.00000
G1 X83.162 Y279.883 Z-24.9653 E0.00000
G1 X83.210 Y279.795 Z-24.9636 E0.00000
G1 X83.259 Y279.706 Z-24.9619 E0.00000
G1 X83.307 Y279.618 Z-24.9602 E0.00000
G1 X83.356 Y279.529 Z-24.9585 E0.00000
G1 X83.405 Y279.441 Z-24.9568 E0.00000
G1 X83.453 Y279.353 Z-24.9550 E0.00000
G1 X83.502 Y279.264 Z-24.9533 E0.00000
G1 X83.550 Y279.176 Z-24.9515 E0.00000
G1 X83.599 Y279.087 Z-24.9498 E0.00000
G1 X83.648 Y278.999 Z-24.9480 E0.00000
G1 X83.696 Y278.910 Z-24.9463 E0.00000
G1 X83.745 Y278.822 Z-24.9445 E0.00000
G1 X83.793 Y278.733 Z-24.9427 E0.00000
G1 X83.842 Y278.645 Z-24.9410 E0.00000
G1 X83.891 Y278.557 Z-24.9392 E0.00000
G1 X83.939 Y278.468 Z-24.9374 E0.00000
G1 X83.988 Y278.380 Z-24.9356 E0.00000
G1 X84.036 Y278.291 Z-24.9338 E0.00000
G1 X84.085 Y278.203 Z-24.9320 E0.00000
G1 X84.133 Y278.114 Z-24.9302 E0.00000
G1 X84.182 Y278.026 Z-24.9284 E0.00000
G1 X84.231 Y277.938 Z-24.9266 E0.00000
G1 X84.279 Y277.849 Z-24.9248 E0.00000
G1 X84.328 Y277.761 Z-24.9229 E0.00000
G1 X84.376 Y277.672 Z-24.9211 E0.00000
G1 X84.425 Y277.584 Z-24.9193 E0.00000
G1 X84.474 Y277.495 Z-24.9174 E0.00000
G1 X84.522 Y277.407 Z-24.9156 E0.00000
G1 X84.571 Y277.318 Z-24.9137 E0.00000
G1 X84.619 Y277.230 Z-24.9118 E0.00000
G1 X84.668 Y277.142 Z-24.9100 E0.00000
G1 X84.717 Y277.053 Z-24.9081 E0.00000
G1 X84.765 Y276.965 Z-24.9062 E0.00000
G1 X84.814 Y276.876 Z-24.9044 E0.00000
G1 X84.862 Y276.788 Z-24.9025 E0.00000
G1 X84.911 Y276.699 Z-24.9006 E0.00000
G1 X84.960 Y276.611 Z-24.8987 E0.00000
G1 X85.008 Y276.522 Z-24.8968 E0.00000
G1 X85.057 Y276.434 Z-24.8949 E0.00000
G1 X85.105 Y276.346 Z-24.8930 E0.00000
G1 X85.154 Y276.257 Z-24.8910 E0.00000
G1 X85.203 Y276.169 Z-24.8891 E0.00000
G1 X85.251 Y276.080 Z-24.8872 E0.00000
G1 X85.300 Y275.992 Z-24.8853 E0.00000
G1 X85.348 Y275.903 Z-24.8833 E0.00000
G1 X85.397 Y275.815 Z-24.8814 E0.00000
G1 X85.446 Y275.726 Z-24.8794 E0.00000
G1 X85.494 Y275.638 Z-24.8775 E0.00000
G1 X85.543 Y275.550 Z-24.8755 E0.00000
G1 X85.591 Y275.461 Z-24.8735 E0.00000
G1 X85.640 Y275.373 Z-24.8716 E0.00000
G1 X85.689 Y275.284 Z-24.8696 E0.00000
G1 X85.737 Y275.196 Z-24.8676 E0.00000
G1 X85.786 Y275.107 Z-24.8656 E0.00000
G1 X85.834 Y275.019 Z-24.8636 E0.00000
G1 X85.883 Y274.930 Z-24.8616 E0.00000
G1 X85.932 Y274.842 Z-24.8596 E0.00000
G1 X85.980 Y274.754 Z-24.8576 E0.00000
G1 X86.029 Y274.665 Z-24.8556 E0.00000
G1 X86.077 Y274.577 Z-24.8536 E0.00000
G1 X86.126 Y274.488 Z-24.8516 E0.00000
G1 X86.175 Y274.400 Z-24.8495 E0.00000
G1 X86.223 Y274.311 Z-24.8475 E0.00000
G1 X86.272 Y274.223 Z-24.8454 E0.00000
G1 X86.320 Y274.134 Z-24.8434 E0.00000
G1 X86.369 Y274.046 Z-24.8413 E0.00000
G1 X86.369 Y274.046 Z-25.9913 E0.00000 F90.0
G1 X86.351 Y274.033 Z-25.9912 E0.00000 F120.0
G1 X86.329 Y274.001 Z-25.9907 E0.00000
G1 X86.327 Y273.989 Z-25.9904 E0.00000
G1 X86.331 Y273.976 Z-25.9901 E0.00000
G1 X86.361 Y273.941 Z-25.9893 E0.00000
G1 X86.399 Y273.915 Z-25.9885 E0.00000
G1 X86.437 Y273.946 Z-25.9890 E0.00000
G1 X86.463 Y273.980 Z-25.9895 E0.00000
G1 X86.463 Y273.995 Z-25.9898 E0.00000
G1 X86.457 Y274.015 Z-25.9902 E0.00000
G1 X86.445 Y274.033 Z-25.9907 E0.00000
G1 X86.431 Y274.045 Z-25.9910 E0.00000
G1 X86.417 Y274.052 Z-25.9912 E0.00000
G1 X86.402 Y274.055 Z-25.9913 E0.00000
G1 X86.386 Y274.053 Z-25.9914 E0.00000
G1 X86.369 Y274.046 Z-25.9913 E0.00000
G1 X86.369 Y274.046 Z-24.8413 E0.00000
G1 X86.466 Y274.080 Z-24.8415 E0.00000
G1 X86.564 Y274.113 Z-24.8417 E0.00000
G1 X86.661 Y274.147 Z-24.8418 E0.00000
G1 X86.758 Y274.181 Z-24.8420 E0.00000
G1 X86.855 Y274.214 Z-24.8421 E0.00000
G1 X86.953 Y274.248 Z-24.8423 E0.00000
G1 X87.050 Y274.282 Z-24.8425 E0.00000
G1 X87.147 Y274.315 Z-24.8427 E0.00000
G1 X87.245 Y274.349 Z-24.8428 E0.00000
G1 X87.342 Y274.383 Z-24.8430 E0.00000
G1 X87.439 Y274.417 Z-24.8432 E0.00000
G1 X87.536 Y274.450 Z-24.8434 E0.00000
G1 X87.634 Y274.484 Z-24.8436 E0.00000
G1 X87.731 Y274.518 Z-24.8438 E0.00000
G1 X87.828 Y274.551 Z-24.8440 E0.00000
G1 X87.925 Y274.585 Z-24.8442 E0.00000
G1 X88.023 Y274.619 Z-24.8444 E0.00000
G1 X88.120 Y274.652 Z-24.8447 E0.00000
G1 X88.217 Y274.686 Z-24.8449 E0.00000
G1 X88.315 Y274.720 Z-24.8451 E0.00000
G1 X88.412 Y274.753 Z-24.8453 E0.00000
G1 X88.509 Y274.787 Z-24.8456 E0.00000
G1 X88.606 Y274.821 Z-24.8458 E0.00000
G1 X88.704 Y274.855 Z-24.8461 E0.00000
G1 X88.801 Y274.888 Z-24.8463 E0.00000
G1 X88.898 Y274.922 Z-24.8466 E0.00000
G1 X88.996 Y274.956 Z-24.8468 E0.00000
G1 X89.093 Y274.989 Z-24.8471 E0.00000
G1 X89.190 Y275.023 Z-24.8473 E0.00000
G1 X89.287 Y275.057 Z-24.8476 E0.00000
G1 X89.385 Y275.090 Z-24.8479 E0.00000
G1 X89.482 Y275.124 Z-24.8481 E0.00000
G1 X89.482 Y275.124 Z-25.9981 E0.00000 F90.0
G1 X89.491 Y275.317 Z-26.0024 E0.00000 F120.0
G1 X89.486 Y275.422 Z-26.0047 E0.00000
G1 X89.481 Y275.526 Z-26.0070 E0.00000
G1 X89.480 Y275.532 Z-26.0072 E0.00000
G1 X89.477 Y275.522 Z-26.0070 E0.00000
G1 X89.463 Y275.343 Z-26.0031 E0.00000
G1 X89.474 Y275.161 Z-25.9990 E0.00000
G1 X89.482 Y275.124 Z-25.9981 E0.00000
G1 X89.482 Y275.124 Z-24.8481 E0.00000
G1 X89.556 Y275.056 Z-24.8463 E0.00000
G1 X89.630 Y274.988 Z-24.8444 E0.00000
G1 X89.704 Y274.920 Z-24.8425 E0.00000
G1 X89.778 Y274.853 Z-24.8407 E0.00000
G1 X89.852 Y274.785 Z-24.8388 E0.00000
G1 X89.926 Y274.717 Z-24.8369 E0.00000
G1 X90.000 Y274.649 Z-24.8350 E0.00000
G1 X90.074 Y274.581 Z-24.8331 E0.00000
G1 X90.148 Y274.513 Z-24.8312 E0.00000
G1 X90.222 Y274.445 Z-24.8292 E0.00000
G1 X90.297 Y274.378 Z-24.8273 E0.00000
G1 X90.371 Y274.310 Z-24.8254 E0.00000
G1 X90.445 Y274.242 Z-24.8234 E0.00000
G1 X90.519 Y274.174 Z-24.8215 E0.00000
G1 X90.593 Y274.106 Z-24.8196 E0.00000
G1 X90.667 Y274.038 Z-24.8176 E0.00000
G1 X90.741 Y273.970 Z-24.8156 E0.00000
G1 X90.815 Y273.903 Z-24.8137 E0.00000
G1 X90.889 Y273.835 Z-24.8117 E0.00000
G1 X90.963 Y273.767 Z-24.8097 E0.00000
G1 X91.037 Y273.699 Z-24.8077 E0.00000
G1 X91.111 Y273.631 Z-24.8057 E0.00000
G1 X91.185 Y273.563 Z-24.8037 E0.00000
G1 X91.259 Y273.495 Z-24.8017 E0.00000
G1 X91.333 Y273.427 Z-24.7997 E0.00000
G1 X91.407 Y273.360 Z-24.7977 E0.00000
G1 X91.481 Y273.292 Z-24.7957 E0.00000
G1 X91.555 Y273.224 Z-24.7936 E0.00000
G1 X91.629 Y273.156 Z-24.7916 E0.00000
G1 X91.703 Y273.088 Z-24.7896 E0.00000
G1 X91.777 Y273.020 Z-24.7875 E0.00000
G1 X91.851 Y272.952 Z-24.7855 E0.00000
G1 X91.926 Y272.885 Z-24.7834 E0.00000
G1 X92.000 Y272.817 Z-24.7813 E0.00000
G1 X92.074 Y272.749 Z-24.7793 E0.00000
G1 X92.148 Y272.681 Z-24.7772 E0.00000
G1 X92.222 Y272.613 Z-24.7751 E0.00000
G1 X92.296 Y272.545 Z-24.7730 E0.00000
G1 X92.370 Y272.477 Z-24.7709 E0.00000
G1 X92.444 Y272.410 Z-24.7688 E0.00000
G1 X92.518 Y272.342 Z-24.7667 E0.00000
G1 X92.592 Y272.274 Z-24.7646 E0.00000
G1 X92.666 Y272.206 Z-24.7624 E0.00000
G1 X92.666 Y272.206 Z-25.9124 E0.00000 F90.0
G1 X92.651 Y272.157 Z-25.9114 E0.00000 F120.0
G1 X92.641 Y272.006 Z-25.9078 E0.00000
G1 X92.650 Y271.855 Z-25.9041 E0.00000
G1 X92.665 Y271.802 Z-25.9027 E0.00000
G1 X92.670 Y271.804 Z-25.9027 E0.00000
G1 X92.670 Y271.805 Z-25.9028 E0.00000
G1 X92.675 Y271.912 Z-25.9053 E0.00000
G1 X92.680 Y272.019 Z-25.9078 E0.00000
G1 X92.680 Y272.210 Z-25.9125 E0.00000
G1 X92.666 Y272.206 Z-25.9124 E0.00000
G1 X92.666 Y272.206 Z-24.7624 E0.00000
G1 X92.666 Y272.315 Z-24.7651 E0.00000
G1 X92.666 Y272.424 Z-24.7677 E0.00000
G1 X92.666 Y272.533 Z-24.7703 E0.00000
G1 X92.666 Y272.642 Z-24.7730 E0.00000
G1 X92.666 Y272.751 Z-24.7756 E0.00000
G1 X92.666 Y272.751 Z-25.9256 E0.00000 F90.0
G1 X92.806 Y272.739 Z-25.9244 E0.00000 F120.0
G1 X92.933 Y272.696 Z-25.9226 E0.00000
G1 X93.041 Y272.618 Z-25.9200 E0.00000
G1 X93.127 Y272.514 Z-25.9169 E0.00000
G1 X93.178 Y272.424 Z-25.9144 E0.00000
G1 X93.208 Y272.316 Z-25.9115 E0.00000
G1 X93.212 Y272.214 Z-25.9090 E0.00000
G1 X93.216 Y272.113 Z-25.9065 E0.00000
G1 X93.220 Y272.011 Z-25.9040 E0.00000
G1 X93.214 Y271.861 Z-25.9004 E0.00000
G1 X93.208 Y271.712 Z-25.8968 E0.00000
G1 X93.182 Y271.605 Z-25.8943 E0.00000
G1 X93.135 Y271.513 Z-25.8924 E0.00000
G1 X93.047 Y271.402 Z-25.8904 E0.00000
G1 X92.932 Y271.320 Z-25.8892 E0.00000
G1 X92.798 Y271.273 Z-25.8890 E0.00000
G1 X92.647 Y271.258 Z-25.8897 E0.00000
G1 X92.476 Y271.282 Z-25.8915 E0.00000
G1 X92.330 Y271.371 Z-25.8947 E0.00000
G1 X92.227 Y271.482 Z-25.8981 E0.00000
G1 X92.157 Y271.597 Z-25.9013 E0.00000
G1 X92.152 Y271.609 Z-25.9016 E0.00000
G1 X92.049 Y271.607 Z-25.9023 E0.00000
G1 X91.946 Y271.606 Z-25.9030 E0.00000
G1 X91.842 Y271.604 Z-25.9037 E0.00000
G1 X91.739 Y271.603 Z-25.9044 E0.00000
G1 X91.636 Y271.601 Z-25.9051 E0.00000
G1 X91.533 Y271.600 Z-25.9058 E0.00000
G1 X91.429 Y271.598 Z-25.9064 E0.00000
G1 X91.326 Y271.597 Z-25.9071 E0.00000
G1 X91.223 Y271.595 Z-25.9078 E0.00000
G1 X91.123 Y271.649 Z-25.9098 E0.00000
G1 X91.023 Y271.704 Z-25.9117 E0.00000
G1 X90.951 Y271.776 Z-25.9139 E0.00000
G1 X90.880 Y271.849 Z-25.9161 E0.00000
G1 X90.808 Y271.921 Z-25.9182 E0.00000
G1 X90.736 Y271.993 Z-25.9204 E0.00000
G1 X90.665 Y272.066 Z-25.9225 E0.00000
G1 X90.593 Y272.138 Z-25.9246 E0.00000
G1 X90.521 Y272.211 Z-25.9268 E0.00000
G1 X90.450 Y272.283 Z-25.9289 E0.00000
G1 X90.378 Y272.355 Z-25.9310 E0.00000
G1 X90.306 Y272.428 Z-25.9331 E0.00000
G1 X90.235 Y272.500 Z-25.9352 E0.00000
G1 X90.163 Y272.572 Z-25.9373 E0.00000
G1 X90.091 Y272.645 Z-25.9394 E0.00000
G1 X90.020 Y272.717 Z-25.9415 E0.00000
G1 X89.948 Y272.790 Z-25.9435 E0.00000
G1 X89.876 Y272.862 Z-25.9456 E0.00000
G1 X89.805 Y272.934 Z-25.9477 E0.00000
G1 X89.733 Y273.007 Z-25.9497 E0.00000
G1 X89.661 Y273.079 Z-25.9518 E0.00000
G1 X89.590 Y273.151 Z-25.9538 E0.00000
G1 X89.518 Y273.224 Z-25.9559 E0.00000
G1 X89.446 Y273.296 Z-25.9579 E0.00000
G1 X89.375 Y273.369 Z-25.9599 E0.00000
G1 X89.303 Y273.441 Z-25.9619 E0.00000
G1 X89.231 Y273.513 Z-25.9639 E0.00000
G1 X89.160 Y273.586 Z-25.9659 E0.00000
G1 X89.088 Y273.658 Z-25.9679 E0.00000
G1 X89.073 Y273.677 Z-25.9684 E0.00000
G1 X89.060 Y273.697 Z-25.9690 E0.00000
G1 X89.051 Y273.720 Z-25.9695 E0.00000
G1 X89.045 Y273.744 Z-25.9701 E0.00000
G1 X89.043 Y273.767 Z-25.9706 E0.00000
G1 X89.043 Y273.867 Z-25.9728 E0.00000
G1 X89.043 Y273.967 Z-25.9750 E0.00000
G1 X89.043 Y274.067 Z-25.9771 E0.00000
G1 X89.043 Y274.167 Z-25.9793 E0.00000
G1 X89.043 Y274.268 Z-25.9815 E0.00000
G1 X89.044 Y274.368 Z-25.9837 E0.00000
G1 X89.044 Y274.468 Z-25.9859 E0.00000
G1 X89.044 Y274.568 Z-25.9881 E0.00000
G1 X89.044 Y274.668 Z-25.9903 E0.00000
G1 X89.044 Y274.768 Z-25.9925 E0.00000
G1 X88.971 Y274.920 Z-25.9962 E0.00000
G1 X88.870 Y274.920 Z-25.9967 E0.00000
G1 X88.769 Y274.920 Z-25.9972 E0.00000
G1 X88.669 Y274.921 Z-25.9977 E0.00000
G1 X88.568 Y274.921 Z-25.9982 E0.00000
G1 X88.467 Y274.921 Z-25.9987 E0.00000
G1 X88.366 Y274.921 Z-25.9992 E0.00000
G1 X88.265 Y274.921 Z-25.9997 E0.00000
G1 X88.164 Y274.921 Z-26.0002 E0.00000
G1 X88.064 Y274.922 Z-26.0007 E0.00000
G1 X87.963 Y274.922 Z-26.0012 E0.00000
G1 X87.862 Y274.922 Z-26.0017 E0.00000
G1 X87.788 Y274.848 Z-26.0005 E0.00000
G1 X87.715 Y274.775 Z-25.9993 E0.00000
G1 X87.641 Y274.701 Z-25.9981 E0.00000
G1 X87.567 Y274.627 Z-25.9970 E0.00000
G1 X87.494 Y274.554 Z-25.9958 E0.00000
G1 X87.420 Y274.480 Z-25.9946 E0.00000
G1 X87.347 Y274.407 Z-25.9935 E0.00000
G1 X87.273 Y274.333 Z-25.9924 E0.00000
G1 X87.199 Y274.259 Z-25.9912 E0.00000
G1 X87.126 Y274.186 Z-25.9901 E0.00000
G1 X87.052 Y274.112 Z-25.9890 E0.00000
G1 X87.055 Y274.098 Z-25.9887 E0.00000
G1 X87.066 Y273.982 Z-25.9862 E0.00000
G1 X87.050 Y273.860 Z-25.9838 E0.00000
G1 X87.012 Y273.744 Z-25.9816 E0.00000
G1 X86.954 Y273.637 Z-25.9797 E0.00000
G1 X86.879 Y273.540 Z-25.9782 E0.00000
G1 X86.789 Y273.456 Z-25.9770 E0.00000
G1 X86.684 Y273.389 Z-25.9762 E0.00000
G1 X86.567 Y273.344 Z-25.9760 E0.00000
G1 X86.453 Y273.325 Z-25.9763 E0.00000
G1 X86.335 Y273.329 Z-25.9771 E0.00000
G1 X86.231 Y273.359 Z-25.9783 E0.00000
G1 X86.126 Y273.389 Z-25.9795 E0.00000
G1 X86.036 Y273.450 Z-25.9812 E0.00000
G1 X85.946 Y273.510 Z-25.9830 E0.00000
G1 X85.865 Y273.599 Z-25.9852 E0.00000
G1 X85.801 Y273.702 Z-25.9876 E0.00000
G1 X85.749 Y273.893 Z-25.9917 E0.00000
G1 X85.751 Y273.997 Z-25.9938 E0.00000
G1 X85.753 Y274.100 Z-25.9958 E0.00000
G1 X85.781 Y274.199 Z-25.9976 E0.00000
G1 X85.809 Y274.297 Z-25.9994 E0.00000
G1 X85.917 Y274.458 Z-26.0020 E0.00000
G1 X86.028 Y274.540 Z-26.0031 E0.00000
G1 X86.148 Y274.599 Z-26.0037 E0.00000
G1 X86.274 Y274.640 Z-26.0038 E0.00000
G1 X86.392 Y274.655 Z-26.0035 E0.00000
G1 X86.429 Y274.655 Z-26.0034 E0.00000
G1 X86.501 Y274.727 Z-26.0044 E0.00000
G1 X86.572 Y274.799 Z-26.0055 E0.00000
G1 X86.644 Y274.871 Z-26.0067 E0.00000
G1 X86.715 Y274.943 Z-26.0078 E0.00000
G1 X86.787 Y275.015 Z-26.0089 E0.00000
G1 X86.858 Y275.087 Z-26.0100 E0.00000
G1 X86.930 Y275.159 Z-26.0111 E0.00000
G1 X87.001 Y275.230 Z-26.0123 E0.00000
G1 X87.073 Y275.302 Z-26.0134 E0.00000
G1 X87.144 Y275.374 Z-26.0146 E0.00000
G1 X87.216 Y275.446 Z-26.0157 E0.00000
G1 X87.287 Y275.518 Z-26.0169 E0.00000
G1 X87.359 Y275.590 Z-26.0181 E0.00000
G1 X87.430 Y275.662 Z-26.0193 E0.00000
G1 X87.597 Y275.751 Z-26.0204 E0.00000
G1 X87.702 Y275.751 Z-26.0199 E0.00000
G1 X87.807 Y275.751 Z-26.0194 E0.00000
G1 X87.912 Y275.751 Z-26.0190 E0.00000
G1 X88.017 Y275.751 Z-26.0185 E0.00000
G1 X88.122 Y275.751 Z-26.0180 E0.00000
G1 X88.227 Y275.751 Z-26.0176 E0.00000
G1 X88.332 Y275.751 Z-26.0171 E0.00000
G1 X88.437 Y275.751 Z-26.0167 E0.00000
G1 X88.542 Y275.751 Z-26.0162 E0.00000
G1 X88.647 Y275.751 Z-26.0157 E0.00000
G1 X88.752 Y275.751 Z-26.0153 E0.00000
G1 X88.857 Y275.751 Z-26.0148 E0.00000
G1 X88.962 Y275.751 Z-26.0143 E0.00000
G1 X88.977 Y275.787 Z-26.0150 E0.00000
G1 X89.070 Y275.899 Z-26.0171 E0.00000
G1 X89.181 Y275.994 Z-26.0187 E0.00000
G1 X89.302 Y276.060 Z-26.0196 E0.00000
G1 X89.420 Y276.085 Z-26.0197 E0.00000
G1 X89.531 Y276.085 Z-26.0192 E0.00000
G1 X89.639 Y276.063 Z-26.0183 E0.00000
G1 X89.739 Y276.021 Z-26.0169 E0.00000
G1 X89.829 Y275.959 Z-26.0151 E0.00000
G1 X89.905 Y275.881 Z-26.0131 E0.00000
G1 X89.966 Y275.787 Z-26.0107 E0.00000
G1 X90.008 Y275.679 Z-26.0081 E0.00000
G1 X90.034 Y275.525 Z-26.0045 E0.00000
G1 X90.043 Y275.346 Z-26.0004 E0.00000
G1 X90.037 Y275.164 Z-25.9964 E0.00000
G1 X90.014 Y275.000 Z-25.9928 E0.00000
G1 X89.967 Y274.872 Z-25.9902 E0.00000
G1 X89.900 Y274.768 Z-25.9882 E0.00000
G1 X89.872 Y274.738 Z-25.9876 E0.00000
G1 X89.872 Y274.637 Z-25.9854 E0.00000
G1 X89.872 Y274.536 Z-25.9831 E0.00000
G1 X89.872 Y274.435 Z-25.9808 E0.00000
G1 X89.872 Y274.334 Z-25.9786 E0.00000
G1 X89.872 Y274.233 Z-25.9763 E0.00000
G1 X89.872 Y274.132 Z-25.9741 E0.00000
G1 X89.872 Y274.031 Z-25.9718 E0.00000
G1 X89.946 Y273.957 Z-25.9697 E0.00000
G1 X90.020 Y273.883 Z-25.9677 E0.00000
G1 X90.094 Y273.809 Z-25.9656 E0.00000
G1 X90.168 Y273.735 Z-25.9635 E0.00000
G1 X90.242 Y273.661 Z-25.9614 E0.00000
G1 X90.315 Y273.588 Z-25.9593 E0.00000
G1 X90.389 Y273.514 Z-25.9572 E0.00000
G1 X90.463 Y273.440 Z-25.9551 E0.00000
G1 X90.537 Y273.366 Z-25.9530 E0.00000
G1 X90.611 Y273.292 Z-25.9509 E0.00000
G1 X90.685 Y273.218 Z-25.9487 E0.00000
G1 X90.759 Y273.144 Z-25.9466 E0.00000
G1 X90.833 Y273.070 Z-25.9444 E0.00000
G1 X90.907 Y272.996 Z-25.9423 E0.00000
G1 X90.981 Y272.922 Z-25.9401 E0.00000
G1 X91.055 Y272.848 Z-25.9380 E0.00000
G1 X91.128 Y272.775 Z-25.9358 E0.00000
G1 X91.202 Y272.701 Z-25.9336 E0.00000
G1 X91.276 Y272.627 Z-25.9314 E0.00000
G1 X91.350 Y272.553 Z-25.9292 E0.00000
G1 X91.424 Y272.479 Z-25.9270 E0.00000
G1 X91.498 Y272.405 Z-25.9248 E0.00000
G1 X91.607 Y272.405 Z-25.9241 E0.00000
G1 X91.717 Y272.405 Z-25.9234 E0.00000
G1 X91.826 Y272.405 Z-25.9227 E0.00000
G1 X91.935 Y272.405 Z-25.9220 E0.00000
G1 X92.045 Y272.405 Z-25.9213 E0.00000
G1 X92.154 Y272.405 Z-25.9206 E0.00000
G1 X92.173 Y272.449 Z-25.9215 E0.00000
G1 X92.249 Y272.576 Z-25.9240 E0.00000
G1 X92.365 Y272.677 Z-25.9257 E0.00000
G1 X92.508 Y272.735 Z-25.9262 E0.00000
G1 X92.666 Y272.751 Z-25.9256 E0.00000
G1 X92.666 Y272.751 Z-24.7756 E0.00000
G1 X92.752 Y272.698 Z-24.7738 E0.00000
G1 X92.838 Y272.646 Z-24.7720 E0.00000
G1 X92.924 Y272.593 Z-24.7701 E0.00000
G1 X93.010 Y272.540 Z-24.7683 E0.00000
G1 X93.096 Y272.488 Z-24.7665 E0.00000
G1 X93.182 Y272.435 Z-24.7646 E0.00000
G1 X93.268 Y272.382 Z-24.7628 E0.00000
G1 X93.354 Y272.330 Z-24.7609 E0.00000
G1 X93.440 Y272.277 Z-24.7591 E0.00000
G1 X93.527 Y272.224 Z-24.7572 E0.00000
G1 X93.613 Y272.172 Z-24.7553 E0.00000
G1 X93.699 Y272.119 Z-24.7535 E0.00000
G1 X93.785 Y272.066 Z-24.7516 E0.00000
G1 X93.871 Y272.013 Z-24.7497 E0.00000
G1 X93.957 Y271.961 Z-24.7478 E0.00000
G1 X94.043 Y271.908 Z-24.7459 E0.00000
G1 X94.129 Y271.855 Z-24.7440 E0.00000
G1 X94.215 Y271.803 Z-24.7421 E0.00000
G1 X94.301 Y271.750 Z-24.7402 E0.00000
G1 X94.387 Y271.697 Z-24.7383 E0.00000
G1 X94.473 Y271.645 Z-24.7364 E0.00000
G1 X94.559 Y271.592 Z-24.7346 E0.00000
G1 X94.645 Y271.539 Z-24.7327 E0.00000
G1 X94.731 Y271.487 Z-24.7309 E0.00000
G1 X94.817 Y271.434 Z-24.7290 E0.00000
G1 X94.903 Y271.381 Z-24.7272 E0.00000
G1 X94.989 Y271.329 Z-24.7253 E0.00000
G1 X95.075 Y271.276 Z-24.7235 E0.00000
G1 X95.162 Y271.223 Z-24.7217 E0.00000
G1 X95.248 Y271.171 Z-24.7198 E0.00000
G1 X95.334 Y271.118 Z-24.7180 E0.00000
G1 X95.420 Y271.065 Z-24.7161 E0.00000
G1 X95.506 Y271.013 Z-24.7143 E0.00000
G1 X95.592 Y270.960 Z-24.7124 E0.00000
G1 X95.678 Y270.907 Z-24.7106 E0.00000
G1 X95.764 Y270.855 Z-24.7088 E0.00000
G1 X95.850 Y270.802 Z-24.7069 E0.00000
G1 X95.936 Y270.749 Z-24.7051 E0.00000
G1 X96.022 Y270.696 Z-24.7032 E0.00000
G1 X96.108 Y270.644 Z-24.7014 E0.00000
G1 X96.194 Y270.591 Z-24.6996 E0.00000
G1 X96.280 Y270.538 Z-24.6977 E0.00000
G1 X96.366 Y270.486 Z-24.6959 E0.00000
G1 X96.452 Y270.433 Z-24.6940 E0.00000
G1 X96.538 Y270.380 Z-24.6922 E0.00000
G1 X96.624 Y270.328 Z-24.6904 E0.00000
G1 X96.711 Y270.275 Z-24.6885 E0.00000
G1 X96.797 Y270.222 Z-24.6867 E0.00000
G1 X96.883 Y270.170 Z-24.6849 E0.00000
G1 X96.969 Y270.117 Z-24.6830 E0.00000
G1 X97.055 Y270.064 Z-24.6812 E0.00000
G1 X97.141 Y270.012 Z-24.6794 E0.00000
G1 X97.227 Y269.959 Z-24.6775 E0.00000
G1 X97.313 Y269.906 Z-24.6757 E0.00000
G1 X97.399 Y269.854 Z-24.6739 E0.00000
G1 X97.485 Y269.801 Z-24.6720 E0.00000
G1 X97.571 Y269.748 Z-24.6702 E0.00000
G1 X97.657 Y269.696 Z-24.6684 E0.00000
G1 X97.743 Y269.643 Z-24.6665 E0.00000
G1 X97.829 Y269.590 Z-24.6647 E0.00000
G1 X97.915 Y269.538 Z-24.6629 E0.00000
G1 X98.001 Y269.485 Z-24.6610 E0.00000
G1 X98.087 Y269.432 Z-24.6592 E0.00000
G1 X98.173 Y269.379 Z-24.6574 E0.00000
G1 X98.259 Y269.327 Z-24.6555 E0.00000
G1 X98.346 Y269.274 Z-24.6537 E0.00000
G1 X98.432 Y269.221 Z-24.6519 E0.00000
G1 X98.518 Y269.169 Z-24.6501 E0.00000
G1 X98.604 Y269.116 Z-24.6482 E0.00000
G1 X98.690 Y269.063 Z-24.6464 E0.00000
G1 X98.776 Y269.011 Z-24.6446 E0.00000
G1 X98.862 Y268.958 Z-24.6427 E0.00000
G1 X98.948 Y268.905 Z-24.6409 E0.00000
G1 X99.034 Y268.853 Z-24.6391 E0.00000
G1 X99.120 Y268.800 Z-24.6373 E0.00000
G1 X99.120 Y268.800 Z-25.7873 E0.00000 F90.0
G1 X99.096 Y268.761 Z-25.7864 E0.00000 F120.0
G1 X99.086 Y268.716 Z-25.7854 E0.00000
G1 X99.088 Y268.669 Z-25.7842 E0.00000
G1 X99.106 Y268.621 Z-25.7829 E0.00000
G1 X99.144 Y268.573 Z-25.7814 E0.00000
G1 X99.198 Y268.535 Z-25.7802 E0.00000
G1 X99.249 Y268.521 Z-25.7795 E0.00000
G1 X99.300 Y268.526 Z-25.7793 E0.00000
G1 X99.363 Y268.556 Z-25.7797 E0.00000
G1 X99.415 Y268.599 Z-25.7805 E0.00000
G1 X99.420 Y268.606 Z-25.7806 E0.00000
G1 X99.431 Y268.703 Z-25.7830 E0.00000
G1 X99.422 Y268.756 Z-25.7844 E0.00000
G1 X99.379 Y268.811 Z-25.7860 E0.00000
G1 X99.323 Y268.854 Z-25.7874 E0.00000
G1 X99.262 Y268.863 Z-25.7880 E0.00000
G1 X99.201 Y268.855 Z-25.7882 E0.00000
G1 X99.154 Y268.833 Z-25.7879 E0.00000
G1 X99.120 Y268.800 Z-25.7873 E0.00000
G1 X99.120 Y268.800 Z-24.6373 E0.00000
G1 X99.160 Y268.892 Z-24.6393 E0.00000
G1 X99.200 Y268.984 Z-24.6414 E0.00000
G1 X99.240 Y269.076 Z-24.6434 E0.00000
G1 X99.280 Y269.169 Z-24.6455 E0.00000
G1 X99.320 Y269.261 Z-24.6476 E0.00000
G1 X99.360 Y269.353 Z-24.6496 E0.00000
G1 X99.401 Y269.445 Z-24.6517 E0.00000
G1 X99.441 Y269.537 Z-24.6538 E0.00000
G1 X99.481 Y269.629 Z-24.6558 E0.00000
G1 X99.521 Y269.722 Z-24.6579 E0.00000
G1 X99.561 Y269.814 Z-24.6599 E0.00000
G1 X99.601 Y269.906 Z-24.6620 E0.00000
G1 X99.641 Y269.998 Z-24.6641 E0.00000
G1 X99.681 Y270.090 Z-24.6661 E0.00000
G1 X99.721 Y270.182 Z-24.6682 E0.00000
G1 X99.761 Y270.274 Z-24.6703 E0.00000
G1 X99.801 Y270.367 Z-24.6723 E0.00000
G1 X99.841 Y270.459 Z-24.6744 E0.00000
G1 X99.881 Y270.551 Z-24.6764 E0.00000
G1 X99.922 Y270.643 Z-24.6785 E0.00000
G1 X99.962 Y270.735 Z-24.6805 E0.00000
G1 X100.002 Y270.827 Z-24.6826 E0.00000
G1 X100.042 Y270.919 Z-24.6847 E0.00000
G1 X100.082 Y271.012 Z-24.6867 E0.00000
G1 X100.122 Y271.104 Z-24.6888 E0.00000
G1 X100.162 Y271.196 Z-24.6908 E0.00000
G1 X100.202 Y271.288 Z-24.6929 E0.00000
G1 X100.242 Y271.380 Z-24.6950 E0.00000
G1 X100.282 Y271.472 Z-24.6970 E0.00000
G1 X100.322 Y271.565 Z-24.6991 E0.00000
G1 X100.362 Y271.657 Z-24.7011 E0.00000
G1 X100.402 Y271.749 Z-24.7032 E0.00000
G1 X100.442 Y271.841 Z-24.7052 E0.00000
G1 X100.483 Y271.933 Z-24.7073 E0.00000
G1 X100.523 Y272.025 Z-24.7093 E0.00000
G1 X100.563 Y272.117 Z-24.7114 E0.00000
G1 X100.603 Y272.210 Z-24.7134 E0.00000
G1 X100.643 Y272.302 Z-24.7155 E0.00000
G1 X100.683 Y272.394 Z-24.7176 E0.00000
G1 X100.723 Y272.486 Z-24.7196 E0.00000
G1 X100.763 Y272.578 Z-24.7217 E0.00000
G1 X100.803 Y272.670 Z-24.7237 E0.00000
G1 X100.843 Y272.762 Z-24.7258 E0.00000
G1 X100.883 Y272.855 Z-24.7278 E0.00000
G1 X100.923 Y272.947 Z-24.7299 E0.00000
G1 X100.963 Y273.039 Z-24.7319 E0.00000
G1 X101.004 Y273.131 Z-24.7340 E0.00000
G1 X101.044 Y273.223 Z-24.7360 E0.00000
G1 X101.084 Y273.315 Z-24.7381 E0.00000
G1 X101.124 Y273.408 Z-24.7401 E0.00000
G1 X101.164 Y273.500 Z-24.7422 E0.00000
G1 X101.204 Y273.592 Z-24.7442 E0.00000
G1 X101.244 Y273.684 Z-24.7463 E0.00000
G1 X101.244 Y273.684 Z-25.8963 E0.00000 F90.0
G1 X101.293 Y273.676 Z-25.8958 E0.00000 F120.0
G1 X101.340 Y273.683 Z-25.8957 E0.00000
G1 X101.368 Y273.702 Z-25.8960 E0.00000
G1 X101.386 Y273.729 Z-25.8965 E0.00000
G1 X101.394 Y273.772 Z-25.8975 E0.00000
G1 X101.389 Y273.823 Z-25.8988 E0.00000
G1 X101.379 Y273.848 Z-25.8995 E0.00000
G1 X101.366 Y273.863 Z-25.9000 E0.00000
G1 X101.330 Y273.883 Z-25.9007 E0.00000
G1 X101.290 Y273.894 Z-25.9012 E0.00000
G1 X101.251 Y273.883 Z-25.9012 E0.00000
G1 X101.208 Y273.856 Z-25.9008 E0.00000
G1 X101.187 Y273.828 Z-25.9002 E0.00000
G1 X101.178 Y273.796 Z-25.8995 E0.00000
G1 X101.180 Y273.761 Z-25.8986 E0.00000
G1 X101.192 Y273.728 Z-25.8977 E0.00000
G1 X101.213 Y273.702 Z-25.8969 E0.00000
G1 X101.244 Y273.684 Z-25.8963 E0.00000
G1 X101.244 Y273.684 Z-24.7463 E0.00000
G1 X101.143 Y273.686 Z-24.7469 E0.00000
G1 X101.042 Y273.688 Z-24.7476 E0.00000
G1 X100.941 Y273.691 Z-24.7483 E0.00000
G1 X100.839 Y273.693 Z-24.7490 E0.00000
G1 X100.738 Y273.695 Z-24.7496 E0.00000
G1 X100.637 Y273.697 Z-24.7503 E0.00000
G1 X100.536 Y273.699 Z-24.7510 E0.00000
G1 X100.435 Y273.701 Z-24.7517 E0.00000
G1 X100.334 Y273.704 Z-24.7523 E0.00000
G1 X100.233 Y273.706 Z-24.7530 E0.00000
G1 X100.132 Y273.708 Z-24.7537 E0.00000
G1 X100.030 Y273.710 Z-24.7544 E0.00000
G1 X99.929 Y273.712 Z-24.7550 E0.00000
G1 X99.828 Y273.714 Z-24.7557 E0.00000
G1 X99.727 Y273.717 Z-24.7564 E0.00000
G1 X99.626 Y273.719 Z-24.7570 E0.00000
G1 X99.525 Y273.721 Z-24.7577 E0.00000
G1 X99.424 Y273.723 Z-24.7584 E0.00000
G1 X99.323 Y273.725 Z-24.7591 E0.00000
G1 X99.221 Y273.727 Z-24.7597 E0.00000
G1 X99.120 Y273.730 Z-24.7604 E0.00000
G1 X99.019 Y273.732 Z-24.7611 E0.00000
G1 X98.918 Y273.734 Z-24.7618 E0.00000
G1 X98.817 Y273.736 Z-24.7624 E0.00000
G1 X98.716 Y273.738 Z-24.7631 E0.00000
G1 X98.615 Y273.741 Z-24.7638 E0.00000
G1 X98.513 Y273.743 Z-24.7645 E0.00000
G1 X98.412 Y273.745 Z-24.7651 E0.00000
G1 X98.311 Y273.747 Z-24.7658 E0.00000
G1 X98.210 Y273.749 Z-24.7665 E0.00000
G1 X98.109 Y273.751 Z-24.7672 E0.00000
G1 X98.008 Y273.754 Z-24.7678 E0.00000
G1 X97.907 Y273.756 Z-24.7685 E0.00000
G1 X97.806 Y273.758 Z-24.7692 E0.00000
G1 X97.704 Y273.760 Z-24.7698 E0.00000
G1 X97.603 Y273.762 Z-24.7705 E0.00000
G1 X97.502 Y273.764 Z-24.7712 E0.00000
G1 X97.401 Y273.767 Z-24.7719 E0.00000
G1 X97.300 Y273.769 Z-24.7725 E0.00000
G1 X97.199 Y273.771 Z-24.7732 E0.00000
G1 X97.098 Y273.773 Z-24.7739 E0.00000
G1 X96.997 Y273.775 Z-24.7746 E0.00000
G1 X96.895 Y273.777 Z-24.7752 E0.00000
G1 X96.794 Y273.780 Z-24.7759 E0.00000
G1 X96.693 Y273.782 Z-24.7766 E0.00000
G1 X96.592 Y273.784 Z-24.7773 E0.00000
G1 X96.592 Y273.784 Z-25.9273 E0.00000 F90.0
G1 X96.582 Y273.816 Z-25.9281 E0.00000 F120.0
G1 X96.558 Y273.850 Z-25.9291 E0.00000
G1 X96.520 Y273.879 Z-25.9301 E0.00000
G1 X96.480 Y273.894 Z-25.9307 E0.00000
G1 X96.451 Y273.892 Z-25.9308 E0.00000
G1 X96.421 Y273.877 Z-25.9306 E0.00000
G1 X96.393 Y273.850 Z-25.9301 E0.00000
G1 X96.373 Y273.813 Z-25.9293 E0.00000
G1 X96.367 Y273.775 Z-25.9284 E0.00000
G1 X96.373 Y273.740 Z-25.9275 E0.00000
G1 X96.395 Y273.705 Z-25.9265 E0.00000
G1 X96.425 Y273.684 Z-25.9258 E0.00000
G1 X96.467 Y273.675 Z-25.9253 E0.00000
G1 X96.514 Y273.681 Z-25.9252 E0.00000
G1 X96.555 Y273.701 Z-25.9254 E0.00000
G1 X96.578 Y273.728 Z-25.9259 E0.00000
G1 X96.591 Y273.757 Z-25.9266 E0.00000
G1 X96.592 Y273.784 Z-25.9273 E0.00000
G1 X96.592 Y273.784 Z-24.7773 E0.00000
G1 X96.498 Y273.746 Z-24.7769 E0.00000
G1 X96.405 Y273.707 Z-24.7765 E0.00000
G1 X96.311 Y273.669 Z-24.7761 E0.00000
G1 X96.218 Y273.631 Z-24.7757 E0.00000
G1 X96.124 Y273.593 Z-24.7753 E0.00000
G1 X96.031 Y273.554 Z-24.7749 E0.00000
G1 X95.937 Y273.516 Z-24.7745 E0.00000
G1 X95.844 Y273.478 Z-24.7742 E0.00000
G1 X95.750 Y273.439 Z-24.7738 E0.00000
G1 X95.657 Y273.401 Z-24.7734 E0.00000
G1 X95.563 Y273.363 Z-24.7730 E0.00000
G1 X95.470 Y273.325 Z-24.7726 E0.00000
G1 X95.376 Y273.286 Z-24.7722 E0.00000
G1 X95.283 Y273.248 Z-24.7718 E0.00000
G1 X95.189 Y273.210 Z-24.7714 E0.00000
G1 X95.096 Y273.171 Z-24.7710 E0.00000
G1 X95.002 Y273.133 Z-24.7706 E0.00000
G1 X94.909 Y273.095 Z-24.7702 E0.00000
G1 X94.815 Y273.057 Z-24.7699 E0.00000
G1 X94.721 Y273.018 Z-24.7695 E0.00000
G1 X94.628 Y272.980 Z-24.7691 E0.00000
G1 X94.534 Y272.942 Z-24.7687 E0.00000
G1 X94.441 Y272.903 Z-24.7683 E0.00000
G1 X94.347 Y272.865 Z-24.7679 E0.00000
G1 X94.254 Y272.827 Z-24.7675 E0.00000
G1 X94.160 Y272.788 Z-24.7671 E0.00000
G1 X94.067 Y272.750 Z-24.7668 E0.00000
G1 X93.973 Y272.712 Z-24.7664 E0.00000
G1 X93.880 Y272.674 Z-24.7660 E0.00000
G1 X93.786 Y272.635 Z-24.7657 E0.00000
G1 X93.693 Y272.597 Z-24.7653 E0.00000
G1 X93.599 Y272.559 Z-24.7650 E0.00000
G1 X93.506 Y272.520 Z-24.7646 E0.00000
G1 X93.412 Y272.482 Z-24.7643 E0.00000
G1 X93.319 Y272.444 Z-24.7640 E0.00000
G1 X93.225 Y272.406 Z-24.7636 E0.00000
G1 X93.132 Y272.367 Z-24.7633 E0.00000
G1 X93.038 Y272.329 Z-24.7630 E0.00000
G1 X92.944 Y272.291 Z-24.7627 E0.00000
G1 X92.851 Y272.252 Z-24.7623 E0.00000
G1 X92.757 Y272.214 Z-24.7620 E0.00000
G1 X92.664 Y272.176 Z-24.7617 E0.00000
G1 X92.570 Y272.138 Z-24.7614 E0.00000
G1 X92.477 Y272.099 Z-24.7611 E0.00000
G1 X92.383 Y272.061 Z-24.7609 E0.00000
G1 X92.290 Y272.023 Z-24.7606 E0.00000
G1 X92.196 Y271.984 Z-24.7603 E0.00000
G1 X92.103 Y271.946 Z-24.7600 E0.00000
G1 X92.009 Y271.908 Z-24.7597 E0.00000
G1 X91.916 Y271.870 Z-24.7595 E0.00000
G1 X91.822 Y271.831 Z-24.7592 E0.00000
G1 X91.729 Y271.793 Z-24.7589 E0.00000
G1 X91.635 Y271.755 Z-24.7587 E0.00000
G1 X91.542 Y271.716 Z-24.7584 E0.00000
G1 X91.448 Y271.678 Z-24.7582 E0.00000
G1 X91.355 Y271.640 Z-24.7579 E0.00000
G1 X91.261 Y271.601 Z-24.7577 E0.00000
G1 X91.167 Y271.563 Z-24.7575 E0.00000
G1 X91.074 Y271.525 Z-24.7572 E0.00000
G1 X90.980 Y271.487 Z-24.7570 E0.00000
G1 X90.887 Y271.448 Z-24.7568 E0.00000
G1 X90.793 Y271.410 Z-24.7566 E0.00000
G1 X90.700 Y271.372 Z-24.7564 E0.00000
G1 X90.606 Y271.333 Z-24.7562 E0.00000
G1 X90.513 Y271.295 Z-24.7560 E0.00000
G1 X90.419 Y271.257 Z-24.7558 E0.00000
G1 X90.326 Y271.219 Z-24.7556 E0.00000
G1 X90.232 Y271.180 Z-24.7554 E0.00000
G1 X90.139 Y271.142 Z-24.7552 E0.00000
G1 X90.045 Y271.104 Z-24.7550 E0.00000
G1 X89.952 Y271.065 Z-24.7548 E0.00000
G1 X89.858 Y271.027 Z-24.7547 E0.00000
G1 X89.765 Y270.989 Z-24.7545 E0.00000
G1 X89.671 Y270.951 Z-24.7543 E0.00000
G1 X89.578 Y270.912 Z-24.7542 E0.00000
G1 X89.484 Y270.874 Z-24.7540 E0.00000
G1 X89.484 Y270.874 Z-25.9040 E0.00000 F90.0
G1 X89.472 Y270.878 Z-25.9042 E0.00000 F120.0
G1 X89.468 Y270.878 Z-25.9042 E0.00000
G1 X89.468 Y270.777 Z-25.9020 E0.00000
G1 X89.468 Y270.677 Z-25.8998 E0.00000
G1 X89.468 Y270.576 Z-25.8976 E0.00000
G1 X89.468 Y270.475 Z-25.8953 E0.00000
G1 X89.471 Y270.475 Z-25.8953 E0.00000
G1 X89.479 Y270.476 Z-25.8953 E0.00000
G1 X89.484 Y270.494 Z-25.8956 E0.00000
G1 X89.499 Y270.653 Z-25.8990 E0.00000
G1 X89.497 Y270.809 Z-25.9025 E0.00000
G1 X89.484 Y270.874 Z-25.9040 E0.00000
G1 X89.484 Y270.874 Z-24.7540 E0.00000
G1 X89.383 Y270.867 Z-24.7546 E0.00000
G1 X89.283 Y270.859 Z-24.7552 E0.00000
G1 X89.182 Y270.852 Z-24.7558 E0.00000
G1 X89.081 Y270.844 Z-24.7564 E0.00000
G1 X88.981 Y270.837 Z-24.7570 E0.00000
G1 X88.880 Y270.830 Z-24.7576 E0.00000
G1 X88.779 Y270.822 Z-24.7582 E0.00000
G1 X88.679 Y270.815 Z-24.7588 E0.00000
G1 X88.578 Y270.807 Z-24.7593 E0.00000
G1 X88.477 Y270.800 Z-24.7599 E0.00000
G1 X88.377 Y270.793 Z-24.7605 E0.00000
G1 X88.276 Y270.785 Z-24.7611 E0.00000
G1 X88.175 Y270.778 Z-24.7617 E0.00000
G1 X88.075 Y270.770 Z-24.7623 E0.00000
G1 X87.974 Y270.763 Z-24.7629 E0.00000
G1 X87.873 Y270.756 Z-24.7635 E0.00000
G1 X87.773 Y270.748 Z-24.7641 E0.00000
G1 X87.672 Y270.741 Z-24.7647 E0.00000
G1 X87.571 Y270.733 Z-24.7653 E0.00000
G1 X87.471 Y270.726 Z-24.7659 E0.00000
G1 X87.370 Y270.719 Z-24.7665 E0.00000
G1 X87.269 Y270.711 Z-24.7671 E0.00000
G1 X87.169 Y270.704 Z-24.7678 E0.00000
G1 X87.068 Y270.696 Z-24.7684 E0.00000
G1 X86.967 Y270.689 Z-24.7690 E0.00000
G1 X86.867 Y270.682 Z-24.7696 E0.00000
G1 X86.766 Y270.674 Z-24.7702 E0.00000
G1 X86.665 Y270.667 Z-24.7708 E0.00000
G1 X86.565 Y270.659 Z-24.7714 E0.00000
G1 X86.464 Y270.652 Z-24.7720 E0.00000
G1 X86.464 Y270.652 Z-25.9220 E0.00000 F90.0
G1 X86.462 Y270.662 Z-25.9222 E0.00000 F120.0
G1 X86.435 Y270.708 Z-25.9234 E0.00000
G1 X86.397 Y270.732 Z-25.9242 E0.00000
G1 X86.395 Y270.732 Z-25.9242 E0.00000
G1 X86.349 Y270.705 Z-25.9240 E0.00000
G1 X86.335 Y270.681 Z-25.9236 E0.00000
G1 X86.336 Y270.645 Z-25.9229 E0.00000
G1 X86.339 Y270.639 Z-25.9227 E0.00000
G1 X86.352 Y270.621 Z-25.9223 E0.00000
G1 X86.383 Y270.599 Z-25.9216 E0.00000
G1 X86.404 Y270.592 Z-25.9213 E0.00000
G1 X86.421 Y270.594 Z-25.9212 E0.00000
G1 X86.440 Y270.603 Z-25.9212 E0.00000
G1 X86.452 Y270.616 Z-25.9214 E0.00000
G1 X86.462 Y270.638 Z-25.9218 E0.00000
G1 X86.464 Y270.652 Z-25.9220 E0.00000
G1 X86.464 Y270.652 Z-24.7720 E0.00000
G1 X86.378 Y270.704 Z-24.7737 E0.00000
G1 X86.292 Y270.757 Z-24.7755 E0.00000
G1 X86.205 Y270.809 Z-24.7772 E0.00000
G1 X86.119 Y270.862 Z-24.7789 E0.00000
G1 X86.033 Y270.914 Z-24.7805 E0.00000
G1 X85.947 Y270.967 Z-24.7822 E0.00000
G1 X85.861 Y271.019 Z-24.7839 E0.00000
G1 X85.775 Y271.072 Z-24.7856 E0.00000
G1 X85.688 Y271.124 Z-24.7873 E0.00000
G1 X85.602 Y271.177 Z-24.7889 E0.00000
G1 X85.516 Y271.229 Z-24.7906 E0.00000
G1 X85.430 Y271.282 Z-24.7922 E0.00000
G1 X85.344 Y271.334 Z-24.7939 E0.00000
G1 X85.257 Y271.386 Z-24.7955 E0.00000
G1 X85.171 Y271.439 Z-24.7972 E0.00000
G1 X85.085 Y271.491 Z-24.7988 E0.00000
G1 X84.999 Y271.544 Z-24.8004 E0.00000
G1 X84.913 Y271.596 Z-24.8020 E0.00000
G1 X84.827 Y271.649 Z-24.8036 E0.00000
G1 X84.740 Y271.701 Z-24.8053 E0.00000
G1 X84.654 Y271.754 Z-24.8069 E0.00000
G1 X84.568 Y271.806 Z-24.8085 E0.00000
G1 X84.482 Y271.859 Z-24.8100 E0.00000
G1 X84.396 Y271.911 Z-24.8116 E0.00000
G1 X84.309 Y271.964 Z-24.8132 E0.00000
G1 X84.223 Y272.016 Z-24.8148 E0.00000
G1 X84.137 Y272.068 Z-24.8164 E0.00000
G1 X84.051 Y272.121 Z-24.8179 E0.00000
G1 X83.965 Y272.173 Z-24.8195 E0.00000
G1 X83.879 Y272.226 Z-24.8210 E0.00000
G1 X83.792 Y272.278 Z-24.8226 E0.00000
G1 X83.706 Y272.331 Z-24.8241 E0.00000
G1 X83.620 Y272.383 Z-24.8256 E0.00000
G1 X83.534 Y272.436 Z-24.8272 E0.00000
G1 X83.448 Y272.488 Z-24.8287 E0.00000
G1 X83.362 Y272.541 Z-24.8302 E0.00000
G1 X83.275 Y272.593 Z-24.8317 E0.00000
G1 X83.189 Y272.645 Z-24.8332 E0.00000
G1 X83.103 Y272.698 Z-24.8347 E0.00000
G1 X83.017 Y272.750 Z-24.8362 E0.00000
G1 X82.931 Y272.803 Z-24.8377 E0.00000
G1 X82.844 Y272.855 Z-24.8392 E0.00000
G1 X82.758 Y272.908 Z-24.8407 E0.00000
G1 X82.672 Y272.960 Z-24.8422 E0.00000
G1 X82.586 Y273.013 Z-24.8436 E0.00000
G1 X82.500 Y273.065 Z-24.8451 E0.00000
G1 X82.414 Y273.118 Z-24.8466 E0.00000
G1 X82.327 Y273.170 Z-24.8480 E0.00000
G1 X82.241 Y273.223 Z-24.8494 E0.00000
G1 X82.155 Y273.275 Z-24.8509 E0.00000
G1 X82.155 Y273.275 Z-26.0009 E0.00000 F90.0
G1 X82.157 Y273.284 Z-26.0010 E0.00000 F120.0
G1 X82.156 Y273.293 Z-26.0012 E0.00000
G1 X82.127 Y273.348 Z-26.0023 E0.00000
G1 X82.081 Y273.382 Z-26.0032 E0.00000
G1 X82.080 Y273.382 Z-26.0032 E0.00000
G1 X82.072 Y273.381 Z-26.0032 E0.00000
G1 X82.045 Y273.369 Z-26.0032 E0.00000
G1 X82.022 Y273.352 Z-26.0030 E0.00000
G1 X82.007 Y273.333 Z-26.0028 E0.00000
G1 X81.998 Y273.314 Z-26.0025 E0.00000
G1 X81.995 Y273.295 Z-26.0022 E0.00000
G1 X81.997 Y273.278 Z-26.0019 E0.00000
G1 X82.004 Y273.259 Z-26.0015 E0.00000
G1 X82.018 Y273.241 Z-26.0011 E0.00000
G1 X82.044 Y273.223 Z-26.0006 E0.00000
G1 X82.067 Y273.217 Z-26.0004 E0.00000
G1 X82.092 Y273.219 Z-26.0003 E0.00000
G1 X82.120 Y273.233 Z-26.0004 E0.00000
G1 X82.142 Y273.254 Z-26.0006 E0.00000
G1 X82.155 Y273.275 Z-26.0009 E0.00000
G1 X82.155 Y273.275 Z-24.8509 E0.00000
G1 X82.239 Y273.329 Z-24.8513 E0.00000
G1 X82.323 Y273.384 Z-24.8518 E0.00000
G1 X82.408 Y273.438 Z-24.8523 E0.00000
G1 X82.492 Y273.492 Z-24.8528 E0.00000
G1 X82.576 Y273.547 Z-24.8532 E0.00000
G1 X82.660 Y273.601 Z-24.8537 E0.00000
G1 X82.744 Y273.655 Z-24.8542 E0.00000
G1 X82.829 Y273.710 Z-24.8547 E0.00000
G1 X82.913 Y273.764 Z-24.8552 E0.00000
G1 X82.997 Y273.818 Z-24.8557 E0.00000
G1 X83.081 Y273.873 Z-24.8562 E0.00000
G1 X83.165 Y273.927 Z-24.8567 E0.00000
G1 X83.249 Y273.981 Z-24.8573 E0.00000
G1 X83.334 Y274.036 Z-24.8578 E0.00000
G1 X83.418 Y274.090 Z-24.8583 E0.00000
G1 X83.502 Y274.144 Z-24.8589 E0.00000
G1 X83.586 Y274.198 Z-24.8594 E0.00000
G1 X83.670 Y274.253 Z-24.8600 E0.00000
G1 X83.755 Y274.307 Z-24.8605 E0.00000
G1 X83.839 Y274.361 Z-24.8611 E0.00000
G1 X83.923 Y274.416 Z-24.8617 E0.00000
G1 X84.007 Y274.470 Z-24.8623 E0.00000
G1 X84.091 Y274.524 Z-24.8628 E0.00000
G1 X84.176 Y274.579 Z-24.8634 E0.00000
G1 X84.260 Y274.633 Z-24.8640 E0.00000
G1 X84.344 Y274.687 Z-24.8646 E0.00000
G1 X84.428 Y274.742 Z-24.8652 E0.00000
G1 X84.512 Y274.796 Z-24.8658 E0.00000
G1 X84.596 Y274.850 Z-24.8664 E0.00000
G1 X84.681 Y274.905 Z-24.8671 E0.00000
G1 X84.765 Y274.959 Z-24.8677 E0.00000
G1 X84.849 Y275.013 Z-24.8683 E0.00000
G1 X84.933 Y275.068 Z-24.8690 E0.00000
G1 X85.017 Y275.122 Z-24.8696 E0.00000
G1 X85.102 Y275.176 Z-24.8703 E0.00000
G1 X85.186 Y275.231 Z-24.8709 E0.00000
G1 X85.270 Y275.285 Z-24.8716 E0.00000
G1 X85.354 Y275.339 Z-24.8722 E0.00000
G1 X85.438 Y275.394 Z-24.8729 E0.00000
G1 X85.523 Y275.448 Z-24.8736 E0.00000
G1 X85.607 Y275.502 Z-24.8743 E0.00000
G1 X85.691 Y275.557 Z-24.8750 E0.00000
G1 X85.775 Y275.611 Z-24.8757 E0.00000
G1 X85.859 Y275.665 Z-24.8764 E0.00000
G1 X85.943 Y275.720 Z-24.8771 E0.00000
G1 X86.028 Y275.774 Z-24.8778 E0.00000
G1 X86.112 Y275.828 Z-24.8785 E0.00000
G1 X86.196 Y275.882 Z-24.8792 E0.00000
G1 X86.280 Y275.937 Z-24.8799 E0.00000
G1 X86.364 Y275.991 Z-24.8807 E0.00000
G1 X86.449 Y276.045 Z-24.8814 E0.00000
G1 X86.533 Y276.100 Z-24.8822 E0.00000
G1 X86.617 Y276.154 Z-24.8829 E0.00000
G1 X86.701 Y276.208 Z-24.8837 E0.00000
G1 X86.785 Y276.263 Z-24.8844 E0.00000
G1 X86.870 Y276.317 Z-24.8852 E0.00000
G1 X86.954 Y276.371 Z-24.8860 E0.00000
G1 X87.038 Y276.426 Z-24.8868 E0.00000
G1 X87.122 Y276.480 Z-24.8875 E0.00000
G1 X87.206 Y276.534 Z-24.8883 E0.00000
G1 X87.290 Y276.589 Z-24.8891 E0.00000
G1 X87.375 Y276.643 Z-24.8899 E0.00000
G1 X87.459 Y276.697 Z-24.8907 E0.00000
G1 X87.543 Y276.752 Z-24.8916 E0.00000
G1 X87.627 Y276.806 Z-24.8924 E0.00000
G1 X87.711 Y276.860 Z-24.8932 E0.00000
G1 X87.796 Y276.915 Z-24.8940 E0.00000
G1 X87.880 Y276.969 Z-24.8949 E0.00000
G1 X87.964 Y277.023 Z-24.8957 E0.00000
G1 X88.048 Y277.078 Z-24.8966 E0.00000
G1 X88.132 Y277.132 Z-24.8974 E0.00000
G1 X88.217 Y277.186 Z-24.8983 E0.00000
G1 X88.301 Y277.241 Z-24.8991 E0.00000
G1 X88.385 Y277.295 Z-24.9000 E0.00000
G1 X88.469 Y277.349 Z-24.9009 E0.00000
G1 X88.553 Y277.404 Z-24.9018 E0.00000
G1 X88.637 Y277.458 Z-24.9027 E0.00000
G1 X88.722 Y277.512 Z-24.9036 E0.00000
G1 X88.806 Y277.566 Z-24.9045 E0.00000
G1 X88.890 Y277.621 Z-24.9054 E0.00000
G1 X88.974 Y277.675 Z-24.9063 E0.00000
G1 X89.058 Y277.729 Z-24.9072 E0.00000
G1 X89.143 Y277.784 Z-24.9081 E0.00000
G1 X89.227 Y277.838 Z-24.9090 E0.00000
G1 X89.311 Y277.892 Z-24.9100 E0.00000
G1 X89.395 Y277.947 Z-24.9109 E0.00000
G1 X89.479 Y278.001 Z-24.9118 E0.00000
G1 X89.564 Y278.055 Z-24.9128 E0.00000
G1 X89.648 Y278.110 Z-24.9138 E0.00000
G1 X89.732 Y278.164 Z-24.9147 E0.00000
G1 X89.816 Y278.218 Z-24.9157 E0.00000
G1 X89.900 Y278.273 Z-24.9167 E0.00000
G1 X89.984 Y278.327 Z-24.9176 E0.00000
G1 X90.069 Y278.381 Z-24.9186 E0.00000
G1 X90.153 Y278.436 Z-24.9196 E0.00000
G1 X90.237 Y278.490 Z-24.9206 E0.00000
G1 X90.321 Y278.544 Z-24.9216 E0.00000
G1 X90.405 Y278.599 Z-24.9226 E0.00000
G1 X90.490 Y278.653 Z-24.9236 E0.00000
G1 X90.574 Y278.707 Z-24.9246 E0.00000
G1 X90.658 Y278.762 Z-24.9257 E0.00000
G1 X90.742 Y278.816 Z-24.9267 E0.00000
G1 X90.826 Y278.870 Z-24.9277 E0.00000
G1 X90.911 Y278.925 Z-24.9288 E0.00000
G1 X90.995 Y278.979 Z-24.9298 E0.00000
G1 X91.079 Y279.033 Z-24.9309 E0.00000
G1 X91.163 Y279.088 Z-24.9319 E0.00000
G1 X91.247 Y279.142 Z-24.9330 E0.00000
G1 X91.332 Y279.196 Z-24.9341 E0.00000
G1 X91.416 Y279.250 Z-24.9351 E0.00000
G1 X91.500 Y279.305 Z-24.9362 E0.00000
G1 X91.584 Y279.359 Z-24.9373 E0.00000
G1 X91.668 Y279.413 Z-24.9384 E0.00000
G1 X91.752 Y279.468 Z-24.9395 E0.00000
G1 X91.837 Y279.522 Z-24.9406 E0.00000
G1 X91.921 Y279.576 Z-24.9417 E0.00000
G1 X92.005 Y279.631 Z-24.9428 E0.00000
G1 X92.089 Y279.685 Z-24.9439 E0.00000
G1 X92.173 Y279.739 Z-24.9450 E0.00000
G1 X92.258 Y279.794 Z-24.9462 E0.00000
G1 X92.342 Y279.848 Z-24.9473 E0.00000
G1 X92.426 Y279.902 Z-24.9485 E0.00000
G1 X92.510 Y279.957 Z-24.9496 E0.00000
G1 X92.594 Y280.011 Z-24.9508 E0.00000
G1 X92.679 Y280.065 Z-24.9519 E0.00000
G1 X92.763 Y280.120 Z-24.9531 E0.00000
G1 X92.847 Y280.174 Z-24.9543 E0.00000
G1 X92.931 Y280.228 Z-24.9554 E0.00000
G1 X93.015 Y280.283 Z-24.9566 E0.00000
G1 X93.099 Y280.337 Z-24.9578 E0.00000
G1 X93.184 Y280.391 Z-24.9590 E0.00000
G1 X93.268 Y280.446 Z-24.9602 E0.00000
G1 X93.352 Y280.500 Z-24.9614 E0.00000
G1 X93.436 Y280.554 Z-24.9626 E0.00000
G1 X93.520 Y280.609 Z-24.9638 E0.00000
G1 X93.605 Y280.663 Z-24.9650 E0.00000
G1 X93.689 Y280.717 Z-24.9663 E0.00000
G1 X93.773 Y280.772 Z-24.9675 E0.00000
G1 X93.857 Y280.826 Z-24.9687 E0.00000
G1 X93.941 Y280.880 Z-24.9700 E0.00000
G1 X94.026 Y280.934 Z-24.9712 E0.00000
G1 X94.110 Y280.989 Z-24.9725 E0.00000
G1 X94.194 Y281.043 Z-24.9738 E0.00000
G1 X94.278 Y281.097 Z-24.9750 E0.00000
G1 X94.362 Y281.152 Z-24.9763 E0.00000
G1 X94.446 Y281.206 Z-24.9772 E0.00000
G1 X94.531 Y281.260 Z-24.9780 E0.00000
G1 X94.615 Y281.315 Z-24.9789 E0.00000
G1 X94.699 Y281.369 Z-24.9797 E0.00000
G1 X94.783 Y281.423 Z-24.9805 E0.00000
G1 X94.867 Y281.478 Z-24.9813 E0.00000
G1 X94.952 Y281.532 Z-24.9822 E0.00000
G1 X95.036 Y281.586 Z-24.9830 E0.00000
G1 X95.120 Y281.641 Z-24.9838 E0.00000
G1 X95.204 Y281.695 Z-24.9846 E0.00000
G1 X95.288 Y281.749 Z-24.9855 E0.00000
G1 X95.373 Y281.804 Z-24.9863 E0.00000
G1 X95.457 Y281.858 Z-24.9871 E0.00000
G1 X95.541 Y281.912 Z-24.9879 E0.00000
G1 X95.625 Y281.967 Z-24.9887 E0.00000
G1 X95.709 Y282.021 Z-24.9893 E0.00000
G1 X95.793 Y282.075 Z-24.9899 E0.00000
G1 X95.878 Y282.130 Z-24.9905 E0.00000
G1 X95.962 Y282.184 Z-24.9911 E0.00000
G1 X96.046 Y282.238 Z-24.9917 E0.00000
G1 X96.130 Y282.293 Z-24.9923 E0.00000
G1 X96.214 Y282.347 Z-24.9929 E0.00000
G1 X96.299 Y282.401 Z-24.9935 E0.00000
G1 X96.383 Y282.456 Z-24.9941 E0.00000
G1 X96.467 Y282.510 Z-24.9947 E0.00000
G1 X96.551 Y282.564 Z-24.9953 E0.00000
G1 X96.635 Y282.618 Z-24.9958 E0.00000
G1 X96.720 Y282.673 Z-24.9964 E0.00000
G1 X96.804 Y282.727 Z-24.9970 E0.00000
G1 X96.888 Y282.781 Z-24.9976 E0.00000
G1 X96.972 Y282.836 Z-24.9982 E0.00000
G1 X97.056 Y282.890 Z-24.9989 E0.00000
G1 X97.140 Y282.944 Z-24.9995 E0.00000
G1 X97.225 Y282.999 Z-25.0001 E0.00000
G1 X97.309 Y283.053 Z-25.0007 E0.00000
G1 X97.393 Y283.107 Z-25.0013 E0.00000
G1 X97.477 Y283.162 Z-25.0019 E0.00000
G1 X97.561 Y283.216 Z-25.0025 E0.00000
G1 X97.646 Y283.270 Z-25.0031 E0.00000
G1 X97.730 Y283.325 Z-25.0037 E0.00000
G1 X97.814 Y283.379 Z-25.0043 E0.00000
G1 X97.814 Y283.379 Z-26.1543 E0.00000 F90.0
G1 X97.829 Y283.362 Z-26.1539 E0.00000 F120.0
G1 X97.856 Y283.345 Z-26.1533 E0.00000
G1 X97.879 Y283.360 Z-26.1535 E0.00000
G1 X97.897 Y283.380 Z-26.1538 E0.00000
G1 X97.900 Y283.398 Z-26.1542 E0.00000
G1 X97.896 Y283.417 Z-26.1546 E0.00000
G1 X97.890 Y283.427 Z-26.1549 E0.00000
G1 X97.879 Y283.435 Z-26.1551 E0.00000
G1 X97.853 Y283.439 Z-26.1553 E0.00000
G1 X97.836 Y283.437 Z-26.1554 E0.00000
G1 X97.824 Y283.431 Z-26.1554 E0.00000
G1 X97.816 Y283.422 Z-26.1552 E0.00000
G1 X97.810 Y283.411 Z-26.1550 E0.00000
G1 X97.808 Y283.400 Z-26.1548 E0.00000
G1 X97.809 Y283.389 Z-26.1546 E0.00000
G1 X97.814 Y283.379 Z-26.1543 E0.00000
G1 X97.814 Y283.379 Z-25.0043 E0.00000
G1 X97.916 Y283.380 Z-25.0037 E0.00000
G1 X98.017 Y283.380 Z-25.0031 E0.00000
G1 X98.119 Y283.381 Z-25.0024 E0.00000
G1 X98.220 Y283.381 Z-25.0018 E0.00000
G1 X98.322 Y283.382 Z-25.0012 E0.00000
G1 X98.423 Y283.382 Z-25.0006 E0.00000
G1 X98.525 Y283.383 Z-24.9999 E0.00000
G1 X98.626 Y283.383 Z-24.9993 E0.00000
G1 X98.728 Y283.384 Z-24.9987 E0.00000
G1 X98.829 Y283.385 Z-24.9981 E0.00000
G1 X98.931 Y283.385 Z-24.9974 E0.00000
G1 X99.032 Y283.386 Z-24.9968 E0.00000
G1 X99.134 Y283.386 Z-24.9962 E0.00000
G1 X99.235 Y283.387 Z-24.9956 E0.00000
G1 X99.337 Y283.387 Z-24.9949 E0.00000
G1 X99.438 Y283.388 Z-24.9943 E0.00000
G1 X99.540 Y283.388 Z-24.9937 E0.00000
G1 X99.641 Y283.389 Z-24.9931 E0.00000
G1 X99.743 Y283.390 Z-24.9924 E0.00000
G1 X99.845 Y283.390 Z-24.9918 E0.00000
G1 X99.946 Y283.391 Z-24.9912 E0.00000
G1 X100.048 Y283.391 Z-24.9906 E0.00000
G1 X100.149 Y283.392 Z-24.9899 E0.00000
G1 X100.251 Y283.392 Z-24.9893 E0.00000
G1 X100.352 Y283.393 Z-24.9887 E0.00000
G1 X100.454 Y283.393 Z-24.9881 E0.00000
G1 X100.555 Y283.394 Z-24.9874 E0.00000
G1 X100.657 Y283.395 Z-24.9868 E0.00000
G1 X100.758 Y283.395 Z-24.9862 E0.00000
G1 X100.860 Y283.396 Z-24.9856 E0.00000
G1 X100.961 Y283.396 Z-24.9849 E0.00000
G1 X101.063 Y283.397 Z-24.9843 E0.00000
G1 X101.164 Y283.397 Z-24.9837 E0.00000
G1 X101.266 Y283.398 Z-24.9831 E0.00000
G1 X101.367 Y283.398 Z-24.9824 E0.00000
G1 X101.469 Y283.399 Z-24.9818 E0.00000
G1 X101.469 Y283.399 Z-26.1318 E0.00000 F90.0
G1 X101.470 Y283.373 Z-26.1312 E0.00000 F120.0
G1 X101.477 Y283.352 Z-26.1308 E0.00000
G1 X101.488 Y283.336 Z-26.1303 E0.00000
G1 X101.504 Y283.323 Z-26.1300 E0.00000
G1 X101.524 Y283.315 Z-26.1297 E0.00000
G1 X101.550 Y283.313 Z-26.1295 E0.00000
G1 X101.567 Y283.317 Z-26.1294 E0.00000
G1 X101.607 Y283.350 Z-26.1299 E0.00000
G1 X101.615 Y283.366 Z-26.1302 E0.00000
G1 X101.621 Y283.400 Z-26.1309 E0.00000
G1 X101.618 Y283.431 Z-26.1316 E0.00000
G1 X101.612 Y283.445 Z-26.1319 E0.00000
G1 X101.603 Y283.453 Z-26.1321 E0.00000
G1 X101.594 Y283.458 Z-26.1323 E0.00000
G1 X101.539 Y283.465 Z-26.1328 E0.00000
G1 X101.490 Y283.448 Z-26.1327 E0.00000
G1 X101.486 Y283.445 Z-26.1327 E0.00000
G1 X101.478 Y283.432 Z-26.1325 E0.00000
G1 X101.469 Y283.399 Z-26.1318 E0.00000
G1 X101.469 Y283.399 Z-24.9818 E0.00000
G1 X101.491 Y283.500 Z-24.9838 E0.00000
G1 X101.514 Y283.600 Z-24.9858 E0.00000
G1 X101.536 Y283.701 Z-24.9879 E0.00000
G1 X101.559 Y283.802 Z-24.9899 E0.00000
G1 X101.581 Y283.902 Z-24.9919 E0.00000
G1 X101.604 Y284.003 Z-24.9939 E0.00000
G1 X101.626 Y284.103 Z-24.9960 E0.00000
G1 X101.648 Y284.204 Z-24.9980 E0.00000
G1 X101.671 Y284.305 Z-25.0000 E0.00000
G1 X101.693 Y284.405 Z-25.0020 E0.00000
G1 X101.716 Y284.506 Z-25.0041 E0.00000
G1 X101.738 Y284.607 Z-25.0061 E0.00000
G1 X101.761 Y284.707 Z-25.0081 E0.00000
G1 X101.783 Y284.808 Z-25.0101 E0.00000
G1 X101.805 Y284.909 Z-25.0122 E0.00000
G1 X101.828 Y285.009 Z-25.0142 E0.00000
G1 X101.850 Y285.110 Z-25.0162 E0.00000
G1 X101.873 Y285.211 Z-25.0182 E0.00000
G1 X101.895 Y285.311 Z-25.0203 E0.00000
G1 X101.918 Y285.412 Z-25.0223 E0.00000
G1 X101.940 Y285.512 Z-25.0243 E0.00000
G1 X101.962 Y285.613 Z-25.0264 E0.00000
G1 X101.985 Y285.714 Z-25.0284 E0.00000
G1 X102.007 Y285.814 Z-25.0304 E0.00000
G1 X102.030 Y285.915 Z-25.0325 E0.00000
G1 X102.052 Y286.016 Z-25.0345 E0.00000
G1 X102.075 Y286.116 Z-25.0365 E0.00000
G1 X102.097 Y286.217 Z-25.0386 E0.00000
G1 X102.097 Y286.217 Z-26.1886 E0.00000 F90.0
G1 X102.145 Y286.211 Z-26.1882 E0.00000 F120.0
G1 X102.200 Y286.224 Z-26.1881 E0.00000
G1 X102.233 Y286.248 Z-26.1884 E0.00000
G1 X102.262 Y286.294 Z-26.1893 E0.00000
G1 X102.277 Y286.347 Z-26.1903 E0.00000
G1 X102.268 Y286.402 Z-26.1915 E0.00000
G1 X102.247 Y286.448 Z-26.1927 E0.00000
G1 X102.229 Y286.468 Z-26.1932 E0.00000
G1 X102.198 Y286.481 Z-26.1937 E0.00000
G1 X102.135 Y286.488 Z-26.1942 E0.00000
G1 X102.075 Y286.479 Z-26.1943 E0.00000
G1 X102.035 Y286.450 Z-26.1940 E0.00000
G1 X102.002 Y286.403 Z-26.1931 E0.00000
G1 X101.992 Y286.361 Z-26.1923 E0.00000
G1 X101.998 Y286.318 Z-26.1913 E0.00000
G1 X102.020 Y286.275 Z-26.1903 E0.00000
G1 X102.055 Y286.239 Z-26.1893 E0.00000
G1 X102.097 Y286.217 Z-26.1886 E0.00000
G1 X102.097 Y286.217 Z-25.0386 E0.00000
G1 X101.994 Y286.221 Z-25.0393 E0.00000
G1 X101.891 Y286.225 Z-25.0400 E0.00000
G1 X101.788 Y286.230 Z-25.0407 E0.00000
G1 X101.684 Y286.234 Z-25.0414 E0.00000
G1 X101.581 Y286.238 Z-25.0421 E0.00000
G1 X101.478 Y286.242 Z-25.0428 E0.00000
G1 X101.375 Y286.246 Z-25.0435 E0.00000
G1 X101.272 Y286.251 Z-25.0442 E0.00000
G1 X101.169 Y286.255 Z-25.0449 E0.00000
G1 X101.066 Y286.259 Z-25.0456 E0.00000
G1 X100.963 Y286.263 Z-25.0463 E0.00000
G1 X100.859 Y286.267 Z-25.0470 E0.00000
G1 X100.756 Y286.272 Z-25.0477 E0.00000
G1 X100.653 Y286.276 Z-25.0484 E0.00000
G1 X100.550 Y286.280 Z-25.0491 E0.00000
G1 X100.447 Y286.284 Z-25.0498 E0.00000
G1 X100.344 Y286.288 Z-25.0505 E0.00000
G1 X100.241 Y286.292 Z-25.0512 E0.00000
G1 X100.138 Y286.297 Z-25.0519 E0.00000
G1 X100.034 Y286.301 Z-25.0526 E0.00000
G1 X99.931 Y286.305 Z-25.0533 E0.00000
G1 X99.828 Y286.309 Z-25.0540 E0.00000
G1 X99.725 Y286.313 Z-25.0547 E0.00000
G1 X99.622 Y286.318 Z-25.0554 E0.00000
G1 X99.519 Y286.322 Z-25.0561 E0.00000
G1 X99.416 Y286.326 Z-25.0568 E0.00000
G1 X99.313 Y286.330 Z-25.0575 E0.00000
G1 X99.209 Y286.334 Z-25.0582 E0.00000
G1 X99.106 Y286.339 Z-25.0589 E0.00000
G1 X99.003 Y286.343 Z-25.0596 E0.00000
G1 X98.900 Y286.347 Z-25.0603 E0.00000
G1 X98.900 Y286.347 Z-26.2103 E0.00000 F90.0
G1 X98.893 Y286.396 Z-26.2113 E0.00000 F120.0
G1 X98.866 Y286.446 Z-26.2126 E0.00000
G1 X98.834 Y286.474 Z-26.2133 E0.00000
G1 X98.790 Y286.489 Z-26.2139 E0.00000
G1 X98.739 Y286.489 Z-26.2142 E0.00000
G1 X98.690 Y286.474 Z-26.2142 E0.00000
G1 X98.653 Y286.447 Z-26.2138 E0.00000
G1 X98.629 Y286.411 Z-26.2132 E0.00000
G1 X98.618 Y286.353 Z-26.2121 E0.00000
G1 X98.623 Y286.318 Z-26.2113 E0.00000
G1 X98.636 Y286.284 Z-26.2105 E0.00000
G1 X98.657 Y286.256 Z-26.2098 E0.00000
G1 X98.683 Y286.234 Z-26.2092 E0.00000
G1 X98.715 Y286.218 Z-26.2086 E0.00000
G1 X98.749 Y286.211 Z-26.2083 E0.00000
G1 X98.786 Y286.212 Z-26.2081 E0.00000
G1 X98.820 Y286.222 Z-26.2081 E0.00000
G1 X98.857 Y286.248 Z-26.2084 E0.00000
G1 X98.885 Y286.294 Z-26.2092 E0.00000
G1 X98.900 Y286.347 Z-26.2103 E0.00000
G1 X98.900 Y286.347 Z-25.0603 E0.00000
G1 X98.881 Y286.446 Z-25.0625 E0.00000
G1 X98.863 Y286.545 Z-25.0647 E0.00000
G1 X98.844 Y286.645 Z-25.0669 E0.00000
G1 X98.826 Y286.744 Z-25.0691 E0.00000
G1 X98.807 Y286.843 Z-25.0713 E0.00000
G1 X98.789 Y286.942 Z-25.0735 E0.00000
G1 X98.770 Y287.041 Z-25.0757 E0.00000
G1 X98.752 Y287.140 Z-25.0779 E0.00000
G1 X98.733 Y287.240 Z-25.0801 E0.00000
G1 X98.714 Y287.339 Z-25.0823 E0.00000
G1 X98.696 Y287.438 Z-25.0845 E0.00000
G1 X98.677 Y287.537 Z-25.0867 E0.00000
G1 X98.659 Y287.636 Z-25.0889 E0.00000
G1 X98.640 Y287.736 Z-25.0911 E0.00000
G1 X98.622 Y287.835 Z-25.0933 E0.00000
G1 X98.603 Y287.934 Z-25.0955 E0.00000
G1 X98.584 Y288.033 Z-25.0977 E0.00000
G1 X98.566 Y288.132 Z-25.0999 E0.00000
G1 X98.547 Y288.231 Z-25.1021 E0.00000
G1 X98.529 Y288.331 Z-25.1043 E0.00000
G1 X98.510 Y288.430 Z-25.1065 E0.00000
G1 X98.492 Y288.529 Z-25.1087 E0.00000
G1 X98.473 Y288.628 Z-25.1109 E0.00000
G1 X98.455 Y288.727 Z-25.1131 E0.00000
G1 X98.436 Y288.826 Z-25.1153 E0.00000
G1 X98.417 Y288.926 Z-25.1175 E0.00000
G1 X98.399 Y289.025 Z-25.1197 E0.00000
G1 X98.380 Y289.124 Z-25.1219 E0.00000
G1 X98.362 Y289.223 Z-25.1241 E0.00000
G1 X98.343 Y289.322 Z-25.1263 E0.00000
G1 X98.325 Y289.422 Z-25.1285 E0.00000
G1 X98.306 Y289.521 Z-25.1307 E0.00000
G1 X98.288 Y289.620 Z-25.1329 E0.00000
G1 X98.269 Y289.719 Z-25.1350 E0.00000
G1 X98.250 Y289.818 Z-25.1372 E0.00000
G1 X98.232 Y289.917 Z-25.1394 E0.00000
G1 X98.213 Y290.017 Z-25.1416 E0.00000
G1 X98.195 Y290.116 Z-25.1438 E0.00000
G1 X98.176 Y290.215 Z-25.1460 E0.00000
G1 X98.158 Y290.314 Z-25.1482 E0.00000
G1 X98.139 Y290.413 Z-25.1504 E0.00000
G1 X98.121 Y290.512 Z-25.1526 E0.00000
G1 X98.102 Y290.612 Z-25.1548 E0.00000
G1 X98.083 Y290.711 Z-25.1569 E0.00000
G1 X98.065 Y290.810 Z-25.1591 E0.00000
G1 X98.046 Y290.909 Z-25.1613 E0.00000
G1 X98.028 Y291.008 Z-25.1635 E0.00000
G1 X98.009 Y291.108 Z-25.1657 E0.00000
G1 X97.991 Y291.207 Z-25.1679 E0.00000
G1 X97.972 Y291.306 Z-25.1701 E0.00000
G1 X97.953 Y291.405 Z-25.1722 E0.00000
G1 X97.935 Y291.504 Z-25.1744 E0.00000
G1 X97.916 Y291.603 Z-25.1766 E0.00000
G1 X97.898 Y291.703 Z-25.1788 E0.00000
G1 X97.879 Y291.802 Z-25.1810 E0.00000
G1 X97.861 Y291.901 Z-25.1832 E0.00000
G1 X97.842 Y292.000 Z-25.1853 E0.00000
G1 X97.824 Y292.099 Z-25.1875 E0.00000
G1 X97.805 Y292.199 Z-25.1897 E0.00000
G1 X97.786 Y292.298 Z-25.1919 E0.00000
G1 X97.768 Y292.397 Z-25.1941 E0.00000
G1 X97.749 Y292.496 Z-25.1962 E0.00000
G1 X97.731 Y292.595 Z-25.1984 E0.00000
G1 X97.712 Y292.694 Z-25.2006 E0.00000
G1 X97.694 Y292.794 Z-25.2028 E0.00000
G1 X97.675 Y292.893 Z-25.2049 E0.00000
G1 X97.657 Y292.992 Z-25.2071 E0.00000
G1 X97.638 Y293.091 Z-25.2093 E0.00000
G1 X97.619 Y293.190 Z-25.2115 E0.00000
G1 X97.601 Y293.289 Z-25.2136 E0.00000
G1 X97.582 Y293.389 Z-25.2158 E0.00000
G1 X97.564 Y293.488 Z-25.2180 E0.00000
G1 X97.545 Y293.587 Z-25.2202 E0.00000
G1 X97.527 Y293.686 Z-25.2223 E0.00000
G1 X97.508 Y293.785 Z-25.2245 E0.00000
G1 X97.489 Y293.885 Z-25.2267 E0.00000
G1 X97.471 Y293.984 Z-25.2289 E0.00000
G1 X97.452 Y294.083 Z-25.2310 E0.00000
G1 X97.434 Y294.182 Z-25.2332 E0.00000
G1 X97.415 Y294.281 Z-25.2354 E0.00000
G1 X97.397 Y294.380 Z-25.2375 E0.00000
G1 X97.378 Y294.480 Z-25.2397 E0.00000
G1 X97.360 Y294.579 Z-25.2419 E0.00000
G1 X97.341 Y294.678 Z-25.2441 E0.00000
G1 X97.341 Y294.678 Z-26.3941 E0.00000 F90.0
G1 X97.359 Y294.683 Z-26.3941 E0.00000 F120.0
G1 X97.418 Y294.724 Z-26.3946 E0.00000
G1 X97.436 Y294.750 Z-26.3951 E0.00000
G1 X97.442 Y294.788 Z-26.3959 E0.00000
G1 X97.432 Y294.835 Z-26.3969 E0.00000
G1 X97.403 Y294.878 Z-26.3979 E0.00000
G1 X97.371 Y294.903 Z-26.3986 E0.00000
G1 X97.330 Y294.910 Z-26.3990 E0.00000
G1 X97.281 Y294.901 Z-26.3990 E0.00000
G1 X97.258 Y294.886 Z-26.3988 E0.00000
G1 X97.242 Y294.858 Z-26.3983 E0.00000
G1 X97.233 Y294.795 Z-26.3970 E0.00000
G1 X97.240 Y294.744 Z-26.3959 E0.00000
G1 X97.270 Y294.709 Z-26.3951 E0.00000
G1 X97.300 Y294.688 Z-26.3945 E0.00000
G1 X97.323 Y294.679 Z-26.3942 E0.00000
G1 X97.341 Y294.678 Z-26.3941 E0.00000
G1 X97.341 Y294.678 Z-25.2441 E0.00000
G1 X97.240 Y294.676 Z-25.2445 E0.00000
G1 X97.138 Y294.675 Z-25.2450 E0.00000
G1 X97.037 Y294.673 Z-25.2454 E0.00000
G1 X96.935 Y294.671 Z-25.2459 E0.00000
G1 X96.834 Y294.670 Z-25.2464 E0.00000
G1 X96.732 Y294.668 Z-25.2468 E0.00000
G1 X96.631 Y294.666 Z-25.2473 E0.00000
G1 X96.530 Y294.665 Z-25.2477 E0.00000
G1 X96.428 Y294.663 Z-25.2482 E0.00000
G1 X96.327 Y294.661 Z-25.2487 E0.00000
G1 X96.225 Y294.660 Z-25.2491 E0.00000
G1 X96.124 Y294.658 Z-25.2496 E0.00000
G1 X96.022 Y294.657 Z-25.2500 E0.00000
G1 X95.921 Y294.655 Z-25.2505 E0.00000
G1 X95.819 Y294.653 Z-25.2510 E0.00000
G1 X95.718 Y294.652 Z-25.2514 E0.00000
G1 X95.617 Y294.650 Z-25.2519 E0.00000
G1 X95.515 Y294.648 Z-25.2524 E0.00000
G1 X95.414 Y294.647 Z-25.2528 E0.00000
G1 X95.312 Y294.645 Z-25.2533 E0.00000
G1 X95.211 Y294.643 Z-25.2537 E0.00000
G1 X95.109 Y294.642 Z-25.2542 E0.00000
G1 X95.008 Y294.640 Z-25.2547 E0.00000
G1 X94.907 Y294.638 Z-25.2551 E0.00000
G1 X94.805 Y294.637 Z-25.2556 E0.00000
G1 X94.704 Y294.635 Z-25.2560 E0.00000
G1 X94.602 Y294.633 Z-25.2565 E0.00000
G1 X94.501 Y294.632 Z-25.2570 E0.00000
G1 X94.399 Y294.630 Z-25.2574 E0.00000
G1 X94.298 Y294.628 Z-25.2578 E0.00000
G1 X94.197 Y294.627 Z-25.2582 E0.00000
G1 X94.095 Y294.625 Z-25.2586 E0.00000
G1 X93.994 Y294.623 Z-25.2590 E0.00000
G1 X93.892 Y294.622 Z-25.2593 E0.00000
G1 X93.791 Y294.620 Z-25.2597 E0.00000
G1 X93.689 Y294.619 Z-25.2601 E0.00000
G1 X93.588 Y294.617 Z-25.2605 E0.00000
G1 X93.486 Y294.615 Z-25.2608 E0.00000
G1 X93.385 Y294.614 Z-25.2612 E0.00000
G1 X93.284 Y294.612 Z-25.2616 E0.00000
G1 X93.182 Y294.610 Z-25.2620 E0.00000
G1 X93.081 Y294.609 Z-25.2623 E0.00000
G1 X92.979 Y294.607 Z-25.2627 E0.00000
G1 X92.878 Y294.605 Z-25.2631 E0.00000
G1 X92.776 Y294.604 Z-25.2635 E0.00000
G1 X92.675 Y294.602 Z-25.2638 E0.00000
G1 X92.675 Y294.602 Z-26.4138 E0.00000 F90.0
G1 X92.673 Y294.641 Z-26.4147 E0.00000 F120.0
G1 X92.661 Y294.682 Z-26.4156 E0.00000
G1 X92.641 Y294.721 Z-26.4165 E0.00000
G1 X92.544 Y294.826 Z-26.4191 E0.00000
G1 X92.481 Y294.864 Z-26.4202 E0.00000
G1 X92.416 Y294.882 Z-26.4208 E0.00000
G1 X92.348 Y294.881 Z-26.4211 E0.00000
G1 X92.282 Y294.863 Z-26.4209 E0.00000
G1 X92.220 Y294.827 Z-26.4204 E0.00000
G1 X92.167 Y294.776 Z-26.4196 E0.00000
G1 X92.127 Y294.710 Z-26.4183 E0.00000
G1 X92.105 Y294.634 Z-26.4168 E0.00000
G1 X92.107 Y294.576 Z-26.4156 E0.00000
G1 X92.132 Y294.498 Z-26.4138 E0.00000
G1 X92.177 Y294.422 Z-26.4120 E0.00000
G1 X92.222 Y294.376 Z-26.4109 E0.00000
G1 X92.274 Y294.353 Z-26.4102 E0.00000
G1 X92.365 Y294.336 Z-26.4095 E0.00000
G1 X92.456 Y294.336 Z-26.4091 E0.00000
G1 X92.502 Y294.348 Z-26.4092 E0.00000
G1 X92.544 Y294.383 Z-26.4097 E0.00000
G1 X92.615 Y294.463 Z-26.4112 E0.00000
G1 X92.649 Y294.515 Z-26.4121 E0.00000
G1 X92.667 Y294.561 Z-26.4130 E0.00000
G1 X92.675 Y294.602 Z-26.4138 E0.00000
G1 X92.675 Y294.602 Z-25.2638 E0.00000
G1 X92.758 Y294.534 Z-25.2621 E0.00000
G1 X92.840 Y294.465 Z-25.2603 E0.00000
G1 X92.923 Y294.397 Z-25.2585 E0.00000
G1 X93.006 Y294.329 Z-25.2568 E0.00000
G1 X93.088 Y294.260 Z-25.2550 E0.00000
G1 X93.171 Y294.192 Z-25.2533 E0.00000
G1 X93.171 Y294.192 Z-26.4033 E0.00000 F90.0
G1 X93.067 Y294.028 Z-26.4002 E0.00000 F120.0
G1 X92.988 Y293.957 Z-26.3990 E0.00000
G1 X92.908 Y293.885 Z-26.3978 E0.00000
G1 X92.814 Y293.836 Z-26.3972 E0.00000
G1 X92.720 Y293.787 Z-26.3965 E0.00000
G1 X92.618 Y293.761 Z-26.3963 E0.00000
G1 X92.517 Y293.734 Z-26.3962 E0.00000
G1 X92.412 Y293.731 Z-26.3965 E0.00000
G1 X92.307 Y293.727 Z-26.3968 E0.00000
G1 X92.203 Y293.748 Z-26.3976 E0.00000
G1 X92.098 Y293.768 Z-26.3985 E0.00000
G1 X92.000 Y293.814 Z-26.3998 E0.00000
G1 X91.902 Y293.860 Z-26.4012 E0.00000
G1 X91.818 Y293.931 Z-26.4030 E0.00000
G1 X91.734 Y294.002 Z-26.4048 E0.00000
G1 X91.622 Y294.154 Z-26.4085 E0.00000
G1 X91.546 Y294.316 Z-26.4123 E0.00000
G1 X91.506 Y294.487 Z-26.4161 E0.00000
G1 X91.500 Y294.661 Z-26.4198 E0.00000
G1 X91.528 Y294.833 Z-26.4234 E0.00000
G1 X91.590 Y294.997 Z-26.4267 E0.00000
G1 X91.686 Y295.149 Z-26.4295 E0.00000
G1 X91.816 Y295.284 Z-26.4318 E0.00000
G1 X91.981 Y295.394 Z-26.4335 E0.00000
G1 X92.164 Y295.461 Z-26.4341 E0.00000
G1 X92.354 Y295.486 Z-26.4338 E0.00000
G1 X92.544 Y295.472 Z-26.4327 E0.00000
G1 X92.727 Y295.420 Z-26.4308 E0.00000
G1 X92.897 Y295.331 Z-26.4282 E0.00000
G1 X93.044 Y295.204 Z-26.4250 E0.00000
G1 X93.154 Y295.051 Z-26.4213 E0.00000
G1 X93.170 Y295.019 Z-26.4206 E0.00000
G1 X93.272 Y295.019 Z-26.4201 E0.00000
G1 X93.373 Y295.019 Z-26.4197 E0.00000
G1 X93.475 Y295.019 Z-26.4193 E0.00000
G1 X93.576 Y295.019 Z-26.4189 E0.00000
G1 X93.678 Y295.019 Z-26.4185 E0.00000
G1 X93.779 Y295.019 Z-26.4180 E0.00000
G1 X93.881 Y295.019 Z-26.4176 E0.00000
G1 X93.982 Y295.019 Z-26.4172 E0.00000
G1 X94.084 Y295.019 Z-26.4168 E0.00000
G1 X94.185 Y295.019 Z-26.4163 E0.00000
G1 X94.287 Y295.019 Z-26.4159 E0.00000
G1 X94.389 Y295.019 Z-26.4155 E0.00000
G1 X94.490 Y295.019 Z-26.4150 E0.00000
G1 X94.592 Y295.019 Z-26.4145 E0.00000
G1 X94.693 Y295.019 Z-26.4140 E0.00000
G1 X94.795 Y295.019 Z-26.4135 E0.00000
G1 X94.896 Y295.019 Z-26.4130 E0.00000
G1 X94.998 Y295.019 Z-26.4125 E0.00000
G1 X95.099 Y295.019 Z-26.4121 E0.00000
G1 X95.201 Y295.019 Z-26.4116 E0.00000
G1 X95.302 Y295.019 Z-26.4111 E0.00000
G1 X95.404 Y295.019 Z-26.4106 E0.00000
G1 X95.505 Y295.019 Z-26.4101 E0.00000
G1 X95.607 Y295.019 Z-26.4096 E0.00000
G1 X95.709 Y295.019 Z-26.4091 E0.00000
G1 X95.810 Y295.019 Z-26.4086 E0.00000
G1 X95.912 Y295.019 Z-26.4081 E0.00000
G1 X96.013 Y295.019 Z-26.4076 E0.00000
G1 X96.115 Y295.019 Z-26.4071 E0.00000
G1 X96.216 Y295.019 Z-26.4066 E0.00000
G1 X96.318 Y295.019 Z-26.4062 E0.00000
G1 X96.419 Y295.019 Z-26.4057 E0.00000
G1 X96.521 Y295.019 Z-26.4052 E0.00000
G1 X96.622 Y295.019 Z-26.4047 E0.00000
G1 X96.724 Y295.019 Z-26.4042 E0.00000
G1 X96.733 Y295.047 Z-26.4047 E0.00000
G1 X96.808 Y295.187 Z-26.4073 E0.00000
G1 X96.926 Y295.309 Z-26.4093 E0.00000
G1 X97.070 Y295.398 Z-26.4104 E0.00000
G1 X97.223 Y295.440 Z-26.4106 E0.00000
G1 X97.308 Y295.451 Z-26.4104 E0.00000
G1 X97.383 Y295.525 Z-26.4116 E0.00000
G1 X97.458 Y295.600 Z-26.4128 E0.00000
G1 X97.533 Y295.674 Z-26.4140 E0.00000
G1 X97.608 Y295.749 Z-26.4152 E0.00000
G1 X97.683 Y295.823 Z-26.4164 E0.00000
G1 X97.758 Y295.898 Z-26.4176 E0.00000
G1 X97.834 Y295.972 Z-26.4188 E0.00000
G1 X97.909 Y296.046 Z-26.4201 E0.00000
G1 X97.984 Y296.121 Z-26.4213 E0.00000
G1 X98.059 Y296.195 Z-26.4225 E0.00000
G1 X98.134 Y296.270 Z-26.4237 E0.00000
G1 X98.209 Y296.344 Z-26.4249 E0.00000
G1 X98.227 Y296.360 Z-26.4252 E0.00000
G1 X98.248 Y296.372 Z-26.4253 E0.00000
G1 X98.270 Y296.382 Z-26.4254 E0.00000
G1 X98.294 Y296.387 Z-26.4254 E0.00000
G1 X98.317 Y296.389 Z-26.4254 E0.00000
G1 X98.418 Y296.389 Z-26.4249 E0.00000
G1 X98.519 Y296.390 Z-26.4244 E0.00000
G1 X98.620 Y296.390 Z-26.4240 E0.00000
G1 X98.721 Y296.391 Z-26.4235 E0.00000
G1 X98.822 Y296.391 Z-26.4230 E0.00000
G1 X98.923 Y296.392 Z-26.4226 E0.00000
G1 X99.024 Y296.392 Z-26.4221 E0.00000
G1 X99.125 Y296.392 Z-26.4217 E0.00000
G1 X99.226 Y296.393 Z-26.4212 E0.00000
G1 X99.326 Y296.393 Z-26.4207 E0.00000
G1 X99.427 Y296.394 Z-26.4203 E0.00000
G1 X99.528 Y296.394 Z-26.4198 E0.00000
G1 X99.629 Y296.395 Z-26.4193 E0.00000
G1 X99.730 Y296.395 Z-26.4189 E0.00000
G1 X99.831 Y296.395 Z-26.4184 E0.00000
G1 X99.932 Y296.396 Z-26.4180 E0.00000
G1 X100.033 Y296.396 Z-26.4175 E0.00000
G1 X100.134 Y296.397 Z-26.4170 E0.00000
G1 X100.235 Y296.397 Z-26.4166 E0.00000
G1 X100.336 Y296.398 Z-26.4161 E0.00000
G1 X100.437 Y296.398 Z-26.4156 E0.00000
G1 X100.538 Y296.399 Z-26.4152 E0.00000
G1 X100.639 Y296.399 Z-26.4147 E0.00000
G1 X100.740 Y296.399 Z-26.4143 E0.00000
G1 X100.841 Y296.400 Z-26.4138 E0.00000
G1 X100.942 Y296.400 Z-26.4133 E0.00000
G1 X101.043 Y296.401 Z-26.4129 E0.00000
G1 X101.143 Y296.401 Z-26.4124 E0.00000
G1 X101.244 Y296.402 Z-26.4119 E0.00000
G1 X101.345 Y296.402 Z-26.4115 E0.00000
G1 X101.446 Y296.402 Z-26.4110 E0.00000
G1 X101.547 Y296.403 Z-26.4106 E0.00000
G1 X101.648 Y296.403 Z-26.4101 E0.00000
G1 X101.749 Y296.404 Z-26.4096 E0.00000
G1 X101.850 Y296.404 Z-26.4092 E0.00000
G1 X101.951 Y296.405 Z-26.4087 E0.00000
G1 X102.052 Y296.405 Z-26.4082 E0.00000
G1 X102.072 Y296.404 Z-26.4081 E0.00000
G1 X102.092 Y296.400 Z-26.4080 E0.00000
G1 X102.112 Y296.393 Z-26.4077 E0.00000
G1 X102.130 Y296.384 Z-26.4074 E0.00000
G1 X102.147 Y296.373 Z-26.4071 E0.00000
G1 X102.162 Y296.360 Z-26.4068 E0.00000
G1 X102.233 Y296.289 Z-26.4049 E0.00000
G1 X102.304 Y296.218 Z-26.4030 E0.00000
G1 X102.376 Y296.147 Z-26.4012 E0.00000
G1 X102.447 Y296.076 Z-26.3993 E0.00000
G1 X102.518 Y296.004 Z-26.3974 E0.00000
G1 X102.589 Y295.933 Z-26.3955 E0.00000
G1 X102.660 Y295.862 Z-26.3937 E0.00000
G1 X102.732 Y295.791 Z-26.3918 E0.00000
G1 X102.803 Y295.720 Z-26.3899 E0.00000
G1 X102.874 Y295.649 Z-26.3880 E0.00000
G1 X102.945 Y295.578 Z-26.3862 E0.00000
G1 X103.016 Y295.507 Z-26.3843 E0.00000
G1 X103.087 Y295.435 Z-26.3824 E0.00000
G1 X103.159 Y295.364 Z-26.3805 E0.00000
G1 X103.230 Y295.293 Z-26.3786 E0.00000
G1 X103.301 Y295.222 Z-26.3768 E0.00000
G1 X103.372 Y295.151 Z-26.3749 E0.00000
G1 X103.443 Y295.080 Z-26.3730 E0.00000
G1 X103.515 Y295.009 Z-26.3711 E0.00000
G1 X103.586 Y294.938 Z-26.3692 E0.00000
G1 X103.657 Y294.866 Z-26.3673 E0.00000
G1 X103.728 Y294.795 Z-26.3654 E0.00000
G1 X103.799 Y294.724 Z-26.3635 E0.00000
G1 X103.871 Y294.653 Z-26.3616 E0.00000
G1 X103.942 Y294.582 Z-26.3597 E0.00000
G1 X104.013 Y294.511 Z-26.3578 E0.00000
G1 X104.084 Y294.440 Z-26.3559 E0.00000
G1 X104.155 Y294.369 Z-26.3540 E0.00000
G1 X104.227 Y294.297 Z-26.3521 E0.00000
G1 X104.298 Y294.226 Z-26.3502 E0.00000
G1 X104.369 Y294.155 Z-26.3483 E0.00000
G1 X104.440 Y294.084 Z-26.3464 E0.00000
G1 X104.511 Y294.013 Z-26.3445 E0.00000
G1 X104.583 Y293.942 Z-26.3426 E0.00000
G1 X104.654 Y293.871 Z-26.3407 E0.00000
G1 X104.725 Y293.800 Z-26.3388 E0.00000
G1 X104.796 Y293.729 Z-26.3369 E0.00000
G1 X104.867 Y293.657 Z-26.3350 E0.00000
G1 X104.938 Y293.586 Z-26.3331 E0.00000
G1 X105.010 Y293.515 Z-26.3311 E0.00000
G1 X105.081 Y293.444 Z-26.3292 E0.00000
G1 X105.152 Y293.373 Z-26.3273 E0.00000
G1 X105.223 Y293.302 Z-26.3254 E0.00000
G1 X105.294 Y293.231 Z-26.3235 E0.00000
G1 X105.366 Y293.160 Z-26.3216 E0.00000
G1 X105.437 Y293.088 Z-26.3196 E0.00000
G1 X105.508 Y293.017 Z-26.3177 E0.00000
G1 X105.579 Y292.946 Z-26.3158 E0.00000
G1 X105.650 Y292.875 Z-26.3139 E0.00000
G1 X105.722 Y292.804 Z-26.3119 E0.00000
G1 X105.793 Y292.733 Z-26.3100 E0.00000
G1 X105.864 Y292.662 Z-26.3081 E0.00000
G1 X105.935 Y292.591 Z-26.3061 E0.00000
G1 X106.006 Y292.519 Z-26.3042 E0.00000
G1 X106.078 Y292.448 Z-26.3023 E0.00000
G1 X106.149 Y292.377 Z-26.3003 E0.00000
G1 X106.220 Y292.306 Z-26.2984 E0.00000
G1 X106.291 Y292.235 Z-26.2965 E0.00000
G1 X106.362 Y292.164 Z-26.2945 E0.00000
G1 X106.434 Y292.093 Z-26.2926 E0.00000
G1 X106.505 Y292.022 Z-26.2906 E0.00000
G1 X106.576 Y291.950 Z-26.2887 E0.00000
G1 X106.647 Y291.879 Z-26.2868 E0.00000
G1 X106.718 Y291.808 Z-26.2848 E0.00000
G1 X106.789 Y291.737 Z-26.2829 E0.00000
G1 X106.861 Y291.666 Z-26.2809 E0.00000
G1 X106.932 Y291.595 Z-26.2790 E0.00000
G1 X107.003 Y291.524 Z-26.2770 E0.00000
G1 X107.074 Y291.453 Z-26.2751 E0.00000
G1 X107.145 Y291.382 Z-26.2731 E0.00000
G1 X107.217 Y291.310 Z-26.2712 E0.00000
G1 X107.288 Y291.239 Z-26.2692 E0.00000
G1 X107.359 Y291.168 Z-26.2673 E0.00000
G1 X107.430 Y291.097 Z-26.2653 E0.00000
G1 X107.501 Y291.026 Z-26.2633 E0.00000
G1 X107.573 Y290.955 Z-26.2614 E0.00000
G1 X107.644 Y290.884 Z-26.2594 E0.00000
G1 X107.715 Y290.813 Z-26.2575 E0.00000
G1 X107.786 Y290.741 Z-26.2555 E0.00000
G1 X107.857 Y290.670 Z-26.2535 E0.00000
G1 X107.929 Y290.599 Z-26.2516 E0.00000
G1 X108.000 Y290.528 Z-26.2496 E0.00000
G1 X108.071 Y290.457 Z-26.2476 E0.00000
G1 X108.142 Y290.386 Z-26.2457 E0.00000
G1 X108.213 Y290.315 Z-26.2437 E0.00000
G1 X108.285 Y290.244 Z-26.2417 E0.00000
G1 X108.356 Y290.172 Z-26.2397 E0.00000
G1 X108.427 Y290.101 Z-26.2378 E0.00000
G1 X108.498 Y290.030 Z-26.2358 E0.00000
G1 X108.569 Y289.959 Z-26.2338 E0.00000
G1 X108.640 Y289.888 Z-26.2318 E0.00000
G1 X108.712 Y289.817 Z-26.2299 E0.00000
G1 X108.783 Y289.746 Z-26.2279 E0.00000
G1 X108.854 Y289.675 Z-26.2259 E0.00000
G1 X108.925 Y289.603 Z-26.2239 E0.00000
G1 X108.996 Y289.532 Z-26.2219 E0.00000
G1 X109.068 Y289.461 Z-26.2199 E0.00000
G1 X109.139 Y289.390 Z-26.2179 E0.00000
G1 X109.210 Y289.319 Z-26.2160 E0.00000
G1 X109.295 Y289.167 Z-26.2121 E0.00000
G1 X109.295 Y289.065 Z-26.2098 E0.00000
G1 X109.295 Y288.964 Z-26.2075 E0.00000
G1 X109.295 Y288.862 Z-26.2052 E0.00000
G1 X109.295 Y288.761 Z-26.2030 E0.00000
G1 X109.295 Y288.659 Z-26.2007 E0.00000
G1 X109.295 Y288.558 Z-26.1984 E0.00000
G1 X109.295 Y288.456 Z-26.1961 E0.00000
G1 X109.295 Y288.355 Z-26.1939 E0.00000
G1 X109.295 Y288.253 Z-26.1916 E0.00000
G1 X109.295 Y288.152 Z-26.1893 E0.00000
G1 X109.295 Y288.050 Z-26.1870 E0.00000
G1 X109.295 Y287.949 Z-26.1848 E0.00000
G1 X109.295 Y287.847 Z-26.1825 E0.00000
G1 X109.295 Y287.746 Z-26.1802 E0.00000
G1 X109.295 Y287.644 Z-26.1779 E0.00000
G1 X109.295 Y287.543 Z-26.1756 E0.00000
G1 X109.295 Y287.441 Z-26.1734 E0.00000
G1 X109.295 Y287.340 Z-26.1711 E0.00000
G1 X109.295 Y287.238 Z-26.1688 E0.00000
G1 X109.295 Y287.137 Z-26.1665 E0.00000
G1 X109.295 Y287.035 Z-26.1643 E0.00000
G1 X109.295 Y286.934 Z-26.1620 E0.00000
G1 X109.295 Y286.832 Z-26.1597 E0.00000
G1 X109.295 Y286.731 Z-26.1574 E0.00000
G1 X109.295 Y286.629 Z-26.1552 E0.00000
G1 X109.295 Y286.527 Z-26.1529 E0.00000
G1 X109.295 Y286.426 Z-26.1506 E0.00000
G1 X109.295 Y286.324 Z-26.1483 E0.00000
G1 X109.295 Y286.223 Z-26.1460 E0.00000
G1 X109.295 Y286.121 Z-26.1438 E0.00000
G1 X109.295 Y286.020 Z-26.1415 E0.00000
G1 X109.295 Y285.918 Z-26.1392 E0.00000
G1 X109.295 Y285.817 Z-26.1369 E0.00000
G1 X109.295 Y285.715 Z-26.1347 E0.00000
G1 X109.295 Y285.614 Z-26.1324 E0.00000
G1 X109.295 Y285.512 Z-26.1301 E0.00000
G1 X109.295 Y285.411 Z-26.1278 E0.00000
G1 X109.295 Y285.309 Z-26.1256 E0.00000
G1 X109.295 Y285.208 Z-26.1233 E0.00000
G1 X109.295 Y285.106 Z-26.1210 E0.00000
G1 X109.295 Y285.005 Z-26.1187 E0.00000
G1 X109.295 Y284.903 Z-26.1164 E0.00000
G1 X109.295 Y284.802 Z-26.1142 E0.00000
G1 X109.295 Y284.700 Z-26.1119 E0.00000
G1 X109.295 Y284.599 Z-26.1096 E0.00000
G1 X109.295 Y284.497 Z-26.1073 E0.00000
G1 X109.295 Y284.396 Z-26.1051 E0.00000
G1 X109.295 Y284.294 Z-26.1028 E0.00000
G1 X109.295 Y284.193 Z-26.1005 E0.00000
G1 X109.295 Y284.091 Z-26.0982 E0.00000
G1 X109.294 Y283.969 Z-26.0955 E0.00000
G1 X109.292 Y283.945 Z-26.0950 E0.00000
G1 X109.286 Y283.921 Z-26.0945 E0.00000
G1 X109.277 Y283.899 Z-26.0940 E0.00000
G1 X109.264 Y283.878 Z-26.0936 E0.00000
G1 X109.249 Y283.860 Z-26.0933 E0.00000
G1 X109.177 Y283.788 Z-26.0922 E0.00000
G1 X109.105 Y283.717 Z-26.0910 E0.00000
G1 X109.033 Y283.645 Z-26.0899 E0.00000
G1 X108.961 Y283.573 Z-26.0887 E0.00000
G1 X108.889 Y283.502 Z-26.0875 E0.00000
G1 X108.817 Y283.430 Z-26.0864 E0.00000
G1 X108.745 Y283.358 Z-26.0852 E0.00000
G1 X108.673 Y283.286 Z-26.0841 E0.00000
G1 X108.601 Y283.215 Z-26.0829 E0.00000
G1 X108.529 Y283.143 Z-26.0818 E0.00000
G1 X108.457 Y283.071 Z-26.0807 E0.00000
G1 X108.385 Y283.000 Z-26.0795 E0.00000
G1 X108.313 Y282.928 Z-26.0784 E0.00000
G1 X108.241 Y282.856 Z-26.0772 E0.00000
G1 X108.168 Y282.785 Z-26.0761 E0.00000
G1 X108.096 Y282.713 Z-26.0749 E0.00000
G1 X108.024 Y282.641 Z-26.0738 E0.00000
G1 X107.952 Y282.570 Z-26.0727 E0.00000
G1 X107.880 Y282.498 Z-26.0715 E0.00000
G1 X107.808 Y282.426 Z-26.0704 E0.00000
G1 X107.736 Y282.355 Z-26.0693 E0.00000
G1 X107.664 Y282.283 Z-26.0681 E0.00000
G1 X107.592 Y282.211 Z-26.0670 E0.00000
G1 X107.520 Y282.139 Z-26.0659 E0.00000
G1 X107.448 Y282.068 Z-26.0647 E0.00000
G1 X107.376 Y281.996 Z-26.0636 E0.00000
G1 X107.304 Y281.924 Z-26.0624 E0.00000
G1 X107.232 Y281.853 Z-26.0611 E0.00000
G1 X107.160 Y281.781 Z-26.0598 E0.00000
G1 X107.159 Y281.681 Z-26.0573 E0.00000
G1 X107.158 Y281.581 Z-26.0548 E0.00000
G1 X107.158 Y281.481 Z-26.0524 E0.00000
G1 X107.157 Y281.380 Z-26.0499 E0.00000
G1 X107.156 Y281.280 Z-26.0474 E0.00000
G1 X107.155 Y281.180 Z-26.0450 E0.00000
G1 X107.154 Y281.080 Z-26.0425 E0.00000
G1 X107.154 Y280.980 Z-26.0400 E0.00000
G1 X107.153 Y280.880 Z-26.0376 E0.00000
G1 X107.152 Y280.779 Z-26.0351 E0.00000
G1 X107.151 Y280.679 Z-26.0326 E0.00000
G1 X107.150 Y280.579 Z-26.0302 E0.00000
G1 X107.150 Y280.479 Z-26.0277 E0.00000
G1 X107.149 Y280.379 Z-26.0252 E0.00000
G1 X107.148 Y280.279 Z-26.0228 E0.00000
G1 X107.147 Y280.179 Z-26.0203 E0.00000
G1 X107.146 Y280.078 Z-26.0179 E0.00000
G1 X107.146 Y279.978 Z-26.0154 E0.00000
G1 X107.145 Y279.878 Z-26.0129 E0.00000
G1 X107.144 Y279.778 Z-26.0105 E0.00000
G1 X107.142 Y279.754 Z-26.0099 E0.00000
G1 X107.136 Y279.731 Z-26.0093 E0.00000
G1 X107.127 Y279.708 Z-26.0088 E0.00000
G1 X107.114 Y279.688 Z-26.0084 E0.00000
G1 X107.099 Y279.670 Z-26.0081 E0.00000
G1 X107.027 Y279.598 Z-26.0068 E0.00000
G1 X106.956 Y279.527 Z-26.0055 E0.00000
G1 X106.884 Y279.455 Z-26.0041 E0.00000
G1 X106.813 Y279.383 Z-26.0028 E0.00000
G1 X106.741 Y279.312 Z-26.0015 E0.00000
G1 X106.669 Y279.240 Z-26.0002 E0.00000
G1 X106.598 Y279.169 Z-25.9989 E0.00000
G1 X106.526 Y279.097 Z-25.9976 E0.00000
G1 X106.455 Y279.025 Z-25.9963 E0.00000
G1 X106.383 Y278.954 Z-25.9949 E0.00000
G1 X106.311 Y278.882 Z-25.9936 E0.00000
G1 X106.240 Y278.810 Z-25.9923 E0.00000
G1 X106.168 Y278.739 Z-25.9910 E0.00000
G1 X106.097 Y278.667 Z-25.9897 E0.00000
G1 X106.025 Y278.596 Z-25.9884 E0.00000
G1 X105.953 Y278.524 Z-25.9870 E0.00000
G1 X105.882 Y278.452 Z-25.9857 E0.00000
G1 X105.810 Y278.381 Z-25.9844 E0.00000
G1 X105.739 Y278.309 Z-25.9831 E0.00000
G1 X105.667 Y278.237 Z-25.9818 E0.00000
G1 X105.595 Y278.166 Z-25.9804 E0.00000
G1 X105.524 Y278.094 Z-25.9791 E0.00000
G1 X105.452 Y278.022 Z-25.9778 E0.00000
G1 X105.381 Y277.951 Z-25.9765 E0.00000
G1 X105.309 Y277.879 Z-25.9752 E0.00000
G1 X105.237 Y277.808 Z-25.9738 E0.00000
G1 X105.166 Y277.736 Z-25.9725 E0.00000
G1 X105.094 Y277.664 Z-25.9712 E0.00000
G1 X105.023 Y277.593 Z-25.9699 E0.00000
G1 X104.951 Y277.521 Z-25.9685 E0.00000
G1 X104.879 Y277.449 Z-25.9672 E0.00000
G1 X104.808 Y277.378 Z-25.9659 E0.00000
G1 X104.736 Y277.306 Z-25.9646 E0.00000
G1 X104.665 Y277.234 Z-25.9632 E0.00000
G1 X104.593 Y277.163 Z-25.9619 E0.00000
G1 X104.521 Y277.091 Z-25.9606 E0.00000
G1 X104.450 Y277.020 Z-25.9593 E0.00000
G1 X104.378 Y276.948 Z-25.9579 E0.00000
G1 X104.307 Y276.876 Z-25.9566 E0.00000
G1 X104.235 Y276.805 Z-25.9553 E0.00000
G1 X104.163 Y276.733 Z-25.9540 E0.00000
G1 X104.092 Y276.661 Z-25.9526 E0.00000
G1 X104.020 Y276.590 Z-25.9513 E0.00000
G1 X103.949 Y276.518 Z-25.9500 E0.00000
G1 X103.877 Y276.447 Z-25.9486 E0.00000
G1 X103.805 Y276.375 Z-25.9473 E0.00000
G1 X103.734 Y276.303 Z-25.9460 E0.00000
G1 X103.662 Y276.232 Z-25.9447 E0.00000
G1 X103.591 Y276.160 Z-25.9433 E0.00000
G1 X103.519 Y276.088 Z-25.9420 E0.00000
G1 X103.447 Y276.017 Z-25.9407 E0.00000
G1 X103.376 Y275.945 Z-25.9393 E0.00000
G1 X103.304 Y275.873 Z-25.9380 E0.00000
G1 X103.233 Y275.802 Z-25.9367 E0.00000
G1 X103.161 Y275.730 Z-25.9353 E0.00000
G1 X103.089 Y275.659 Z-25.9340 E0.00000
G1 X103.018 Y275.587 Z-25.9327 E0.00000
G1 X102.946 Y275.515 Z-25.9313 E0.00000
G1 X102.875 Y275.444 Z-25.9300 E0.00000
G1 X102.803 Y275.372 Z-25.9286 E0.00000
G1 X102.800 Y275.269 Z-25.9261 E0.00000
G1 X102.797 Y275.167 Z-25.9236 E0.00000
G1 X102.794 Y275.064 Z-25.9211 E0.00000
G1 X102.792 Y274.961 Z-25.9185 E0.00000
G1 X102.789 Y274.859 Z-25.9160 E0.00000
G1 X102.786 Y274.756 Z-25.9135 E0.00000
G1 X102.784 Y274.733 Z-25.9129 E0.00000
G1 X102.778 Y274.710 Z-25.9124 E0.00000
G1 X102.769 Y274.689 Z-25.9119 E0.00000
G1 X102.756 Y274.669 Z-25.9115 E0.00000
G1 X102.741 Y274.651 Z-25.9111 E0.00000
G1 X102.668 Y274.578 Z-25.9098 E0.00000
G1 X102.596 Y274.506 Z-25.9084 E0.00000
G1 X102.523 Y274.433 Z-25.9070 E0.00000
G1 X102.451 Y274.360 Z-25.9057 E0.00000
G1 X102.378 Y274.288 Z-25.9043 E0.00000
G1 X102.306 Y274.215 Z-25.9030 E0.00000
G1 X102.233 Y274.143 Z-25.9016 E0.00000
G1 X102.161 Y274.070 Z-25.9003 E0.00000
G1 X102.088 Y273.997 Z-25.8989 E0.00000
G1 X102.016 Y273.925 Z-25.8975 E0.00000
G1 X101.943 Y273.852 Z-25.8962 E0.00000
G1 X101.944 Y273.723 Z-25.8930 E0.00000
G1 X101.904 Y273.573 Z-25.8895 E0.00000
G1 X101.838 Y273.429 Z-25.8863 E0.00000
G1 X101.753 Y273.316 Z-25.8840 E0.00000
G1 X101.704 Y273.269 Z-25.8831 E0.00000
G1 X101.704 Y273.168 Z-25.8806 E0.00000
G1 X101.703 Y273.068 Z-25.8781 E0.00000
G1 X101.703 Y272.968 Z-25.8756 E0.00000
G1 X101.702 Y272.867 Z-25.8731 E0.00000
G1 X101.702 Y272.767 Z-25.8706 E0.00000
G1 X101.702 Y272.666 Z-25.8681 E0.00000
G1 X101.701 Y272.565 Z-25.8656 E0.00000
G1 X101.701 Y272.465 Z-25.8631 E0.00000
G1 X101.700 Y272.365 Z-25.8606 E0.00000
G1 X101.700 Y272.264 Z-25.8581 E0.00000
G1 X101.637 Y272.104 Z-25.8545 E0.00000
G1 X101.566 Y272.033 Z-25.8532 E0.00000
G1 X101.495 Y271.962 Z-25.8519 E0.00000
G1 X101.425 Y271.892 Z-25.8505 E0.00000
G1 X101.354 Y271.821 Z-25.8492 E0.00000
G1 X101.283 Y271.750 Z-25.8479 E0.00000
G1 X101.212 Y271.679 Z-25.8466 E0.00000
G1 X101.142 Y271.609 Z-25.8452 E0.00000
G1 X101.071 Y271.538 Z-25.8439 E0.00000
G1 X101.000 Y271.467 Z-25.8425 E0.00000
G1 X100.929 Y271.397 Z-25.8412 E0.00000
G1 X100.858 Y271.326 Z-25.8399 E0.00000
G1 X100.788 Y271.255 Z-25.8385 E0.00000
G1 X100.717 Y271.184 Z-25.8372 E0.00000
G1 X100.646 Y271.113 Z-25.8359 E0.00000
G1 X100.575 Y271.043 Z-25.8345 E0.00000
G1 X100.504 Y270.972 Z-25.8332 E0.00000
G1 X100.434 Y270.901 Z-25.8319 E0.00000
G1 X100.363 Y270.830 Z-25.8305 E0.00000
G1 X100.292 Y270.760 Z-25.8292 E0.00000
G1 X100.221 Y270.689 Z-25.8278 E0.00000
G1 X100.150 Y270.618 Z-25.8265 E0.00000
