; generated by Slic3r 1.3.0 on 2026-04-04 at 18:43:24

; external perimeters extrusion width = 1.10mm (26.56mm^3/s)
; perimeters extrusion width = 1.05mm (50.12mm^3/s)
; infill extrusion width = 1.05mm (66.83mm^3/s)
; solid infill extrusion width = 1.05mm (16.71mm^3/s)
; top infill extrusion width = 1.05mm (12.53mm^3/s)

M107
M104 S5 ; set temperature


; Filament gcode

M109 S5 ; set temperature and wait for it to be reached
G21 ; set units to millimeters
G90 ; use absolute coordinates
M82 ; use absolute distances for extrusion
G92 E0
G1 X0.0 Y0.0 Z-20.536 E0.0 F7800.0 
G1 E-2.0 F2400.0 
G92 E0
G1 X0.043 Y0.09 Z-20.543300000000002 E0.0 
G1 X0.085 Y0.181 Z-20.5506 E0.0 
G1 X0.128 Y0.271 Z-20.558 E0.0 
G1 X0.171 Y0.362 Z-20.5653 E0.0 
G1 X0.214 Y0.452 Z-20.5726 E0.0 
G1 X0.256 Y0.542 Z-20.579900000000002 E0.0 
G1 X0.299 Y0.633 Z-20.5873 E0.0 
G1 X0.342 Y0.723 Z-20.5946 E0.0 
G1 X0.385 Y0.814 Z-20.6019 E0.0 
G1 X0.427 Y0.904 Z-20.6092 E0.0 
G1 X0.47 Y0.995 Z-20.616500000000002 E0.0 
G1 X0.513 Y1.085 Z-20.6238 E0.0 
G1 X0.556 Y1.175 Z-20.6311 E0.0 
G1 X0.598 Y1.266 Z-20.6384 E0.0 
G1 X0.641 Y1.356 Z-20.645699999999998 E0.0 
G1 X0.684 Y1.447 Z-20.653 E0.0 
G1 X0.726 Y1.537 Z-20.6602 E0.0 
G1 X0.769 Y1.627 Z-20.6675 E0.0 
G1 X0.812 Y1.718 Z-20.6748 E0.0 
G1 X0.855 Y1.808 Z-20.6821 E0.0 
G1 X0.897 Y1.899 Z-20.6894 E0.0 
G1 X0.94 Y1.989 Z-20.6966 E0.0 
G1 X0.983 Y2.079 Z-20.7039 E0.0 
G1 X1.026 Y2.17 Z-20.711100000000002 E0.0 
G1 X1.068 Y2.26 Z-20.7184 E0.0 
G1 X1.111 Y2.351 Z-20.7257 E0.0 
G1 X1.154 Y2.441 Z-20.7329 E0.0 
G1 X1.197 Y2.532 Z-20.7402 E0.0 
G1 X1.239 Y2.622 Z-20.7474 E0.0 
G1 X1.282 Y2.712 Z-20.7547 E0.0 
G1 X1.325 Y2.803 Z-20.7619 E0.0 
G1 X1.367 Y2.893 Z-20.7691 E0.0 
G1 X1.41 Y2.984 Z-20.7764 E0.0 
G1 X1.453 Y3.074 Z-20.7836 E0.0 
G1 X1.496 Y3.164 Z-20.7908 E0.0 
G1 X1.538 Y3.255 Z-20.798000000000002 E0.0 
G1 X1.581 Y3.345 Z-20.8053 E0.0 
G1 X1.624 Y3.436 Z-20.8125 E0.0 
G1 X1.667 Y3.526 Z-20.8197 E0.0 
G1 X1.709 Y3.616 Z-20.826900000000002 E0.0 
G1 X1.752 Y3.707 Z-20.8341 E0.0 
G1 X1.795 Y3.797 Z-20.8413 E0.0 
G1 X1.837 Y3.888 Z-20.8485 E0.0 
G1 X1.88 Y3.978 Z-20.8557 E0.0 
G1 X1.923 Y4.069 Z-20.8629 E0.0 
G1 X1.966 Y4.159 Z-20.8701 E0.0 
G1 X2.008 Y4.249 Z-20.877299999999998 E0.0 
G1 X2.051 Y4.34 Z-20.8845 E0.0 
G1 X2.094 Y4.43 Z-20.8916 E0.0 
G1 X2.137 Y4.521 Z-20.8988 E0.0 
G1 X2.179 Y4.611 Z-20.906 E0.0 
G1 X2.222 Y4.701 Z-20.9132 E0.0 
G1 X2.265 Y4.792 Z-20.9203 E0.0 
G1 X2.308 Y4.882 Z-20.927500000000002 E0.0 
G1 X2.35 Y4.973 Z-20.9347 E0.0 
G1 X2.393 Y5.063 Z-20.9418 E0.0 
G1 X2.436 Y5.154 Z-20.948999999999998 E0.0 
G1 X2.478 Y5.244 Z-20.9561 E0.0 
G1 X2.521 Y5.334 Z-20.9633 E0.0 
G1 X2.564 Y5.425 Z-20.970399999999998 E0.0 
G1 X2.607 Y5.515 Z-20.9776 E0.0 
G1 X2.649 Y5.606 Z-20.9847 E0.0 
G1 X2.692 Y5.696 Z-20.9919 E0.0 
G1 X2.735 Y5.786 Z-20.999000000000002 E0.0 
G1 X2.778 Y5.877 Z-21.0061 E0.0 
G1 X2.82 Y5.967 Z-21.0132 E0.0 
G1 X2.863 Y6.058 Z-21.020400000000002 E0.0 
G1 X2.906 Y6.148 Z-21.0275 E0.0 
G1 X2.949 Y6.238 Z-21.0346 E0.0 
G1 X2.991 Y6.329 Z-21.0417 E0.0 
G1 X3.034 Y6.419 Z-21.0488 E0.0 
G1 X3.077 Y6.51 Z-21.0559 E0.0 
G1 X3.119 Y6.6 Z-21.063 E0.0 
G1 X3.162 Y6.691 Z-21.0701 E0.0 
G1 X3.205 Y6.781 Z-21.0772 E0.0 
G1 X3.248 Y6.871 Z-21.0843 E0.0 
G1 X3.29 Y6.962 Z-21.0914 E0.0 
G1 X3.333 Y7.052 Z-21.0985 E0.0 
G1 X3.376 Y7.143 Z-21.1056 E0.0 
G1 X3.419 Y7.233 Z-21.1127 E0.0 
G1 X3.461 Y7.323 Z-21.119799999999998 E0.0 
G1 X3.504 Y7.414 Z-21.1268 E0.0 
G1 X3.547 Y7.504 Z-21.1339 E0.0 
G1 X3.59 Y7.595 Z-21.141 E0.0 
G1 X3.632 Y7.685 Z-21.148 E0.0 
G1 X3.675 Y7.775 Z-21.1551 E0.0 
G1 X3.718 Y7.866 Z-21.1622 E0.0 
G1 X3.76 Y7.956 Z-21.1692 E0.0 
G1 X3.803 Y8.047 Z-21.1763 E0.0 
G1 X3.846 Y8.137 Z-21.1833 E0.0 
G1 X3.889 Y8.228 Z-21.1904 E0.0 
G1 X3.931 Y8.318 Z-21.197400000000002 E0.0 
G1 X3.974 Y8.408 Z-21.2045 E0.0 
G1 X4.017 Y8.499 Z-21.2115 E0.0 
G1 X4.06 Y8.589 Z-21.2185 E0.0 
G1 X4.102 Y8.68 Z-21.2256 E0.0 
G1 X4.145 Y8.77 Z-21.232599999999998 E0.0 
G1 X4.188 Y8.86 Z-21.2396 E0.0 
G1 X4.231 Y8.951 Z-21.2466 E0.0 
G1 X4.273 Y9.041 Z-21.253700000000002 E0.0 
G1 X4.316 Y9.132 Z-21.2607 E0.0 
G1 X4.359 Y9.222 Z-21.2677 E0.0 
G1 X4.401 Y9.312 Z-21.2747 E0.0 
G1 X4.444 Y9.403 Z-21.2817 E0.0 
G1 X4.487 Y9.493 Z-21.2887 E0.0 
G1 X4.53 Y9.584 Z-21.2957 E0.0 
G1 X4.572 Y9.674 Z-21.3027 E0.0 
G1 X4.615 Y9.765 Z-21.3097 E0.0 
G1 X4.658 Y9.855 Z-21.3167 E0.0 
G1 X4.701 Y9.945 Z-21.323700000000002 E0.0 
G1 X4.743 Y10.036 Z-21.3306 E0.0 
G1 X4.786 Y10.126 Z-21.337600000000002 E0.0 
G1 X4.829 Y10.217 Z-21.3446 E0.0 
G1 X4.871 Y10.307 Z-21.3516 E0.0 
G1 X4.914 Y10.397 Z-21.3585 E0.0 
G1 X4.957 Y10.488 Z-21.3655 E0.0 
G1 X5.0 Y10.578 Z-21.372500000000002 E0.0 
G1 X5.042 Y10.669 Z-21.3794 E0.0 
G1 X5.085 Y10.759 Z-21.386400000000002 E0.0 
G1 X5.128 Y10.849 Z-21.3933 E0.0 
G1 X5.171 Y10.94 Z-21.4003 E0.0 
G1 X5.213 Y11.03 Z-21.4072 E0.0 
G1 X5.256 Y11.121 Z-21.4142 E0.0 
G1 X5.299 Y11.211 Z-21.4211 E0.0 
G1 X5.342 Y11.302 Z-21.4281 E0.0 
G1 X5.384 Y11.392 Z-21.435000000000002 E0.0 
G1 X5.427 Y11.482 Z-21.4419 E0.0 
G1 X5.47 Y11.573 Z-21.448900000000002 E0.0 
G1 X5.512 Y11.663 Z-21.4558 E0.0 
G1 X5.555 Y11.754 Z-21.462699999999998 E0.0 
G1 X5.598 Y11.844 Z-21.4696 E0.0 
G1 X5.641 Y11.934 Z-21.4765 E0.0 
G1 X5.683 Y12.025 Z-21.4834 E0.0 
G1 X5.726 Y12.115 Z-21.4904 E0.0 
G1 X5.769 Y12.206 Z-21.4973 E0.0 
G1 X5.812 Y12.296 Z-21.5042 E0.0 
G1 X5.854 Y12.386 Z-21.5111 E0.0 
G1 X5.897 Y12.477 Z-21.518 E0.0 
G1 X5.94 Y12.567 Z-21.5248 E0.0 
G1 X5.983 Y12.658 Z-21.5317 E0.0 
G1 X6.025 Y12.748 Z-21.5386 E0.0 
G1 X6.068 Y12.839 Z-21.5455 E0.0 
G1 X6.111 Y12.929 Z-21.5524 E0.0 
G1 X6.153 Y13.019 Z-21.5593 E0.0 
G1 X6.196 Y13.11 Z-21.5661 E0.0 
G1 X6.239 Y13.2 Z-21.573 E0.0 
G1 X6.282 Y13.291 Z-21.579900000000002 E0.0 
G1 X6.324 Y13.381 Z-21.5867 E0.0 
G1 X6.367 Y13.471 Z-21.593600000000002 E0.0 
G1 X6.41 Y13.562 Z-21.6005 E0.0 
G1 X6.453 Y13.652 Z-21.607300000000002 E0.0 
G1 X6.495 Y13.743 Z-21.6142 E0.0 
G1 X6.538 Y13.833 Z-21.621000000000002 E0.0 
G1 X6.581 Y13.923 Z-21.6279 E0.0 
G1 X6.624 Y14.014 Z-21.634700000000002 E0.0 
G1 X6.666 Y14.104 Z-21.6415 E0.0 
G1 X6.709 Y14.195 Z-21.648400000000002 E0.0 
G1 X6.752 Y14.285 Z-21.6552 E0.0 
G1 X6.794 Y14.376 Z-21.662 E0.0 
G1 X6.837 Y14.466 Z-21.6689 E0.0 
G1 X6.88 Y14.556 Z-21.6757 E0.0 
G1 X6.923 Y14.647 Z-21.6825 E0.0 
G1 X6.965 Y14.737 Z-21.6893 E0.0 
G1 X7.008 Y14.828 Z-21.6961 E0.0 
G1 X7.051 Y14.918 Z-21.7029 E0.0 
G1 X7.094 Y15.008 Z-21.709699999999998 E0.0 
G1 X7.136 Y15.099 Z-21.7165 E0.0 
G1 X7.179 Y15.189 Z-21.723300000000002 E0.0 
G1 X7.222 Y15.28 Z-21.7301 E0.0 
G1 X7.265 Y15.37 Z-21.7369 E0.0 
G1 X7.307 Y15.461 Z-21.7437 E0.0 
G1 X7.35 Y15.551 Z-21.7505 E0.0 
G1 X7.393 Y15.641 Z-21.7573 E0.0 
G1 X7.435 Y15.732 Z-21.7641 E0.0 
G1 X7.478 Y15.822 Z-21.7709 E0.0 
G1 X7.521 Y15.913 Z-21.7776 E0.0 
G1 X7.564 Y16.003 Z-21.784399999999998 E0.0 
G1 X7.606 Y16.093 Z-21.7912 E0.0 
G1 X7.649 Y16.184 Z-21.7979 E0.0 
G1 X7.692 Y16.274 Z-21.8047 E0.0 
G1 X7.735 Y16.365 Z-21.8114 E0.0 
G1 X7.777 Y16.455 Z-21.8182 E0.0 
G1 X7.82 Y16.545 Z-21.825 E0.0 
G1 X7.863 Y16.636 Z-21.8317 E0.0 
G1 X7.905 Y16.726 Z-21.8384 E0.0 
G1 X7.948 Y16.817 Z-21.8452 E0.0 
G1 X7.991 Y16.907 Z-21.8519 E0.0 
G1 X8.034 Y16.998 Z-21.8587 E0.0 
G1 X8.076 Y17.088 Z-21.8654 E0.0 
G1 X8.119 Y17.178 Z-21.8721 E0.0 
G1 X8.162 Y17.269 Z-21.8789 E0.0 
G1 X8.205 Y17.359 Z-21.8856 E0.0 
G1 X8.247 Y17.45 Z-21.8923 E0.0 
G1 X8.29 Y17.54 Z-21.899 E0.0 
G1 X8.333 Y17.63 Z-21.9057 E0.0 
G1 X8.376 Y17.721 Z-21.912399999999998 E0.0 
G1 X8.418 Y17.811 Z-21.9191 E0.0 
G1 X8.461 Y17.902 Z-21.9258 E0.0 
G1 X8.504 Y17.992 Z-21.9325 E0.0 
G1 X8.546 Y18.082 Z-21.9392 E0.0 
G1 X8.589 Y18.173 Z-21.9459 E0.0 
G1 X8.632 Y18.263 Z-21.9526 E0.0 
G1 X8.675 Y18.354 Z-21.9593 E0.0 
G1 X8.717 Y18.444 Z-21.966 E0.0 
G1 X8.76 Y18.535 Z-21.9727 E0.0 
G1 X8.803 Y18.625 Z-21.9794 E0.0 
G1 X8.846 Y18.715 Z-21.986 E0.0 
G1 X8.888 Y18.806 Z-21.9927 E0.0 
G1 X8.931 Y18.896 Z-21.9994 E0.0 
G1 X8.974 Y18.987 Z-22.006 E0.0 
G1 X9.017 Y19.077 Z-22.0127 E0.0 
G1 X9.059 Y19.167 Z-22.0194 E0.0 
G1 X9.102 Y19.258 Z-22.026 E0.0 
G1 X9.145 Y19.348 Z-22.0327 E0.0 
G1 X9.187 Y19.439 Z-22.0393 E0.0 
G1 X9.23 Y19.529 Z-22.046 E0.0 
G1 X9.273 Y19.619 Z-22.052599999999998 E0.0 
G1 X9.316 Y19.71 Z-22.0592 E0.0 
G1 X9.358 Y19.8 Z-22.0659 E0.0 
G1 X9.401 Y19.891 Z-22.072499999999998 E0.0 
G1 X9.444 Y19.981 Z-22.0791 E0.0 
G1 X9.487 Y20.072 Z-22.0858 E0.0 
G1 X9.529 Y20.162 Z-22.0924 E0.0 
G1 X9.572 Y20.252 Z-22.099 E0.0 
G1 X9.615 Y20.343 Z-22.1056 E0.0 
G1 X9.658 Y20.433 Z-22.1122 E0.0 
G1 X9.7 Y20.524 Z-22.1188 E0.0 
G1 X9.743 Y20.614 Z-22.1255 E0.0 
G1 X9.786 Y20.704 Z-22.1321 E0.0 
G1 X9.828 Y20.795 Z-22.1387 E0.0 
G1 X9.871 Y20.885 Z-22.1453 E0.0 
G1 X9.914 Y20.976 Z-22.1519 E0.0 
G1 X9.957 Y21.066 Z-22.1584 E0.0 
G1 X9.999 Y21.156 Z-22.165 E0.0 
G1 X10.042 Y21.247 Z-22.171599999999998 E0.0 
G1 X10.085 Y21.337 Z-22.1782 E0.0 
G1 X10.128 Y21.428 Z-22.1848 E0.0 
G1 X10.17 Y21.518 Z-22.1913 E0.0 
G1 X10.213 Y21.609 Z-22.1979 E0.0 
G1 X10.256 Y21.699 Z-22.2045 E0.0 
G1 X10.299 Y21.789 Z-22.211100000000002 E0.0 
G1 X10.341 Y21.88 Z-22.2176 E0.0 
G1 X10.384 Y21.97 Z-22.2242 E0.0 
G1 X10.427 Y22.061 Z-22.2307 E0.0 
G1 X10.469 Y22.151 Z-22.2373 E0.0 
G1 X10.512 Y22.241 Z-22.2438 E0.0 
G1 X10.555 Y22.332 Z-22.2504 E0.0 
G1 X10.598 Y22.422 Z-22.2569 E0.0 
G1 X10.64 Y22.513 Z-22.2635 E0.0 
G1 X10.683 Y22.603 Z-22.27 E0.0 
G1 X10.726 Y22.693 Z-22.2765 E0.0 
G1 X10.769 Y22.784 Z-22.2831 E0.0 
G1 X10.811 Y22.874 Z-22.2896 E0.0 
G1 X10.854 Y22.965 Z-22.2961 E0.0 
G1 X10.897 Y23.055 Z-22.302599999999998 E0.0 
G1 X10.94 Y23.146 Z-22.3092 E0.0 
G1 X10.982 Y23.236 Z-22.3157 E0.0 
G1 X11.025 Y23.326 Z-22.322200000000002 E0.0 
G1 X11.068 Y23.417 Z-22.3287 E0.0 
G1 X11.11 Y23.507 Z-22.3352 E0.0 
G1 X11.153 Y23.598 Z-22.3417 E0.0 
G1 X11.196 Y23.688 Z-22.3482 E0.0 
G1 X11.239 Y23.778 Z-22.3547 E0.0 
G1 X11.281 Y23.869 Z-22.3612 E0.0 
G1 X11.324 Y23.959 Z-22.3677 E0.0 
G1 X11.367 Y24.05 Z-22.3741 E0.0 
G1 X11.41 Y24.14 Z-22.3806 E0.0 
G1 X11.452 Y24.231 Z-22.3871 E0.0 
G1 X11.495 Y24.321 Z-22.3936 E0.0 
G1 X11.538 Y24.411 Z-22.400100000000002 E0.0 
G1 X11.58 Y24.502 Z-22.4065 E0.0 
G1 X11.623 Y24.592 Z-22.413 E0.0 
G1 X11.666 Y24.683 Z-22.4195 E0.0 
G1 X11.709 Y24.773 Z-22.4259 E0.0 
G1 X11.751 Y24.863 Z-22.4324 E0.0 
G1 X11.794 Y24.954 Z-22.4388 E0.0 
G1 X11.837 Y25.044 Z-22.4453 E0.0 
G1 X11.88 Y25.135 Z-22.451700000000002 E0.0 
G1 X11.922 Y25.225 Z-22.458199999999998 E0.0 
G1 X11.965 Y25.315 Z-22.4646 E0.0 
G1 X12.008 Y25.406 Z-22.471 E0.0 
G1 X12.051 Y25.496 Z-22.4775 E0.0 
G1 X12.093 Y25.587 Z-22.4839 E0.0 
G1 X12.136 Y25.677 Z-22.490299999999998 E0.0 
G1 X12.179 Y25.768 Z-22.4968 E0.0 
G1 X12.221 Y25.858 Z-22.5032 E0.0 
G1 X12.264 Y25.948 Z-22.5096 E0.0 
G1 X12.307 Y26.039 Z-22.516 E0.0 
G1 X12.35 Y26.129 Z-22.522399999999998 E0.0 
G1 X12.392 Y26.22 Z-22.5288 E0.0 
G1 X12.435 Y26.31 Z-22.5352 E0.0 
G1 X12.478 Y26.4 Z-22.541600000000003 E0.0 
G1 X12.521 Y26.491 Z-22.548000000000002 E0.0 
G1 X12.563 Y26.581 Z-22.5544 E0.0 
G1 X12.606 Y26.672 Z-22.5608 E0.0 
G1 X12.649 Y26.762 Z-22.5672 E0.0 
G1 X12.692 Y26.852 Z-22.5736 E0.0 
G1 X12.734 Y26.943 Z-22.58 E0.0 
G1 X12.777 Y27.033 Z-22.586399999999998 E0.0 
G1 X12.82 Y27.124 Z-22.5927 E0.0 
G1 X12.862 Y27.214 Z-22.5991 E0.0 
G1 X12.905 Y27.305 Z-22.6055 E0.0 
G1 X12.948 Y27.395 Z-22.611800000000002 E0.0 
G1 X12.991 Y27.485 Z-22.6182 E0.0 
G1 X13.033 Y27.576 Z-22.6246 E0.0 
G1 X13.076 Y27.666 Z-22.6309 E0.0 
G1 X13.119 Y27.757 Z-22.6373 E0.0 
G1 X13.162 Y27.847 Z-22.6436 E0.0 
G1 X13.204 Y27.937 Z-22.65 E0.0 
G1 X13.247 Y28.028 Z-22.6563 E0.0 
G1 X13.29 Y28.118 Z-22.6627 E0.0 
G1 X13.333 Y28.209 Z-22.669 E0.0 
G1 X13.375 Y28.299 Z-22.6753 E0.0 
G1 X13.418 Y28.389 Z-22.6817 E0.0 
G1 X13.461 Y28.48 Z-22.688000000000002 E0.0 
G1 X13.503 Y28.57 Z-22.6943 E0.0 
G1 X13.546 Y28.661 Z-22.7006 E0.0 
G1 X13.589 Y28.751 Z-22.707 E0.0 
G1 X13.632 Y28.842 Z-22.7133 E0.0 
G1 X13.674 Y28.932 Z-22.7196 E0.0 
G1 X13.717 Y29.022 Z-22.7259 E0.0 
G1 X13.76 Y29.113 Z-22.7322 E0.0 
G1 X13.803 Y29.203 Z-22.738500000000002 E0.0 
G1 X13.845 Y29.294 Z-22.744799999999998 E0.0 
G1 X13.888 Y29.384 Z-22.7511 E0.0 
G1 X13.931 Y29.474 Z-22.7574 E0.0 
G1 X13.974 Y29.565 Z-22.7637 E0.0 
G1 X14.016 Y29.655 Z-22.77 E0.0 
G1 X14.059 Y29.746 Z-22.7762 E0.0 
G1 X14.102 Y29.836 Z-22.7825 E0.0 
G1 X14.144 Y29.926 Z-22.788800000000002 E0.0 
G1 X14.187 Y30.017 Z-22.795099999999998 E0.0 
G1 X14.23 Y30.107 Z-22.801299999999998 E0.0 
G1 X14.273 Y30.198 Z-22.8076 E0.0 
G1 X14.315 Y30.288 Z-22.8139 E0.0 
G1 X14.358 Y30.379 Z-22.8201 E0.0 
G1 X14.401 Y30.469 Z-22.8264 E0.0 
G1 X14.444 Y30.559 Z-22.832700000000003 E0.0 
G1 X14.486 Y30.65 Z-22.838900000000002 E0.0 
G1 X14.529 Y30.74 Z-22.8452 E0.0 
G1 X14.572 Y30.831 Z-22.851399999999998 E0.0 
G1 X14.614 Y30.921 Z-22.857599999999998 E0.0 
G1 X14.657 Y31.011 Z-22.8639 E0.0 
G1 X14.7 Y31.102 Z-22.8701 E0.0 
G1 X14.743 Y31.192 Z-22.8763 E0.0 
G1 X14.785 Y31.283 Z-22.8826 E0.0 
G1 X14.828 Y31.373 Z-22.8888 E0.0 
G1 X14.871 Y31.463 Z-22.895 E0.0 
G1 X14.914 Y31.554 Z-22.9012 E0.0 
G1 X14.956 Y31.644 Z-22.9075 E0.0 
G1 X14.999 Y31.735 Z-22.9137 E0.0 
G1 X15.042 Y31.825 Z-22.9199 E0.0 
G1 X15.085 Y31.916 Z-22.926099999999998 E0.0 
G1 X15.127 Y32.006 Z-22.932299999999998 E0.0 
G1 X15.17 Y32.096 Z-22.938499999999998 E0.0 
G1 X15.213 Y32.187 Z-22.9447 E0.0 
G1 X15.255 Y32.277 Z-22.9509 E0.0 
G1 X15.298 Y32.368 Z-22.9571 E0.0 
G1 X15.341 Y32.458 Z-22.9632 E0.0 
G1 X15.384 Y32.548 Z-22.9694 E0.0 
G1 X15.426 Y32.639 Z-22.9756 E0.0 
G1 X15.469 Y32.729 Z-22.9818 E0.0 
G1 X15.512 Y32.82 Z-22.988 E0.0 
G1 X15.555 Y32.91 Z-22.9941 E0.0 
G1 X15.597 Y33.0 Z-23.0003 E0.0 
G1 X15.64 Y33.091 Z-23.006500000000003 E0.0 
G1 X15.683 Y33.181 Z-23.0126 E0.0 
G1 X15.726 Y33.272 Z-23.0188 E0.0 
G1 X15.768 Y33.362 Z-23.024900000000002 E0.0 
G1 X15.811 Y33.453 Z-23.031100000000002 E0.0 
G1 X15.854 Y33.543 Z-23.0372 E0.0 
G1 X15.896 Y33.633 Z-23.0434 E0.0 
G1 X15.939 Y33.724 Z-23.049500000000002 E0.0 
G1 X15.982 Y33.814 Z-23.0557 E0.0 
G1 X16.025 Y33.905 Z-23.061799999999998 E0.0 
G1 X16.067 Y33.995 Z-23.0679 E0.0 
G1 X16.11 Y34.085 Z-23.0741 E0.0 
G1 X16.153 Y34.176 Z-23.080199999999998 E0.0 
G1 X16.196 Y34.266 Z-23.0863 E0.0 
G1 X16.238 Y34.357 Z-23.092399999999998 E0.0 
G1 X16.281 Y34.447 Z-23.0985 E0.0 
G1 X16.324 Y34.538 Z-23.1047 E0.0 
G1 X16.367 Y34.628 Z-23.110799999999998 E0.0 
G1 X16.409 Y34.718 Z-23.1169 E0.0 
G1 X16.452 Y34.809 Z-23.122999999999998 E0.0 
G1 X16.495 Y34.899 Z-23.1291 E0.0 
G1 X16.537 Y34.99 Z-23.135199999999998 E0.0 
G1 X16.58 Y35.08 Z-23.1413 E0.0 
G1 X16.623 Y35.17 Z-23.147399999999998 E0.0 
G1 X16.666 Y35.261 Z-23.153399999999998 E0.0 
G1 X16.708 Y35.351 Z-23.1595 E0.0 
G1 X16.751 Y35.442 Z-23.165599999999998 E0.0 
G1 X16.794 Y35.532 Z-23.1717 E0.0 
G1 X16.837 Y35.622 Z-23.177799999999998 E0.0 
G1 X16.879 Y35.713 Z-23.183799999999998 E0.0 
G1 X16.922 Y35.803 Z-23.1899 E0.0 
G1 X16.965 Y35.894 Z-23.195999999999998 E0.0 
G1 X17.008 Y35.984 Z-23.201999999999998 E0.0 
G1 X17.05 Y36.075 Z-23.2081 E0.0 
G1 X17.093 Y36.165 Z-23.214100000000002 E0.0 
G1 X17.136 Y36.255 Z-23.2202 E0.0 
G1 X17.178 Y36.346 Z-23.2262 E0.0 
G1 X17.221 Y36.436 Z-23.232300000000002 E0.0 
G1 X17.264 Y36.527 Z-23.238300000000002 E0.0 
G1 X17.307 Y36.617 Z-23.2444 E0.0 
G1 X17.349 Y36.707 Z-23.2504 E0.0 
G1 X17.392 Y36.798 Z-23.2564 E0.0 
G1 X17.435 Y36.888 Z-23.2625 E0.0 
G1 X17.478 Y36.979 Z-23.2685 E0.0 
G1 X17.52 Y37.069 Z-23.2745 E0.0 
G1 X17.563 Y37.159 Z-23.2805 E0.0 
G1 X17.606 Y37.25 Z-23.2866 E0.0 
G1 X17.648 Y37.34 Z-23.2926 E0.0 
G1 X17.691 Y37.431 Z-23.2986 E0.0 
G1 X17.734 Y37.521 Z-23.3046 E0.0 
G1 X17.777 Y37.612 Z-23.3106 E0.0 
G1 X17.819 Y37.702 Z-23.3166 E0.0 
G1 X17.862 Y37.792 Z-23.3226 E0.0 
G1 X17.905 Y37.883 Z-23.3286 E0.0 
G1 X17.948 Y37.973 Z-23.334600000000002 E0.0 
G1 X17.99 Y38.064 Z-23.340600000000002 E0.0 
G1 X18.033 Y38.154 Z-23.3465 E0.0 
G1 X18.076 Y38.244 Z-23.3525 E0.0 
G1 X18.119 Y38.335 Z-23.3585 E0.0 
G1 X18.161 Y38.425 Z-23.3645 E0.0 
G1 X18.204 Y38.516 Z-23.3705 E0.0 
