;START
;%
;(VECTRIC POST REVISION)
;(2913AB479EA3000D32B9C42F7F010597)
;O0001
;G17 G90 G21 G40 G80
;G08 P1
;T0
;(TOOL#1)
;T1
;M11
;G0 G43 Z20.000 H1
G1 X118.659 Y260.933 Z-22.646 E0.0 
G1 X118.659 Y260.933 Z-21.646 E0.0 
G1 X118.659 Y260.933 Z-22.756 E0.0 F200.0 
G1 X118.622 Y261.053 Z-22.7563 E0.0 F700.0 
G1 X118.604 Y261.17 Z-22.7564 E0.0 
G1 X118.586 Y261.287 Z-22.7565 E0.0 
G1 X118.57 Y261.469 Z-22.7565 E0.0 
G1 X118.588 Y261.563 Z-22.7563 E0.0 
G1 X118.616 Y261.586 Z-22.756 E0.0 
G1 X118.661 Y261.597 Z-22.7556 E0.0 
G1 X118.81 Y261.602 Z-22.7541 E0.0 
G1 X118.96 Y261.599 Z-22.752699999999997 E0.0 
G1 X119.036 Y261.575 Z-22.752000000000002 E0.0 
G1 X119.065 Y261.51 Z-22.7518 E0.0 
G1 X119.069 Y261.383 Z-22.7518 E0.0 
G1 X119.091 Y261.2 Z-22.7517 E0.0 
G1 X119.118 Y261.135 Z-22.7515 E0.0 
G1 X119.157 Y261.088 Z-22.751199999999997 E0.0 
G1 X119.245 Y261.013 Z-22.7504 E0.0 
G1 X119.333 Y260.964 Z-22.7496 E0.0 
G1 X119.42 Y260.914 Z-22.7488 E0.0 
G1 X119.508 Y260.865 Z-22.7481 E0.0 
G1 X119.596 Y260.816 Z-22.7473 E0.0 
G1 X119.684 Y260.766 Z-22.746499999999997 E0.0 
G1 X119.771 Y260.717 Z-22.7457 E0.0 
G1 X119.859 Y260.668 Z-22.7449 E0.0 
G1 X119.947 Y260.618 Z-22.7441 E0.0 
G1 X120.035 Y260.569 Z-22.7434 E0.0 
G1 X120.122 Y260.52 Z-22.7426 E0.0 
G1 X120.21 Y260.47 Z-22.741799999999998 E0.0 
G1 X120.298 Y260.421 Z-22.741 E0.0 
G1 X120.386 Y260.371 Z-22.740299999999998 E0.0 
G1 X120.473 Y260.322 Z-22.7395 E0.0 
G1 X120.561 Y260.273 Z-22.7387 E0.0 
G1 X120.649 Y260.223 Z-22.738 E0.0 
G1 X120.737 Y260.174 Z-22.7372 E0.0 
G1 X120.824 Y260.125 Z-22.7364 E0.0 
G1 X120.912 Y260.075 Z-22.7357 E0.0 
G1 X121.0 Y260.026 Z-22.7349 E0.0 
G1 X121.088 Y259.977 Z-22.734099999999998 E0.0 
G1 X121.175 Y259.927 Z-22.7334 E0.0 
G1 X121.263 Y259.878 Z-22.732599999999998 E0.0 
G1 X121.427 Y259.851 Z-22.731099999999998 E0.0 
G1 X121.522 Y259.839 Z-22.7303 E0.0 
G1 X121.57 Y259.859 Z-22.729799999999997 E0.0 
G1 X121.588 Y259.931 Z-22.729599999999998 E0.0 
G1 X121.591 Y260.077 Z-22.7294 E0.0 
G1 X121.6 Y260.178 Z-22.7291 E0.0 
G1 X121.609 Y260.28 Z-22.7289 E0.0 
G1 X121.634 Y260.333 Z-22.7286 E0.0 
G1 X121.671 Y260.361 Z-22.728299999999997 E0.0 
G1 X121.75 Y260.392 Z-22.7275 E0.0 
G1 X121.85 Y260.392 Z-22.7265 E0.0 
G1 X121.951 Y260.392 Z-22.7256 E0.0 
G1 X122.051 Y260.392 Z-22.7247 E0.0 
G1 X122.152 Y260.392 Z-22.7237 E0.0 
G1 X122.252 Y260.392 Z-22.7228 E0.0 
G1 X122.352 Y260.392 Z-22.7218 E0.0 
G1 X122.453 Y260.392 Z-22.7209 E0.0 
G1 X122.553 Y260.392 Z-22.72 E0.0 
G1 X122.653 Y260.392 Z-22.719 E0.0 
G1 X122.754 Y260.392 Z-22.7181 E0.0 
G1 X122.854 Y260.392 Z-22.7172 E0.0 
G1 X122.955 Y260.392 Z-22.7162 E0.0 
G1 X123.055 Y260.392 Z-22.7153 E0.0 
G1 X123.155 Y260.392 Z-22.7143 E0.0 
G1 X123.256 Y260.392 Z-22.7134 E0.0 
G1 X123.356 Y260.392 Z-22.7125 E0.0 
G1 X123.456 Y260.392 Z-22.7115 E0.0 
G1 X123.557 Y260.392 Z-22.7106 E0.0 
G1 X123.657 Y260.392 Z-22.709600000000002 E0.0 
G1 X123.758 Y260.392 Z-22.7087 E0.0 
G1 X123.858 Y260.392 Z-22.7078 E0.0 
G1 X123.958 Y260.392 Z-22.7068 E0.0 
G1 X124.059 Y260.392 Z-22.7059 E0.0 
G1 X124.159 Y260.392 Z-22.705 E0.0 
G1 X124.259 Y260.392 Z-22.704 E0.0 
G1 X124.36 Y260.392 Z-22.7031 E0.0 
G1 X124.46 Y260.392 Z-22.7021 E0.0 
G1 X124.561 Y260.392 Z-22.7012 E0.0 
G1 X124.661 Y260.392 Z-22.7003 E0.0 
G1 X124.761 Y260.392 Z-22.6993 E0.0 
G1 X124.862 Y260.392 Z-22.6984 E0.0 
G1 X124.962 Y260.392 Z-22.697400000000002 E0.0 
G1 X125.062 Y260.392 Z-22.6965 E0.0 
G1 X125.163 Y260.392 Z-22.6956 E0.0 
G1 X125.263 Y260.392 Z-22.6946 E0.0 
G1 X125.364 Y260.392 Z-22.6937 E0.0 
G1 X125.464 Y260.392 Z-22.6928 E0.0 
G1 X125.564 Y260.303 Z-22.692 E0.0 
G1 X125.663 Y260.215 Z-22.691200000000002 E0.0 
G1 X125.701 Y260.105 Z-22.6911 E0.0 
G1 X125.739 Y259.995 Z-22.691 E0.0 
G1 X125.778 Y259.886 Z-22.6908 E0.0 
G1 X125.816 Y259.776 Z-22.6907 E0.0 
G1 X125.854 Y259.666 Z-22.6906 E0.0 
G1 X125.884 Y259.569 Z-22.6905 E0.0 
G1 X125.915 Y259.473 Z-22.6904 E0.0 
G1 X125.945 Y259.376 Z-22.6903 E0.0 
G1 X125.976 Y259.28 Z-22.6903 E0.0 
G1 X126.006 Y259.183 Z-22.690199999999997 E0.0 
G1 X126.001 Y259.098 Z-22.6904 E0.0 
G1 X125.952 Y259.048 Z-22.691 E0.0 
G1 X125.859 Y258.979 Z-22.692 E0.0 
G1 X125.758 Y258.979 Z-22.6929 E0.0 
G1 X125.656 Y258.979 Z-22.6938 E0.0 
G1 X125.555 Y258.979 Z-22.694699999999997 E0.0 
G1 X125.454 Y258.979 Z-22.6956 E0.0 
G1 X125.353 Y258.979 Z-22.6965 E0.0 
G1 X125.251 Y258.979 Z-22.697499999999998 E0.0 
G1 X125.15 Y258.979 Z-22.6984 E0.0 
G1 X125.049 Y258.979 Z-22.6993 E0.0 
G1 X124.947 Y258.979 Z-22.700200000000002 E0.0 
G1 X124.846 Y258.979 Z-22.7011 E0.0 
G1 X124.745 Y258.979 Z-22.7021 E0.0 
G1 X124.644 Y258.979 Z-22.703 E0.0 
G1 X124.542 Y258.979 Z-22.703899999999997 E0.0 
G1 X124.441 Y258.979 Z-22.7048 E0.0 
G1 X124.34 Y258.979 Z-22.7057 E0.0 
G1 X124.238 Y258.979 Z-22.706699999999998 E0.0 
G1 X124.137 Y258.979 Z-22.7076 E0.0 
G1 X124.036 Y258.979 Z-22.7085 E0.0 
G1 X123.935 Y258.979 Z-22.709400000000002 E0.0 
G1 X123.833 Y258.979 Z-22.7103 E0.0 
G1 X123.732 Y258.979 Z-22.7113 E0.0 
G1 X123.631 Y258.979 Z-22.7122 E0.0 
G1 X123.53 Y258.979 Z-22.713099999999997 E0.0 
G1 X123.428 Y258.979 Z-22.714 E0.0 
G1 X123.327 Y258.979 Z-22.7149 E0.0 
G1 X123.226 Y258.979 Z-22.715899999999998 E0.0 
G1 X123.124 Y258.979 Z-22.7168 E0.0 
G1 X123.023 Y258.979 Z-22.7177 E0.0 
G1 X122.922 Y258.979 Z-22.718600000000002 E0.0 
G1 X122.821 Y258.979 Z-22.7195 E0.0 
G1 X122.719 Y258.979 Z-22.7205 E0.0 
G1 X122.618 Y258.979 Z-22.7214 E0.0 
G1 X122.517 Y258.979 Z-22.7223 E0.0 
G1 X122.415 Y258.979 Z-22.7232 E0.0 
G1 X122.314 Y258.979 Z-22.7241 E0.0 
G1 X122.213 Y258.979 Z-22.725 E0.0 
G1 X122.112 Y258.979 Z-22.726 E0.0 
G1 X122.01 Y258.979 Z-22.7269 E0.0 
G1 X121.909 Y258.979 Z-22.727800000000002 E0.0 
G1 X121.832 Y259.068 Z-22.7284 E0.0 
G1 X121.764 Y259.174 Z-22.7289 E0.0 
G1 X121.707 Y259.307 Z-22.7292 E0.0 
G1 X121.672 Y259.391 Z-22.7294 E0.0 
G1 X121.62 Y259.44 Z-22.7299 E0.0 
G1 X121.524 Y259.469 Z-22.7307 E0.0 
G1 X121.36 Y259.49 Z-22.7322 E0.0 
G1 X121.26 Y259.501 Z-22.7331 E0.0 
G1 X121.161 Y259.511 Z-22.734 E0.0 
G1 X121.061 Y259.522 Z-22.7349 E0.0 
G1 X120.973 Y259.573 Z-22.735599999999998 E0.0 
G1 X120.886 Y259.624 Z-22.7364 E0.0 
G1 X120.798 Y259.675 Z-22.737099999999998 E0.0 
G1 X120.711 Y259.725 Z-22.7379 E0.0 
G1 X120.623 Y259.776 Z-22.7387 E0.0 
G1 X120.536 Y259.827 Z-22.7394 E0.0 
G1 X120.448 Y259.878 Z-22.7402 E0.0 
G1 X120.361 Y259.929 Z-22.7409 E0.0 
G1 X120.273 Y259.98 Z-22.7417 E0.0 
G1 X120.185 Y260.031 Z-22.7425 E0.0 
G1 X120.098 Y260.081 Z-22.7432 E0.0 
G1 X120.01 Y260.132 Z-22.744 E0.0 
G1 X119.923 Y260.183 Z-22.744799999999998 E0.0 
G1 X119.835 Y260.234 Z-22.7455 E0.0 
G1 X119.748 Y260.285 Z-22.746299999999998 E0.0 
G1 X119.66 Y260.336 Z-22.7471 E0.0 
G1 X119.573 Y260.386 Z-22.747799999999998 E0.0 
G1 X119.485 Y260.437 Z-22.7486 E0.0 
G1 X119.397 Y260.488 Z-22.7494 E0.0 
G1 X119.31 Y260.539 Z-22.7502 E0.0 
G1 X119.222 Y260.59 Z-22.750999999999998 E0.0 
G1 X119.135 Y260.641 Z-22.7517 E0.0 
G1 X119.047 Y260.692 Z-22.752499999999998 E0.0 
G1 X118.96 Y260.742 Z-22.7533 E0.0 
G1 X118.872 Y260.793 Z-22.7541 E0.0 
G1 X118.785 Y260.844 Z-22.7549 E0.0 
G1 X118.697 Y260.895 Z-22.755699999999997 E0.0 
G1 X118.659 Y260.933 Z-22.756 E0.0 
G1 X118.659 Y260.933 Z-21.646 E0.0 
G1 X118.753 Y260.968 Z-21.6451 E0.0 
G1 X118.848 Y261.004 Z-21.644199999999998 E0.0 
G1 X118.942 Y261.039 Z-21.6433 E0.0 
G1 X119.037 Y261.075 Z-21.642400000000002 E0.0 
G1 X119.131 Y261.11 Z-21.641399999999997 E0.0 
G1 X119.226 Y261.146 Z-21.6405 E0.0 
G1 X119.32 Y261.181 Z-21.6396 E0.0 
G1 X119.415 Y261.216 Z-21.6387 E0.0 
G1 X119.509 Y261.252 Z-21.637700000000002 E0.0 
G1 X119.604 Y261.287 Z-21.6368 E0.0 
G1 X119.698 Y261.323 Z-21.6359 E0.0 
G1 X119.793 Y261.358 Z-21.634900000000002 E0.0 
G1 X119.887 Y261.393 Z-21.634 E0.0 
G1 X119.982 Y261.429 Z-21.6331 E0.0 
G1 X120.076 Y261.464 Z-21.6321 E0.0 
G1 X120.17 Y261.5 Z-21.6312 E0.0 
G1 X120.265 Y261.535 Z-21.6303 E0.0 
G1 X120.359 Y261.571 Z-21.6293 E0.0 
G1 X120.454 Y261.606 Z-21.6284 E0.0 
G1 X120.548 Y261.641 Z-21.6274 E0.0 
G1 X120.643 Y261.677 Z-21.6265 E0.0 
G1 X120.737 Y261.712 Z-21.6256 E0.0 
G1 X120.832 Y261.748 Z-21.6246 E0.0 
G1 X120.926 Y261.783 Z-21.6237 E0.0 
G1 X121.021 Y261.819 Z-21.622700000000002 E0.0 
G1 X121.115 Y261.854 Z-21.6218 E0.0 
G1 X121.21 Y261.889 Z-21.6208 E0.0 
G1 X121.304 Y261.925 Z-21.6199 E0.0 
G1 X121.399 Y261.96 Z-21.6189 E0.0 
G1 X121.493 Y261.996 Z-21.618000000000002 E0.0 
G1 X121.587 Y262.031 Z-21.616999999999997 E0.0 
G1 X121.682 Y262.067 Z-21.616 E0.0 
G1 X121.776 Y262.102 Z-21.615099999999998 E0.0 
G1 X121.871 Y262.137 Z-21.6141 E0.0 
G1 X121.965 Y262.173 Z-21.6132 E0.0 
G1 X122.06 Y262.208 Z-21.6122 E0.0 
G1 X122.154 Y262.244 Z-21.6112 E0.0 
G1 X122.249 Y262.279 Z-21.610300000000002 E0.0 
G1 X122.343 Y262.314 Z-21.609299999999998 E0.0 
G1 X122.438 Y262.35 Z-21.6083 E0.0 
G1 X122.532 Y262.385 Z-21.6074 E0.0 
G1 X122.627 Y262.421 Z-21.6064 E0.0 
G1 X122.721 Y262.456 Z-21.6054 E0.0 
G1 X122.816 Y262.492 Z-21.6045 E0.0 
G1 X122.91 Y262.527 Z-21.6035 E0.0 
G1 X122.91 Y262.527 Z-22.7135 E0.0 F200.0 
G1 X122.927 Y262.49 Z-22.7134 E0.0 F700.0 
G1 X122.966 Y262.454 Z-22.713 E0.0 
G1 X123.029 Y262.418 Z-22.7125 E0.0 
G1 X123.139 Y262.376 Z-22.7115 E0.0 
G1 X123.225 Y262.363 Z-22.7107 E0.0 
G1 X123.302 Y262.381 Z-22.709899999999998 E0.0 
G1 X123.382 Y262.429 Z-22.709 E0.0 
G1 X123.43 Y262.469 Z-22.7085 E0.0 
G1 X123.449 Y262.502 Z-22.7083 E0.0 
G1 X123.442 Y262.537 Z-22.7083 E0.0 
G1 X123.409 Y262.583 Z-22.7085 E0.0 
G1 X123.366 Y262.62 Z-22.7089 E0.0 
G1 X123.307 Y262.643 Z-22.709400000000002 E0.0 
G1 X123.134 Y262.652 Z-22.711100000000002 E0.0 
G1 X122.986 Y262.62 Z-22.712600000000002 E0.0 
G1 X122.94 Y262.594 Z-22.713099999999997 E0.0 
G1 X122.915 Y262.562 Z-22.7134 E0.0 
G1 X122.91 Y262.527 Z-22.7135 E0.0 
G1 X122.91 Y262.527 Z-21.6035 E0.0 
G1 X122.881 Y262.419 Z-21.6039 E0.0 
G1 X122.853 Y262.312 Z-21.6044 E0.0 
G1 X122.824 Y262.204 Z-21.604799999999997 E0.0 
G1 X122.824 Y262.204 Z-22.7148 E0.0 F200.0 
G1 X122.665 Y262.275 Z-22.7162 E0.0 F700.0 
G1 X122.504 Y262.359 Z-22.7177 E0.0 
G1 X122.403 Y262.359 Z-22.7187 E0.0 
G1 X122.303 Y262.359 Z-22.7196 E0.0 
G1 X122.202 Y262.359 Z-22.720599999999997 E0.0 
G1 X122.101 Y262.359 Z-22.721600000000002 E0.0 
G1 X122.001 Y262.359 Z-22.7226 E0.0 
G1 X121.9 Y262.359 Z-22.723599999999998 E0.0 
G1 X121.8 Y262.359 Z-22.7245 E0.0 
G1 X121.699 Y262.359 Z-22.7255 E0.0 
G1 X121.598 Y262.359 Z-22.7265 E0.0 
G1 X121.498 Y262.359 Z-22.7275 E0.0 
G1 X121.397 Y262.359 Z-22.7285 E0.0 
G1 X121.296 Y262.359 Z-22.7294 E0.0 
G1 X121.196 Y262.359 Z-22.7304 E0.0 
G1 X121.095 Y262.359 Z-22.7314 E0.0 
G1 X120.994 Y262.359 Z-22.7324 E0.0 
G1 X120.894 Y262.359 Z-22.7333 E0.0 
G1 X120.793 Y262.359 Z-22.734299999999998 E0.0 
G1 X120.692 Y262.359 Z-22.735300000000002 E0.0 
G1 X120.592 Y262.359 Z-22.7363 E0.0 
G1 X120.491 Y262.359 Z-22.737299999999998 E0.0 
G1 X120.391 Y262.359 Z-22.7382 E0.0 
G1 X120.29 Y262.359 Z-22.7392 E0.0 
G1 X120.189 Y262.359 Z-22.7402 E0.0 
G1 X120.089 Y262.359 Z-22.7412 E0.0 
G1 X119.988 Y262.359 Z-22.7422 E0.0 
G1 X119.962 Y262.497 Z-22.7423 E0.0 
G1 X119.95 Y262.606 Z-22.7423 E0.0 
G1 X119.959 Y262.674 Z-22.7422 E0.0 
G1 X119.983 Y262.712 Z-22.7419 E0.0 
G1 X120.085 Y262.712 Z-22.7409 E0.0 
G1 X120.188 Y262.712 Z-22.7399 E0.0 
G1 X120.29 Y262.712 Z-22.7389 E0.0 
G1 X120.393 Y262.712 Z-22.7379 E0.0 
G1 X120.495 Y262.712 Z-22.7369 E0.0 
G1 X120.598 Y262.712 Z-22.7359 E0.0 
G1 X120.7 Y262.712 Z-22.7349 E0.0 
G1 X120.803 Y262.712 Z-22.7339 E0.0 
G1 X120.905 Y262.712 Z-22.7329 E0.0 
G1 X121.008 Y262.712 Z-22.7318 E0.0 
G1 X121.11 Y262.712 Z-22.730800000000002 E0.0 
G1 X121.213 Y262.712 Z-22.729799999999997 E0.0 
G1 X121.315 Y262.712 Z-22.7288 E0.0 
G1 X121.417 Y262.712 Z-22.727800000000002 E0.0 
G1 X121.52 Y262.712 Z-22.726799999999997 E0.0 
G1 X121.622 Y262.712 Z-22.7258 E0.0 
G1 X121.725 Y262.712 Z-22.724800000000002 E0.0 
G1 X121.827 Y262.712 Z-22.7238 E0.0 
G1 X121.93 Y262.712 Z-22.7228 E0.0 
G1 X122.032 Y262.712 Z-22.7218 E0.0 
G1 X122.135 Y262.712 Z-22.7208 E0.0 
G1 X122.237 Y262.712 Z-22.7198 E0.0 
G1 X122.34 Y262.712 Z-22.7188 E0.0 
G1 X122.442 Y262.712 Z-22.7178 E0.0 
G1 X122.538 Y262.769 Z-22.7168 E0.0 
G1 X122.634 Y262.825 Z-22.7157 E0.0 
G1 X122.729 Y262.871 Z-22.7147 E0.0 
G1 X122.832 Y262.904 Z-22.7137 E0.0 
G1 X122.944 Y262.918 Z-22.712600000000002 E0.0 
G1 X123.055 Y262.932 Z-22.7115 E0.0 
G1 X123.169 Y262.923 Z-22.7103 E0.0 
G1 X123.284 Y262.915 Z-22.7092 E0.0 
G1 X123.391 Y262.888 Z-22.708199999999998 E0.0 
G1 X123.499 Y262.861 Z-22.7072 E0.0 
G1 X123.59 Y262.818 Z-22.706400000000002 E0.0 
G1 X123.682 Y262.775 Z-22.7055 E0.0 
G1 X123.815 Y262.665 Z-22.7044 E0.0 
G1 X123.856 Y262.603 Z-22.7041 E0.0 
G1 X123.878 Y262.537 Z-22.704 E0.0 
G1 X123.877 Y262.468 Z-22.7041 E0.0 
G1 X123.853 Y262.397 Z-22.7045 E0.0 
G1 X123.778 Y262.3 Z-22.705399999999997 E0.0 
G1 X123.666 Y262.223 Z-22.7066 E0.0 
G1 X123.523 Y262.167 Z-22.7081 E0.0 
G1 X123.353 Y262.135 Z-22.7098 E0.0 
G1 X123.251 Y262.132 Z-22.7108 E0.0 
G1 X123.15 Y262.13 Z-22.7117 E0.0 
G1 X122.978 Y262.151 Z-22.7134 E0.0 
G1 X122.824 Y262.204 Z-22.7148 E0.0 
G1 X122.824 Y262.204 Z-21.604799999999997 E0.0 
G1 X122.922 Y262.178 Z-21.6039 E0.0 
G1 X123.02 Y262.152 Z-21.603 E0.0 
G1 X123.118 Y262.126 Z-21.6021 E0.0 
G1 X123.216 Y262.1 Z-21.601100000000002 E0.0 
G1 X123.314 Y262.074 Z-21.6002 E0.0 
G1 X123.412 Y262.048 Z-21.5993 E0.0 
G1 X123.51 Y262.021 Z-21.598399999999998 E0.0 
G1 X123.608 Y261.995 Z-21.5975 E0.0 
G1 X123.706 Y261.969 Z-21.596600000000002 E0.0 
G1 X123.804 Y261.943 Z-21.5957 E0.0 
G1 X123.902 Y261.917 Z-21.5948 E0.0 
G1 X124.0 Y261.891 Z-21.593899999999998 E0.0 
G1 X124.097 Y261.865 Z-21.593 E0.0 
G1 X124.195 Y261.839 Z-21.592100000000002 E0.0 
G1 X124.293 Y261.813 Z-21.5912 E0.0 
G1 X124.391 Y261.787 Z-21.5903 E0.0 
G1 X124.489 Y261.761 Z-21.589399999999998 E0.0 
G1 X124.587 Y261.735 Z-21.5885 E0.0 
G1 X124.685 Y261.708 Z-21.587600000000002 E0.0 
G1 X124.783 Y261.682 Z-21.5867 E0.0 
G1 X124.881 Y261.656 Z-21.5858 E0.0 
G1 X124.979 Y261.63 Z-21.585 E0.0 
G1 X125.077 Y261.604 Z-21.5841 E0.0 
G1 X125.175 Y261.578 Z-21.583199999999998 E0.0 
G1 X125.273 Y261.552 Z-21.5823 E0.0 
G1 X125.273 Y261.552 Z-22.6923 E0.0 F200.0 
G1 X125.38 Y261.552 Z-22.6913 E0.0 
G1 X125.487 Y261.552 Z-22.690199999999997 E0.0 
G1 X125.593 Y261.552 Z-22.6892 E0.0 
G1 X125.7 Y261.552 Z-22.688200000000002 E0.0 F700.0 
G1 X125.82 Y261.546 Z-22.6871 E0.0 
G1 X125.941 Y261.541 Z-22.6859 E0.0 
G1 X126.061 Y261.535 Z-22.6848 E0.0 
G1 X126.137 Y261.505 Z-22.6841 E0.0 
G1 X126.179 Y261.454 Z-22.683799999999998 E0.0 
G1 X126.231 Y261.303 Z-22.6836 E0.0 
G1 X126.231 Y261.249 Z-22.683799999999998 E0.0 
G1 X126.124 Y261.249 Z-22.6848 E0.0 
G1 X126.017 Y261.249 Z-22.6858 E0.0 
G1 X125.911 Y261.249 Z-22.686799999999998 E0.0 
G1 X125.804 Y261.249 Z-22.6878 E0.0 
G1 X125.684 Y261.255 Z-22.689 E0.0 
G1 X125.563 Y261.26 Z-22.6901 E0.0 
G1 X125.443 Y261.266 Z-22.691200000000002 E0.0 
G1 X125.367 Y261.296 Z-22.6919 E0.0 
G1 X125.325 Y261.347 Z-22.6922 E0.0 
G1 X125.273 Y261.498 Z-22.6924 E0.0 
G1 X125.273 Y261.552 Z-22.6923 E0.0 
G1 X125.273 Y261.552 Z-21.5823 E0.0 
G1 X125.347 Y261.479 Z-21.581699999999998 E0.0 
G1 X125.42 Y261.406 Z-21.5812 E0.0 
G1 X125.494 Y261.333 Z-21.5806 E0.0 
G1 X125.567 Y261.261 Z-21.5801 E0.0 
G1 X125.641 Y261.188 Z-21.5795 E0.0 
G1 X125.714 Y261.115 Z-21.578899999999997 E0.0 
G1 X125.788 Y261.042 Z-21.578400000000002 E0.0 
G1 X125.862 Y260.969 Z-21.5778 E0.0 
G1 X125.935 Y260.896 Z-21.5773 E0.0 
G1 X126.009 Y260.823 Z-21.5768 E0.0 
G1 X126.082 Y260.751 Z-21.5762 E0.0 
G1 X126.156 Y260.678 Z-21.575699999999998 E0.0 
G1 X126.229 Y260.605 Z-21.5751 E0.0 
G1 X126.303 Y260.532 Z-21.5746 E0.0 
G1 X126.377 Y260.459 Z-21.5741 E0.0 
G1 X126.45 Y260.386 Z-21.5735 E0.0 
G1 X126.524 Y260.313 Z-21.573 E0.0 
G1 X126.597 Y260.241 Z-21.572499999999998 E0.0 
G1 X126.671 Y260.168 Z-21.572 E0.0 
G1 X126.744 Y260.095 Z-21.5714 E0.0 
G1 X126.818 Y260.022 Z-21.5709 E0.0 
G1 X126.892 Y259.949 Z-21.5704 E0.0 
G1 X126.965 Y259.876 Z-21.5699 E0.0 
G1 X127.039 Y259.803 Z-21.5694 E0.0 
G1 X127.112 Y259.731 Z-21.5689 E0.0 
G1 X127.186 Y259.658 Z-21.5683 E0.0 
G1 X127.259 Y259.585 Z-21.5678 E0.0 
G1 X127.333 Y259.512 Z-21.5673 E0.0 
G1 X127.333 Y259.512 Z-22.677300000000002 E0.0 F200.0 
G1 X127.409 Y259.562 Z-22.676499999999997 E0.0 F700.0 
G1 X127.504 Y259.603 Z-22.6755 E0.0 
G1 X127.616 Y259.633 Z-22.6744 E0.0 
G1 X127.756 Y259.646 Z-22.673099999999998 E0.0 
G1 X127.896 Y259.658 Z-22.671799999999998 E0.0 
G1 X128.08 Y259.643 Z-22.670099999999998 E0.0 
G1 X128.251 Y259.602 Z-22.6687 E0.0 
G1 X128.405 Y259.539 Z-22.6674 E0.0 
G1 X128.537 Y259.459 Z-22.6664 E0.0 
G1 X128.639 Y259.365 Z-22.6657 E0.0 
G1 X128.709 Y259.262 Z-22.665300000000002 E0.0 
G1 X128.739 Y259.153 Z-22.665399999999998 E0.0 
G1 X128.725 Y259.043 Z-22.665799999999997 E0.0 
G1 X128.693 Y258.981 Z-22.6662 E0.0 
G1 X128.644 Y258.922 Z-22.666800000000002 E0.0 
G1 X128.506 Y258.822 Z-22.668300000000002 E0.0 
G1 X128.333 Y258.754 Z-22.670099999999998 E0.0 
G1 X128.148 Y258.731 Z-22.671799999999998 E0.0 
G1 X127.964 Y258.752 Z-22.6734 E0.0 
G1 X127.867 Y258.775 Z-22.6742 E0.0 
G1 X127.769 Y258.798 Z-22.6751 E0.0 
G1 X127.629 Y258.849 Z-22.6762 E0.0 
G1 X127.509 Y258.907 Z-22.6771 E0.0 
G1 X127.41 Y258.971 Z-22.6779 E0.0 
G1 X127.332 Y259.039 Z-22.6784 E0.0 
G1 X127.273 Y259.11 Z-22.6788 E0.0 
G1 X127.235 Y259.182 Z-22.679000000000002 E0.0 
G1 X127.216 Y259.254 Z-22.679000000000002 E0.0 
G1 X127.216 Y259.325 Z-22.6788 E0.0 
G1 X127.236 Y259.392 Z-22.6785 E0.0 
G1 X127.275 Y259.455 Z-22.677999999999997 E0.0 
G1 X127.333 Y259.512 Z-22.677300000000002 E0.0 
G1 X127.333 Y259.512 Z-21.5673 E0.0 
G1 X127.302 Y259.608 Z-21.5674 E0.0 
G1 X127.271 Y259.704 Z-21.5674 E0.0 
G1 X127.241 Y259.801 Z-21.5675 E0.0 
G1 X127.21 Y259.897 Z-21.5676 E0.0 
G1 X127.179 Y259.993 Z-21.5676 E0.0 
G1 X127.148 Y260.089 Z-21.567700000000002 E0.0 
G1 X127.117 Y260.186 Z-21.5678 E0.0 
G1 X127.086 Y260.282 Z-21.5678 E0.0 
G1 X127.056 Y260.378 Z-21.5679 E0.0 
G1 X127.025 Y260.474 Z-21.567999999999998 E0.0 
G1 X126.994 Y260.571 Z-21.567999999999998 E0.0 
G1 X126.963 Y260.667 Z-21.5681 E0.0 
G1 X126.932 Y260.763 Z-21.568199999999997 E0.0 
G1 X126.901 Y260.859 Z-21.5683 E0.0 
G1 X126.871 Y260.956 Z-21.5683 E0.0 
G1 X126.84 Y261.052 Z-21.5684 E0.0 
G1 X126.809 Y261.148 Z-21.5685 E0.0 
G1 X126.809 Y261.148 Z-22.6785 E0.0 F200.0 
G1 X126.703 Y261.222 Z-22.679299999999998 E0.0 
G1 X126.597 Y261.296 Z-22.6802 E0.0 F700.0 
G1 X126.554 Y261.395 Z-22.6804 E0.0 
G1 X126.512 Y261.495 Z-22.6806 E0.0 
G1 X126.469 Y261.594 Z-22.6807 E0.0 
G1 X126.427 Y261.694 Z-22.6809 E0.0 
G1 X126.384 Y261.793 Z-22.6811 E0.0 
G1 X126.341 Y261.893 Z-22.6813 E0.0 
G1 X126.299 Y261.993 Z-22.6815 E0.0 
G1 X126.256 Y262.092 Z-22.6817 E0.0 
G1 X126.215 Y262.187 Z-22.6819 E0.0 
G1 X126.173 Y262.282 Z-22.6821 E0.0 
G1 X126.132 Y262.377 Z-22.682299999999998 E0.0 
G1 X126.09 Y262.472 Z-22.682499999999997 E0.0 
G1 X126.049 Y262.568 Z-22.6827 E0.0 
G1 X126.008 Y262.663 Z-22.6829 E0.0 
G1 X125.966 Y262.758 Z-22.6832 E0.0 
G1 X125.925 Y262.853 Z-22.6834 E0.0 
G1 X125.884 Y262.948 Z-22.6836 E0.0 
G1 X125.842 Y263.043 Z-22.683799999999998 E0.0 
G1 X125.801 Y263.138 Z-22.683999999999997 E0.0 
G1 X125.76 Y263.234 Z-22.6842 E0.0 
G1 X125.718 Y263.329 Z-22.6844 E0.0 
G1 X125.677 Y263.424 Z-22.6847 E0.0 
G1 X125.635 Y263.519 Z-22.6849 E0.0 
G1 X125.594 Y263.614 Z-22.6851 E0.0 
G1 X125.548 Y263.718 Z-22.6854 E0.0 
G1 X125.502 Y263.821 Z-22.6856 E0.0 
G1 X125.456 Y263.925 Z-22.6859 E0.0 
G1 X125.411 Y264.028 Z-22.6861 E0.0 
G1 X125.365 Y264.132 Z-22.6864 E0.0 
G1 X125.319 Y264.235 Z-22.6866 E0.0 
G1 X125.273 Y264.339 Z-22.6869 E0.0 
G1 X125.273 Y264.401 Z-22.686799999999998 E0.0 
G1 X125.304 Y264.472 Z-22.6863 E0.0 
G1 X125.378 Y264.557 Z-22.6854 E0.0 
G1 X125.484 Y264.653 Z-22.6841 E0.0 
G1 X125.588 Y264.655 Z-22.6831 E0.0 
G1 X125.692 Y264.657 Z-22.682000000000002 E0.0 
G1 X125.797 Y264.659 Z-22.680999999999997 E0.0 
G1 X125.901 Y264.66 Z-22.6799 E0.0 
G1 X126.005 Y264.662 Z-22.6788 E0.0 
G1 X126.109 Y264.664 Z-22.677799999999998 E0.0 
G1 X126.213 Y264.666 Z-22.6767 E0.0 
G1 X126.318 Y264.668 Z-22.6756 E0.0 
G1 X126.422 Y264.67 Z-22.674599999999998 E0.0 
G1 X126.526 Y264.672 Z-22.6735 E0.0 
G1 X126.63 Y264.673 Z-22.6724 E0.0 
G1 X126.734 Y264.675 Z-22.6714 E0.0 
G1 X126.839 Y264.677 Z-22.670299999999997 E0.0 
G1 X126.943 Y264.679 Z-22.6692 E0.0 
G1 X127.047 Y264.681 Z-22.6682 E0.0 
G1 X127.151 Y264.683 Z-22.667099999999998 E0.0 
G1 X127.255 Y264.684 Z-22.666 E0.0 
G1 X127.36 Y264.686 Z-22.665 E0.0 
G1 X127.464 Y264.688 Z-22.663899999999998 E0.0 
G1 X127.568 Y264.69 Z-22.6628 E0.0 
G1 X127.675 Y264.661 Z-22.6618 E0.0 
G1 X127.783 Y264.632 Z-22.660800000000002 E0.0 
G1 X127.891 Y264.595 Z-22.6598 E0.0 
G1 X127.977 Y264.546 Z-22.659 E0.0 
G1 X128.05 Y264.478 Z-22.6585 E0.0 
G1 X128.117 Y264.387 Z-22.658 E0.0 
G1 X128.177 Y264.293 Z-22.657600000000002 E0.0 
G1 X128.237 Y264.2 Z-22.6573 E0.0 
G1 X128.288 Y264.112 Z-22.657 E0.0 
G1 X128.34 Y264.024 Z-22.6567 E0.0 
G1 X128.392 Y263.936 Z-22.656399999999998 E0.0 
G1 X128.443 Y263.848 Z-22.656100000000002 E0.0 
G1 X128.494 Y263.759 Z-22.6558 E0.0 
G1 X128.546 Y263.671 Z-22.6555 E0.0 
G1 X128.597 Y263.583 Z-22.6552 E0.0 
G1 X128.649 Y263.495 Z-22.654899999999998 E0.0 
G1 X128.701 Y263.407 Z-22.654600000000002 E0.0 
G1 X128.752 Y263.319 Z-22.6544 E0.0 
G1 X128.803 Y263.231 Z-22.6541 E0.0 
G1 X128.855 Y263.143 Z-22.6538 E0.0 
G1 X128.906 Y263.055 Z-22.6535 E0.0 
G1 X128.958 Y262.966 Z-22.6533 E0.0 
G1 X129.01 Y262.878 Z-22.653 E0.0 
G1 X129.061 Y262.79 Z-22.6527 E0.0 
G1 X129.113 Y262.702 Z-22.6524 E0.0 
G1 X129.164 Y262.614 Z-22.6522 E0.0 
G1 X129.215 Y262.526 Z-22.651899999999998 E0.0 
G1 X129.267 Y262.438 Z-22.651600000000002 E0.0 
G1 X129.319 Y262.35 Z-22.651400000000002 E0.0 
G1 X129.37 Y262.262 Z-22.6511 E0.0 
G1 X129.422 Y262.174 Z-22.6509 E0.0 
G1 X129.473 Y262.085 Z-22.650599999999997 E0.0 
G1 X129.524 Y261.997 Z-22.650399999999998 E0.0 
G1 X129.576 Y261.909 Z-22.650100000000002 E0.0 
G1 X129.627 Y261.821 Z-22.6498 E0.0 
G1 X129.679 Y261.733 Z-22.6496 E0.0 
G1 X129.7 Y261.626 Z-22.6497 E0.0 
G1 X129.692 Y261.496 Z-22.650100000000002 E0.0 
G1 X129.643 Y261.333 Z-22.6511 E0.0 
G1 X129.605 Y261.24 Z-22.651699999999998 E0.0 
G1 X129.566 Y261.148 Z-22.6523 E0.0 
G1 X129.464 Y261.148 Z-22.6533 E0.0 
G1 X129.362 Y261.148 Z-22.6542 E0.0 
G1 X129.26 Y261.148 Z-22.6552 E0.0 
G1 X129.158 Y261.148 Z-22.6562 E0.0 
G1 X129.055 Y261.148 Z-22.6571 E0.0 
G1 X128.953 Y261.148 Z-22.658099999999997 E0.0 
G1 X128.851 Y261.148 Z-22.659100000000002 E0.0 
G1 X128.749 Y261.148 Z-22.6601 E0.0 
G1 X128.647 Y261.148 Z-22.661 E0.0 
G1 X128.545 Y261.148 Z-22.662 E0.0 
G1 X128.443 Y261.148 Z-22.663 E0.0 
G1 X128.341 Y261.148 Z-22.663899999999998 E0.0 
G1 X128.239 Y261.148 Z-22.6649 E0.0 
G1 X128.136 Y261.148 Z-22.6659 E0.0 
G1 X128.034 Y261.148 Z-22.666800000000002 E0.0 
G1 X127.932 Y261.148 Z-22.6678 E0.0 
G1 X127.83 Y261.148 Z-22.668799999999997 E0.0 
G1 X127.728 Y261.148 Z-22.669800000000002 E0.0 
G1 X127.626 Y261.148 Z-22.6707 E0.0 
G1 X127.524 Y261.148 Z-22.6717 E0.0 
G1 X127.422 Y261.148 Z-22.6727 E0.0 
G1 X127.32 Y261.148 Z-22.6736 E0.0 
G1 X127.217 Y261.148 Z-22.674599999999998 E0.0 
G1 X127.115 Y261.148 Z-22.6756 E0.0 
G1 X127.013 Y261.148 Z-22.676499999999997 E0.0 
G1 X126.911 Y261.148 Z-22.677500000000002 E0.0 
G1 X126.809 Y261.148 Z-22.6785 E0.0 
G1 X126.809 Y261.148 Z-21.5685 E0.0 
G1 X126.733 Y261.214 Z-21.5691 E0.0 
G1 X126.656 Y261.281 Z-21.5696 E0.0 
G1 X126.58 Y261.347 Z-21.5702 E0.0 
G1 X126.503 Y261.414 Z-21.5708 E0.0 
G1 X126.427 Y261.48 Z-21.5714 E0.0 
G1 X126.35 Y261.547 Z-21.572 E0.0 
G1 X126.274 Y261.613 Z-21.5726 E0.0 
G1 X126.197 Y261.68 Z-21.5732 E0.0 
G1 X126.121 Y261.746 Z-21.5738 E0.0 
G1 X126.044 Y261.813 Z-21.5744 E0.0 
G1 X125.968 Y261.879 Z-21.575 E0.0 
G1 X125.968 Y261.879 Z-22.685000000000002 E0.0 F200.0 
G1 X125.954 Y261.867 Z-22.6851 E0.0 F700.0 
G1 X125.823 Y261.855 Z-22.6864 E0.0 
G1 X125.693 Y261.843 Z-22.6877 E0.0 
G1 X125.562 Y261.831 Z-22.689 E0.0 
G1 X125.448 Y261.822 Z-22.6901 E0.0 
G1 X125.335 Y261.813 Z-22.691200000000002 E0.0 
G1 X125.211 Y261.821 Z-22.6924 E0.0 
G1 X125.174 Y261.838 Z-22.692700000000002 E0.0 
G1 X125.147 Y261.867 Z-22.6929 E0.0 
G1 X125.1 Y261.964 Z-22.693199999999997 E0.0 
G1 X125.066 Y262.061 Z-22.6933 E0.0 
G1 X125.069 Y262.092 Z-22.693199999999997 E0.0 
G1 X125.091 Y262.113 Z-22.692999999999998 E0.0 
G1 X125.21 Y262.136 Z-22.6918 E0.0 
G1 X125.332 Y262.142 Z-22.6906 E0.0 
G1 X125.454 Y262.147 Z-22.6894 E0.0 
G1 X125.58 Y262.145 Z-22.688200000000002 E0.0 
G1 X125.705 Y262.144 Z-22.686999999999998 E0.0 
G1 X125.831 Y262.142 Z-22.6857 E0.0 
G1 X125.894 Y262.103 Z-22.685200000000002 E0.0 
G1 X125.931 Y262.026 Z-22.685000000000002 E0.0 
G1 X125.968 Y261.879 Z-22.685000000000002 E0.0 
G1 X125.968 Y261.879 Z-21.575 E0.0 
G1 X125.92 Y261.985 Z-21.575200000000002 E0.0 
G1 X125.872 Y262.091 Z-21.575499999999998 E0.0 
G1 X125.823 Y262.197 Z-21.575699999999998 E0.0 
G1 X125.775 Y262.303 Z-21.576 E0.0 
G1 X125.727 Y262.409 Z-21.5762 E0.0 
G1 X125.727 Y262.409 Z-22.6862 E0.0 F200.0 
G1 X125.595 Y262.409 Z-22.6875 E0.0 
G1 X125.463 Y262.409 Z-22.6888 E0.0 
G1 X125.331 Y262.409 Z-22.6901 E0.0 F700.0 
G1 X125.221 Y262.411 Z-22.6911 E0.0 
G1 X125.11 Y262.412 Z-22.6922 E0.0 
G1 X124.984 Y262.428 Z-22.6934 E0.0 
G1 X124.919 Y262.467 Z-22.694 E0.0 
G1 X124.877 Y262.539 Z-22.694200000000002 E0.0 
G1 X124.844 Y262.645 Z-22.6944 E0.0 
G1 X124.847 Y262.716 Z-22.694200000000002 E0.0 
G1 X124.887 Y262.734 Z-22.6938 E0.0 
G1 X124.978 Y262.749 Z-22.6929 E0.0 
G1 X125.115 Y262.756 Z-22.691499999999998 E0.0 
G1 X125.252 Y262.763 Z-22.690199999999997 E0.0 
G1 X125.357 Y262.762 Z-22.6891 E0.0 
G1 X125.463 Y262.76 Z-22.6881 E0.0 
G1 X125.582 Y262.744 Z-22.686999999999998 E0.0 
G1 X125.642 Y262.705 Z-22.6864 E0.0 
G1 X125.678 Y262.633 Z-22.6862 E0.0 
G1 X125.727 Y262.457 Z-22.6861 E0.0 
G1 X125.727 Y262.409 Z-22.6862 E0.0 
G1 X125.727 Y262.409 Z-21.5762 E0.0 
G1 X125.687 Y262.507 Z-21.5764 E0.0 
G1 X125.647 Y262.604 Z-21.5766 E0.0 
G1 X125.608 Y262.702 Z-21.5768 E0.0 
G1 X125.568 Y262.8 Z-21.576999999999998 E0.0 
G1 X125.528 Y262.897 Z-21.577199999999998 E0.0 
G1 X125.488 Y262.995 Z-21.577399999999997 E0.0 
G1 X125.488 Y262.995 Z-22.6874 E0.0 F200.0 
G1 X125.358 Y262.973 Z-22.688699999999997 E0.0 F700.0 
G1 X125.222 Y262.969 Z-22.689999999999998 E0.0 
G1 X125.087 Y262.964 Z-22.6914 E0.0 
G1 X124.983 Y262.966 Z-22.6924 E0.0 
G1 X124.879 Y262.967 Z-22.6934 E0.0 
G1 X124.762 Y262.983 Z-22.6946 E0.0 
G1 X124.702 Y263.022 Z-22.6951 E0.0 
G1 X124.666 Y263.094 Z-22.6953 E0.0 
G1 X124.617 Y263.245 Z-22.6955 E0.0 
G1 X124.617 Y263.267 Z-22.6955 E0.0 
G1 X124.749 Y263.267 Z-22.694200000000002 E0.0 
G1 X124.881 Y263.267 Z-22.6929 E0.0 
G1 X125.013 Y263.267 Z-22.691499999999998 E0.0 
G1 X125.128 Y263.261 Z-22.6904 E0.0 
G1 X125.242 Y263.255 Z-22.6893 E0.0 
G1 X125.357 Y263.249 Z-22.688200000000002 E0.0 
G1 X125.423 Y263.212 Z-22.6876 E0.0 
G1 X125.463 Y263.146 Z-22.6873 E0.0 
G1 X125.493 Y263.051 Z-22.6872 E0.0 
G1 X125.488 Y262.995 Z-22.6874 E0.0 
G1 X125.488 Y262.995 Z-21.577399999999997 E0.0 
G1 X125.447 Y263.088 Z-21.5776 E0.0 
G1 X125.406 Y263.181 Z-21.5778 E0.0 
G1 X125.364 Y263.274 Z-21.5781 E0.0 
G1 X125.323 Y263.367 Z-21.5783 E0.0 
G1 X125.282 Y263.46 Z-21.5785 E0.0 
G1 X125.241 Y263.553 Z-21.578699999999998 E0.0 
G1 X125.241 Y263.553 Z-22.688699999999997 E0.0 F200.0 
G1 X125.124 Y263.525 Z-22.689999999999998 E0.0 F700.0 
G1 X125.01 Y263.522 Z-22.6911 E0.0 
G1 X124.896 Y263.519 Z-22.6922 E0.0 
G1 X124.79 Y263.525 Z-22.6933 E0.0 
G1 X124.684 Y263.531 Z-22.6943 E0.0 
G1 X124.578 Y263.537 Z-22.6954 E0.0 
G1 X124.508 Y263.566 Z-22.695999999999998 E0.0 
G1 X124.468 Y263.617 Z-22.6963 E0.0 
G1 X124.423 Y263.726 Z-22.6966 E0.0 
G1 X124.425 Y263.762 Z-22.6965 E0.0 
G1 X124.448 Y263.788 Z-22.696199999999997 E0.0 
G1 X124.564 Y263.815 Z-22.695 E0.0 
G1 X124.678 Y263.818 Z-22.6939 E0.0 
G1 X124.792 Y263.822 Z-22.692700000000002 E0.0 
G1 X124.898 Y263.816 Z-22.691699999999997 E0.0 
G1 X125.004 Y263.81 Z-22.6906 E0.0 
G1 X125.11 Y263.804 Z-22.6896 E0.0 
G1 X125.18 Y263.775 Z-22.6889 E0.0 
G1 X125.221 Y263.724 Z-22.6886 E0.0 
G1 X125.266 Y263.615 Z-22.6884 E0.0 
G1 X125.263 Y263.579 Z-22.688499999999998 E0.0 
G1 X125.241 Y263.553 Z-22.688699999999997 E0.0 
G1 X125.241 Y263.553 Z-21.578699999999998 E0.0 
G1 X125.309 Y263.629 Z-21.5779 E0.0 
G1 X125.376 Y263.706 Z-21.5771 E0.0 
G1 X125.444 Y263.782 Z-21.5763 E0.0 
G1 X125.512 Y263.858 Z-21.575400000000002 E0.0 
G1 X125.579 Y263.934 Z-21.5746 E0.0 
G1 X125.647 Y264.01 Z-21.5738 E0.0 
G1 X125.715 Y264.087 Z-21.5729 E0.0 
G1 X125.783 Y264.163 Z-21.5721 E0.0 
G1 X125.85 Y264.239 Z-21.5713 E0.0 
G1 X125.918 Y264.316 Z-21.5704 E0.0 
G1 X125.986 Y264.392 Z-21.5696 E0.0 
G1 X126.053 Y264.468 Z-21.5687 E0.0 
G1 X126.121 Y264.544 Z-21.5679 E0.0 
G1 X126.189 Y264.62 Z-21.567 E0.0 
G1 X126.257 Y264.697 Z-21.566200000000002 E0.0 
G1 X126.324 Y264.773 Z-21.5653 E0.0 
G1 X126.392 Y264.849 Z-21.564500000000002 E0.0 
G1 X126.46 Y264.926 Z-21.5636 E0.0 
G1 X126.527 Y265.002 Z-21.5628 E0.0 
G1 X126.595 Y265.078 Z-21.5619 E0.0 
G1 X126.595 Y265.078 Z-22.6719 E0.0 F200.0 
G1 X126.542 Y265.175 Z-22.6722 E0.0 
G1 X126.488 Y265.272 Z-22.6726 E0.0 
G1 X126.435 Y265.369 Z-22.6729 E0.0 
G1 X126.382 Y265.466 Z-22.673299999999998 E0.0 
G1 X126.328 Y265.563 Z-22.6736 E0.0 
G1 X126.275 Y265.66 Z-22.6739 E0.0 
G1 X126.222 Y265.757 Z-22.674300000000002 E0.0 
G1 X126.168 Y265.854 Z-22.674599999999998 E0.0 
G1 X126.115 Y265.951 Z-22.675 E0.0 F700.0 
G1 X126.064 Y266.043 Z-22.6753 E0.0 
G1 X126.014 Y266.136 Z-22.6757 E0.0 
G1 X125.963 Y266.228 Z-22.676000000000002 E0.0 
G1 X125.913 Y266.32 Z-22.676299999999998 E0.0 
G1 X125.862 Y266.413 Z-22.6767 E0.0 
G1 X125.812 Y266.505 Z-22.677 E0.0 
G1 X125.761 Y266.597 Z-22.6774 E0.0 
G1 X125.711 Y266.69 Z-22.6777 E0.0 
G1 X125.66 Y266.782 Z-22.6781 E0.0 
G1 X125.61 Y266.874 Z-22.6784 E0.0 
G1 X125.559 Y266.966 Z-22.6788 E0.0 
G1 X125.509 Y267.059 Z-22.6791 E0.0 
G1 X125.459 Y267.151 Z-22.679499999999997 E0.0 
G1 X125.408 Y267.243 Z-22.6798 E0.0 
G1 X125.358 Y267.336 Z-22.6802 E0.0 
G1 X125.307 Y267.428 Z-22.6806 E0.0 
G1 X125.252 Y267.529 Z-22.6809 E0.0 
G1 X125.197 Y267.63 Z-22.6813 E0.0 
G1 X125.142 Y267.731 Z-22.6817 E0.0 
G1 X125.088 Y267.832 Z-22.6819 E0.0 
G1 X125.033 Y267.933 Z-22.6822 E0.0 
G1 X124.978 Y268.034 Z-22.6824 E0.0 
G1 X124.877 Y268.035 Z-22.683500000000002 E0.0 
G1 X124.777 Y268.036 Z-22.6846 E0.0 
G1 X124.676 Y268.037 Z-22.6857 E0.0 
G1 X124.576 Y268.038 Z-22.686799999999998 E0.0 
G1 X124.475 Y268.039 Z-22.6879 E0.0 
G1 X124.375 Y268.04 Z-22.6889 E0.0 
G1 X124.274 Y268.041 Z-22.689999999999998 E0.0 
G1 X124.174 Y268.042 Z-22.6911 E0.0 
G1 X124.073 Y268.042 Z-22.6922 E0.0 
G1 X123.973 Y268.043 Z-22.6933 E0.0 
G1 X123.872 Y268.044 Z-22.6944 E0.0 
G1 X123.771 Y268.045 Z-22.6954 E0.0 
G1 X123.671 Y268.046 Z-22.6965 E0.0 
G1 X123.57 Y268.047 Z-22.6976 E0.0 
G1 X123.47 Y268.048 Z-22.698700000000002 E0.0 
G1 X123.369 Y268.049 Z-22.6998 E0.0 
G1 X123.269 Y268.05 Z-22.700899999999997 E0.0 
G1 X123.168 Y268.051 Z-22.701999999999998 E0.0 
G1 X123.068 Y268.052 Z-22.703 E0.0 
G1 X122.967 Y268.053 Z-22.7041 E0.0 
G1 X122.867 Y268.054 Z-22.705199999999998 E0.0 
G1 X122.766 Y268.055 Z-22.7063 E0.0 
G1 X122.665 Y268.056 Z-22.7074 E0.0 
G1 X122.565 Y268.057 Z-22.7085 E0.0 
G1 X122.464 Y268.058 Z-22.709600000000002 E0.0 
G1 X122.364 Y268.059 Z-22.7106 E0.0 
G1 X122.263 Y268.059 Z-22.7117 E0.0 
G1 X122.163 Y268.06 Z-22.7128 E0.0 
G1 X122.062 Y268.061 Z-22.713900000000002 E0.0 
G1 X121.962 Y268.062 Z-22.715 E0.0 
G1 X121.861 Y268.063 Z-22.716099999999997 E0.0 
G1 X121.76 Y268.064 Z-22.7172 E0.0 
G1 X121.66 Y268.065 Z-22.7182 E0.0 
G1 X121.559 Y268.066 Z-22.7193 E0.0 
G1 X121.459 Y268.067 Z-22.720399999999998 E0.0 
G1 X121.358 Y268.068 Z-22.7215 E0.0 
G1 X121.258 Y268.069 Z-22.7226 E0.0 
G1 X121.157 Y268.07 Z-22.7237 E0.0 
G1 X121.057 Y268.071 Z-22.724800000000002 E0.0 
G1 X120.956 Y268.072 Z-22.7259 E0.0 
G1 X120.856 Y268.073 Z-22.7269 E0.0 
G1 X120.755 Y268.074 Z-22.728 E0.0 
G1 X120.654 Y268.075 Z-22.7291 E0.0 
G1 X120.554 Y268.076 Z-22.7302 E0.0 
G1 X120.453 Y268.076 Z-22.731299999999997 E0.0 
G1 X120.353 Y268.077 Z-22.7324 E0.0 
G1 X120.252 Y268.078 Z-22.7335 E0.0 
G1 X120.152 Y268.079 Z-22.7345 E0.0 
G1 X120.051 Y268.08 Z-22.735599999999998 E0.0 
G1 X119.951 Y268.081 Z-22.7367 E0.0 
G1 X119.85 Y268.082 Z-22.7378 E0.0 
G1 X119.75 Y268.083 Z-22.7389 E0.0 
G1 X119.649 Y268.084 Z-22.740000000000002 E0.0 
G1 X119.661 Y268.281 Z-22.7394 E0.0 
G1 X119.678 Y268.429 Z-22.738799999999998 E0.0 
G1 X119.703 Y268.508 Z-22.738300000000002 E0.0 
G1 X119.733 Y268.538 Z-22.7379 E0.0 
G1 X119.833 Y268.539 Z-22.736800000000002 E0.0 
G1 X119.934 Y268.539 Z-22.7357 E0.0 
G1 X120.034 Y268.54 Z-22.7346 E0.0 
G1 X120.134 Y268.54 Z-22.7335 E0.0 
G1 X120.234 Y268.541 Z-22.7324 E0.0 
G1 X120.335 Y268.542 Z-22.7314 E0.0 
G1 X120.435 Y268.542 Z-22.7303 E0.0 
G1 X120.535 Y268.543 Z-22.7292 E0.0 
G1 X120.635 Y268.543 Z-22.728099999999998 E0.0 
G1 X120.736 Y268.544 Z-22.727 E0.0 
G1 X120.836 Y268.545 Z-22.7259 E0.0 
G1 X120.936 Y268.545 Z-22.724800000000002 E0.0 
G1 X121.036 Y268.546 Z-22.7237 E0.0 
G1 X121.137 Y268.547 Z-22.7226 E0.0 
G1 X121.237 Y268.547 Z-22.7215 E0.0 
G1 X121.337 Y268.548 Z-22.720399999999998 E0.0 
G1 X121.437 Y268.548 Z-22.7193 E0.0 
G1 X121.538 Y268.549 Z-22.7182 E0.0 
G1 X121.638 Y268.55 Z-22.717100000000002 E0.0 
G1 X121.738 Y268.55 Z-22.716 E0.0 
G1 X121.838 Y268.551 Z-22.7149 E0.0 
G1 X121.939 Y268.551 Z-22.7138 E0.0 
G1 X122.039 Y268.552 Z-22.712699999999998 E0.0 
G1 X122.139 Y268.553 Z-22.7116 E0.0 
G1 X122.239 Y268.553 Z-22.7105 E0.0 
G1 X122.34 Y268.554 Z-22.709400000000002 E0.0 
G1 X122.44 Y268.555 Z-22.7083 E0.0 
G1 X122.54 Y268.555 Z-22.7073 E0.0 
G1 X122.641 Y268.556 Z-22.7062 E0.0 
G1 X122.741 Y268.556 Z-22.7051 E0.0 
G1 X122.841 Y268.557 Z-22.704 E0.0 
G1 X122.941 Y268.558 Z-22.7029 E0.0 
G1 X123.042 Y268.558 Z-22.7018 E0.0 
G1 X123.142 Y268.559 Z-22.700699999999998 E0.0 
G1 X123.242 Y268.559 Z-22.6996 E0.0 
G1 X123.342 Y268.56 Z-22.6985 E0.0 
G1 X123.443 Y268.561 Z-22.697400000000002 E0.0 
G1 X123.543 Y268.561 Z-22.6963 E0.0 
G1 X123.643 Y268.562 Z-22.6952 E0.0 
G1 X123.743 Y268.562 Z-22.6941 E0.0 
G1 X123.844 Y268.563 Z-22.692999999999998 E0.0 
G1 X123.944 Y268.564 Z-22.6919 E0.0 
G1 X124.044 Y268.564 Z-22.6908 E0.0 
G1 X124.144 Y268.565 Z-22.689700000000002 E0.0 
G1 X124.245 Y268.566 Z-22.6886 E0.0 
G1 X124.345 Y268.566 Z-22.6875 E0.0 
G1 X124.445 Y268.567 Z-22.6864 E0.0 
G1 X124.545 Y268.567 Z-22.685299999999998 E0.0 
G1 X124.646 Y268.568 Z-22.6842 E0.0 
G1 X124.746 Y268.569 Z-22.6831 E0.0 
G1 X124.846 Y268.569 Z-22.682000000000002 E0.0 
G1 X124.946 Y268.57 Z-22.680999999999997 E0.0 
G1 X125.047 Y268.57 Z-22.6799 E0.0 
G1 X125.147 Y268.571 Z-22.6788 E0.0 
G1 X125.236 Y268.504 Z-22.677999999999997 E0.0 
G1 X125.324 Y268.437 Z-22.677300000000002 E0.0 
G1 X125.373 Y268.349 Z-22.6771 E0.0 
G1 X125.422 Y268.262 Z-22.6768 E0.0 
G1 X125.471 Y268.174 Z-22.6766 E0.0 
G1 X125.52 Y268.087 Z-22.6764 E0.0 
G1 X125.569 Y267.999 Z-22.676099999999998 E0.0 
G1 X125.618 Y267.911 Z-22.6759 E0.0 
G1 X125.668 Y267.824 Z-22.6757 E0.0 
G1 X125.717 Y267.736 Z-22.6755 E0.0 
G1 X125.766 Y267.649 Z-22.6752 E0.0 
G1 X125.815 Y267.561 Z-22.674799999999998 E0.0 
G1 X125.864 Y267.473 Z-22.674500000000002 E0.0 
G1 X125.913 Y267.386 Z-22.6742 E0.0 
G1 X125.962 Y267.298 Z-22.6738 E0.0 
G1 X126.011 Y267.211 Z-22.6735 E0.0 
G1 X126.06 Y267.123 Z-22.673099999999998 E0.0 
G1 X126.109 Y267.035 Z-22.672800000000002 E0.0 
G1 X126.158 Y266.948 Z-22.6724 E0.0 
G1 X126.207 Y266.86 Z-22.6721 E0.0 
G1 X126.256 Y266.773 Z-22.671799999999998 E0.0 
G1 X126.306 Y266.685 Z-22.6714 E0.0 
G1 X126.355 Y266.597 Z-22.6711 E0.0 
G1 X126.404 Y266.51 Z-22.6708 E0.0 
G1 X126.453 Y266.422 Z-22.6705 E0.0 
G1 X126.502 Y266.334 Z-22.670099999999998 E0.0 
G1 X126.551 Y266.247 Z-22.669800000000002 E0.0 
G1 X126.6 Y266.159 Z-22.6695 E0.0 
G1 X126.649 Y266.072 Z-22.6692 E0.0 
G1 X126.698 Y265.984 Z-22.668799999999997 E0.0 
G1 X126.747 Y265.896 Z-22.6685 E0.0 
G1 X126.796 Y265.809 Z-22.6682 E0.0 
G1 X126.845 Y265.721 Z-22.6679 E0.0 
G1 X126.895 Y265.634 Z-22.6676 E0.0 
G1 X126.944 Y265.546 Z-22.667299999999997 E0.0 
G1 X126.993 Y265.458 Z-22.667 E0.0 
G1 X127.042 Y265.371 Z-22.6667 E0.0 
G1 X127.091 Y265.283 Z-22.6663 E0.0 
G1 X127.14 Y265.196 Z-22.666 E0.0 
G1 X127.189 Y265.108 Z-22.6657 E0.0 
G1 X127.07 Y265.102 Z-22.667 E0.0 
G1 X126.951 Y265.096 Z-22.6682 E0.0 
G1 X126.833 Y265.09 Z-22.6694 E0.0 
G1 X126.714 Y265.084 Z-22.6707 E0.0 
G1 X126.595 Y265.078 Z-22.6719 E0.0 
G1 X126.595 Y265.078 Z-21.5619 E0.0 
G1 X126.528 Y265.152 Z-21.5624 E0.0 
G1 X126.461 Y265.227 Z-21.563000000000002 E0.0 
G1 X126.394 Y265.301 Z-21.563499999999998 E0.0 
G1 X126.327 Y265.376 Z-21.564 E0.0 
G1 X126.26 Y265.45 Z-21.5646 E0.0 
G1 X126.193 Y265.525 Z-21.5651 E0.0 
G1 X126.126 Y265.599 Z-21.5656 E0.0 
G1 X126.059 Y265.674 Z-21.566200000000002 E0.0 
G1 X125.992 Y265.748 Z-21.566699999999997 E0.0 
G1 X125.925 Y265.823 Z-21.5672 E0.0 
G1 X125.858 Y265.897 Z-21.5678 E0.0 
G1 X125.791 Y265.971 Z-21.5683 E0.0 
G1 X125.724 Y266.046 Z-21.5689 E0.0 
G1 X125.657 Y266.12 Z-21.5694 E0.0 
G1 X125.59 Y266.195 Z-21.57 E0.0 
G1 X125.522 Y266.269 Z-21.5705 E0.0 
G1 X125.455 Y266.344 Z-21.5711 E0.0 
G1 X125.388 Y266.418 Z-21.5717 E0.0 
G1 X125.321 Y266.493 Z-21.572200000000002 E0.0 
G1 X125.254 Y266.567 Z-21.5728 E0.0 
G1 X125.187 Y266.641 Z-21.5733 E0.0 
G1 X125.12 Y266.716 Z-21.573900000000002 E0.0 
G1 X125.053 Y266.79 Z-21.5745 E0.0 
G1 X124.986 Y266.865 Z-21.5751 E0.0 
G1 X124.919 Y266.939 Z-21.5756 E0.0 
G1 X124.852 Y267.014 Z-21.5762 E0.0 
G1 X124.785 Y267.088 Z-21.5768 E0.0 
G1 X124.718 Y267.163 Z-21.5773 E0.0 
G1 X124.651 Y267.237 Z-21.5779 E0.0 
G1 X124.584 Y267.312 Z-21.5785 E0.0 
G1 X124.517 Y267.386 Z-21.5791 E0.0 
G1 X124.517 Y267.386 Z-22.6891 E0.0 F200.0 
G1 X124.408 Y267.326 Z-22.6904 E0.0 F700.0 
G1 X124.264 Y267.289 Z-22.692 E0.0 
G1 X124.08 Y267.283 Z-22.6939 E0.0 
G1 X123.886 Y267.308 Z-22.695999999999998 E0.0 
G1 X123.716 Y267.373 Z-22.697699999999998 E0.0 
G1 X123.591 Y267.465 Z-22.698900000000002 E0.0 
G1 X123.541 Y267.53 Z-22.6993 E0.0 
G1 X123.526 Y267.574 Z-22.6994 E0.0 
G1 X123.548 Y267.613 Z-22.6991 E0.0 
G1 X123.61 Y267.666 Z-22.6984 E0.0 
G1 X123.71 Y267.72 Z-22.6971 E0.0 
G1 X123.841 Y267.75 Z-22.6956 E0.0 
G1 X123.99 Y267.758 Z-22.694 E0.0 
G1 X124.146 Y267.747 Z-22.6924 E0.0 
G1 X124.295 Y267.717 Z-22.6909 E0.0 
G1 X124.426 Y267.671 Z-22.6896 E0.0 
G1 X124.526 Y267.61 Z-22.6886 E0.0 
G1 X124.582 Y267.536 Z-22.6881 E0.0 
G1 X124.589 Y267.497 Z-22.6881 E0.0 
G1 X124.579 Y267.459 Z-22.688299999999998 E0.0 
G1 X124.517 Y267.386 Z-22.6891 E0.0 
G1 X124.517 Y267.386 Z-21.5791 E0.0 
G1 X124.448 Y267.308 Z-21.58 E0.0 
G1 X124.379 Y267.23 Z-21.5808 E0.0 
G1 X124.31 Y267.152 Z-21.581699999999998 E0.0 
G1 X124.241 Y267.074 Z-21.5826 E0.0 
G1 X124.173 Y266.996 Z-21.5835 E0.0 
G1 X124.104 Y266.918 Z-21.5843 E0.0 
G1 X124.035 Y266.84 Z-21.5852 E0.0 
G1 X123.966 Y266.762 Z-21.586 E0.0 
G1 X123.897 Y266.684 Z-21.5869 E0.0 
G1 X123.897 Y266.684 Z-22.6969 E0.0 F200.0 
G1 X123.908 Y266.659 Z-22.6968 E0.0 F700.0 
G1 X123.898 Y266.637 Z-22.697 E0.0 
G1 X123.818 Y266.607 Z-22.6979 E0.0 
G1 X123.662 Y266.596 Z-22.6995 E0.0 
G1 X123.477 Y266.611 Z-22.7015 E0.0 
G1 X123.381 Y266.647 Z-22.702399999999997 E0.0 
G1 X123.367 Y266.695 Z-22.7025 E0.0 
G1 X123.384 Y266.736 Z-22.702199999999998 E0.0 
G1 X123.426 Y266.768 Z-22.701700000000002 E0.0 
G1 X123.488 Y266.79 Z-22.7011 E0.0 
G1 X123.646 Y266.796 Z-22.6994 E0.0 
G1 X123.732 Y266.779 Z-22.6985 E0.0 
G1 X123.813 Y266.746 Z-22.697699999999998 E0.0 
G1 X123.897 Y266.684 Z-22.6969 E0.0 
G1 X123.897 Y266.684 Z-21.5869 E0.0 
G1 X123.844 Y266.56 Z-21.587699999999998 E0.0 
G1 X123.792 Y266.435 Z-21.5884 E0.0 
G1 X123.792 Y266.435 Z-22.6984 E0.0 F200.0 
G1 X123.944 Y266.402 Z-22.6969 E0.0 F700.0 
G1 X123.984 Y266.372 Z-22.6965 E0.0 
G1 X124.003 Y266.331 Z-22.6964 E0.0 
G1 X124.002 Y266.286 Z-22.6965 E0.0 
G1 X123.97 Y266.259 Z-22.6968 E0.0 
G1 X123.896 Y266.246 Z-22.6976 E0.0 
G1 X123.769 Y266.243 Z-22.698999999999998 E0.0 
G1 X123.57 Y266.261 Z-22.701 E0.0 
G1 X123.516 Y266.285 Z-22.7016 E0.0 
G1 X123.489 Y266.321 Z-22.7018 E0.0 
G1 X123.485 Y266.383 Z-22.701700000000002 E0.0 
G1 X123.534 Y266.423 Z-22.7012 E0.0 
G1 X123.636 Y266.44 Z-22.7001 E0.0 
G1 X123.792 Y266.435 Z-22.6984 E0.0 
G1 X123.792 Y266.435 Z-21.5884 E0.0 
G1 X123.811 Y266.325 Z-21.5884 E0.0 
G1 X123.83 Y266.216 Z-21.5884 E0.0 
G1 X123.849 Y266.106 Z-21.5884 E0.0 
G1 X123.849 Y266.106 Z-22.6984 E0.0 F200.0 
G1 X124.021 Y266.104 Z-22.6966 E0.0 F700.0 
G1 X124.08 Y266.088 Z-22.695999999999998 E0.0 
G1 X124.117 Y266.061 Z-22.6956 E0.0 
G1 X124.152 Y265.989 Z-22.6954 E0.0 
G1 X124.145 Y265.959 Z-22.6955 E0.0 
G1 X124.123 Y265.935 Z-22.6958 E0.0 
G1 X124.032 Y265.901 Z-22.6968 E0.0 
G1 X123.881 Y265.89 Z-22.6984 E0.0 
G1 X123.703 Y265.909 Z-22.700200000000002 E0.0 
G1 X123.652 Y265.933 Z-22.700699999999998 E0.0 
G1 X123.626 Y265.968 Z-22.700899999999997 E0.0 
G1 X123.609 Y266.03 Z-22.701 E0.0 
G1 X123.629 Y266.066 Z-22.700699999999998 E0.0 
G1 X123.703 Y266.088 Z-22.6999 E0.0 
G1 X123.849 Y266.106 Z-22.6984 E0.0 
G1 X123.849 Y266.106 Z-21.5884 E0.0 
G1 X123.842 Y265.997 Z-21.5886 E0.0 
G1 X123.834 Y265.889 Z-21.588900000000002 E0.0 
G1 X123.827 Y265.78 Z-21.589100000000002 E0.0 
G1 X123.827 Y265.78 Z-22.6991 E0.0 F200.0 
G1 X123.991 Y265.788 Z-22.697400000000002 E0.0 F700.0 
G1 X124.158 Y265.765 Z-22.695700000000002 E0.0 
G1 X124.223 Y265.742 Z-22.6951 E0.0 
G1 X124.265 Y265.712 Z-22.694699999999997 E0.0 
G1 X124.304 Y265.648 Z-22.6944 E0.0 
G1 X124.303 Y265.624 Z-22.694499999999998 E0.0 
G1 X124.287 Y265.604 Z-22.694699999999997 E0.0 
G1 X124.206 Y265.574 Z-22.6956 E0.0 
G1 X124.05 Y265.551 Z-22.697200000000002 E0.0 
G1 X123.866 Y265.549 Z-22.6991 E0.0 
G1 X123.808 Y265.57 Z-22.6997 E0.0 
G1 X123.766 Y265.605 Z-22.7001 E0.0 
G1 X123.729 Y265.676 Z-22.7003 E0.0 
G1 X123.733 Y265.736 Z-22.700200000000002 E0.0 
G1 X123.768 Y265.763 Z-22.6998 E0.0 
G1 X123.827 Y265.78 Z-22.6991 E0.0 
G1 X123.827 Y265.78 Z-21.589100000000002 E0.0 
G1 X123.764 Y265.691 Z-21.5899 E0.0 
G1 X123.701 Y265.602 Z-21.5907 E0.0 
G1 X123.638 Y265.513 Z-21.5915 E0.0 
G1 X123.576 Y265.425 Z-21.5923 E0.0 
G1 X123.513 Y265.336 Z-21.5931 E0.0 
G1 X123.45 Y265.247 Z-21.593899999999998 E0.0 
G1 X123.387 Y265.158 Z-21.5947 E0.0 
G1 X123.387 Y265.158 Z-22.7047 E0.0 F200.0 
G1 X123.439 Y265.071 Z-22.7043 E0.0 F700.0 
G1 X123.457 Y264.96 Z-22.7043 E0.0 
G1 X123.448 Y264.924 Z-22.7044 E0.0 
G1 X123.418 Y264.9 Z-22.7048 E0.0 
G1 X123.289 Y264.881 Z-22.7061 E0.0 
G1 X123.204 Y264.887 Z-22.707 E0.0 
G1 X123.143 Y264.908 Z-22.7076 E0.0 
G1 X123.098 Y264.948 Z-22.708 E0.0 
G1 X123.061 Y265.011 Z-22.7083 E0.0 
G1 X123.026 Y265.116 Z-22.7085 E0.0 
G1 X123.036 Y265.185 Z-22.7083 E0.0 
G1 X123.095 Y265.223 Z-22.7076 E0.0 
G1 X123.206 Y265.234 Z-22.706400000000002 E0.0 
G1 X123.308 Y265.214 Z-22.705399999999997 E0.0 
G1 X123.387 Y265.158 Z-22.7047 E0.0 
G1 X123.387 Y265.158 Z-21.5947 E0.0 
G1 X123.283 Y265.144 Z-21.5958 E0.0 
G1 X123.178 Y265.129 Z-21.596899999999998 E0.0 
G1 X123.074 Y265.115 Z-21.598 E0.0 
G1 X122.97 Y265.101 Z-21.5991 E0.0 
G1 X122.865 Y265.086 Z-21.6002 E0.0 
G1 X122.761 Y265.072 Z-21.6012 E0.0 
G1 X122.657 Y265.058 Z-21.6023 E0.0 
G1 X122.552 Y265.043 Z-21.6034 E0.0 
G1 X122.448 Y265.029 Z-21.6045 E0.0 
G1 X122.344 Y265.015 Z-21.6056 E0.0 
G1 X122.239 Y265.0 Z-21.6067 E0.0 
G1 X122.135 Y264.986 Z-21.607799999999997 E0.0 
G1 X122.135 Y264.986 Z-22.7178 E0.0 F200.0 
G1 X122.133 Y264.918 Z-22.7179 E0.0 F700.0 
G1 X122.08 Y264.888 Z-22.7185 E0.0 
G1 X121.971 Y264.881 Z-22.7196 E0.0 
G1 X121.888 Y264.887 Z-22.720399999999998 E0.0 
G1 X121.823 Y264.905 Z-22.7211 E0.0 
G1 X121.775 Y264.938 Z-22.7215 E0.0 
G1 X121.74 Y264.986 Z-22.7218 E0.0 
G1 X121.704 Y265.089 Z-22.722099999999998 E0.0 
G1 X121.72 Y265.167 Z-22.7218 E0.0 
G1 X121.783 Y265.217 Z-22.7211 E0.0 
G1 X121.893 Y265.234 Z-22.7199 E0.0 
G1 X121.97 Y265.228 Z-22.7192 E0.0 
G1 X122.025 Y265.207 Z-22.718600000000002 E0.0 
G1 X122.065 Y265.167 Z-22.7183 E0.0 
G1 X122.096 Y265.105 Z-22.718 E0.0 
G1 X122.135 Y264.986 Z-22.7178 E0.0 
G1 X122.135 Y264.986 Z-21.607799999999997 E0.0 
G1 X122.039 Y265.053 Z-21.6087 E0.0 
G1 X121.943 Y265.119 Z-21.6096 E0.0 
G1 X121.847 Y265.185 Z-21.610500000000002 E0.0 
G1 X121.752 Y265.252 Z-21.6114 E0.0 
G1 X121.656 Y265.318 Z-21.612299999999998 E0.0 
G1 X121.56 Y265.385 Z-21.6132 E0.0 
G1 X121.56 Y265.385 Z-22.7232 E0.0 F200.0 
G1 X121.477 Y265.448 Z-22.724 E0.0 
G1 X121.393 Y265.512 Z-22.724800000000002 E0.0 F700.0 
G1 X121.373 Y265.611 Z-22.724800000000002 E0.0 
G1 X121.354 Y265.71 Z-22.724899999999998 E0.0 
G1 X121.334 Y265.81 Z-22.725 E0.0 
G1 X121.315 Y265.909 Z-22.725099999999998 E0.0 
G1 X121.295 Y266.008 Z-22.7252 E0.0 
G1 X121.276 Y266.107 Z-22.7253 E0.0 
G1 X121.256 Y266.207 Z-22.7254 E0.0 
G1 X121.236 Y266.306 Z-22.7255 E0.0 
G1 X121.217 Y266.405 Z-22.7256 E0.0 
G1 X121.197 Y266.504 Z-22.7256 E0.0 
G1 X121.178 Y266.603 Z-22.7257 E0.0 
G1 X121.158 Y266.703 Z-22.7258 E0.0 
G1 X121.139 Y266.802 Z-22.7259 E0.0 
G1 X121.119 Y266.901 Z-22.726 E0.0 
G1 X121.243 Y267.025 Z-22.724600000000002 E0.0 
G1 X121.344 Y267.025 Z-22.7235 E0.0 
G1 X121.445 Y267.025 Z-22.7224 E0.0 
G1 X121.546 Y267.025 Z-22.7213 E0.0 
G1 X121.647 Y267.025 Z-22.7203 E0.0 
G1 X121.748 Y267.025 Z-22.7192 E0.0 
G1 X121.849 Y267.025 Z-22.7181 E0.0 
G1 X121.95 Y267.025 Z-22.717 E0.0 
G1 X122.051 Y267.025 Z-22.716 E0.0 
G1 X122.153 Y267.025 Z-22.7149 E0.0 
G1 X122.254 Y267.025 Z-22.7138 E0.0 
G1 X122.355 Y267.025 Z-22.712699999999998 E0.0 
G1 X122.456 Y267.025 Z-22.7117 E0.0 
G1 X122.557 Y267.025 Z-22.7106 E0.0 
G1 X122.658 Y267.025 Z-22.7095 E0.0 
G1 X122.759 Y267.025 Z-22.708399999999997 E0.0 
G1 X122.86 Y267.025 Z-22.7074 E0.0 
G1 X122.961 Y267.025 Z-22.7063 E0.0 
G1 X123.028 Y266.933 Z-22.7057 E0.0 
G1 X123.094 Y266.842 Z-22.705199999999998 E0.0 
G1 X123.127 Y266.744 Z-22.704900000000002 E0.0 
G1 X123.161 Y266.646 Z-22.7047 E0.0 
G1 X123.194 Y266.548 Z-22.7045 E0.0 
G1 X123.228 Y266.45 Z-22.7043 E0.0 
G1 X123.261 Y266.352 Z-22.7041 E0.0 
G1 X123.295 Y266.254 Z-22.703899999999997 E0.0 
G1 X123.328 Y266.156 Z-22.703699999999998 E0.0 
G1 X123.361 Y266.058 Z-22.7035 E0.0 
G1 X123.395 Y265.96 Z-22.7033 E0.0 
G1 X123.428 Y265.862 Z-22.703200000000002 E0.0 
G1 X123.462 Y265.764 Z-22.703 E0.0 
G1 X123.495 Y265.666 Z-22.7028 E0.0 
G1 X123.529 Y265.568 Z-22.7026 E0.0 
G1 X123.562 Y265.47 Z-22.702399999999997 E0.0 
G1 X123.432 Y265.387 Z-22.703899999999997 E0.0 
G1 X123.328 Y265.387 Z-22.704900000000002 E0.0 
G1 X123.224 Y265.387 Z-22.706 E0.0 
G1 X123.12 Y265.387 Z-22.7071 E0.0 
G1 X123.016 Y265.387 Z-22.708199999999998 E0.0 
G1 X122.912 Y265.386 Z-22.7092 E0.0 
G1 X122.808 Y265.386 Z-22.7103 E0.0 
G1 X122.704 Y265.386 Z-22.711399999999998 E0.0 
G1 X122.6 Y265.386 Z-22.7125 E0.0 
G1 X122.496 Y265.386 Z-22.7135 E0.0 
G1 X122.392 Y265.386 Z-22.714599999999997 E0.0 
G1 X122.288 Y265.386 Z-22.7157 E0.0 
G1 X122.184 Y265.386 Z-22.7167 E0.0 
G1 X122.08 Y265.386 Z-22.7178 E0.0 
G1 X121.976 Y265.385 Z-22.718899999999998 E0.0 
G1 X121.872 Y265.385 Z-22.72 E0.0 
G1 X121.768 Y265.385 Z-22.721 E0.0 
G1 X121.664 Y265.385 Z-22.722099999999998 E0.0 
G1 X121.56 Y265.385 Z-22.7232 E0.0 
G1 X121.56 Y265.385 Z-21.6132 E0.0 
G1 X121.658 Y265.355 Z-21.6122 E0.0 
G1 X121.757 Y265.325 Z-21.6112 E0.0 
G1 X121.855 Y265.294 Z-21.610300000000002 E0.0 
G1 X121.953 Y265.264 Z-21.609299999999998 E0.0 
G1 X122.052 Y265.234 Z-21.6083 E0.0 
G1 X122.15 Y265.204 Z-21.607300000000002 E0.0 
G1 X122.249 Y265.173 Z-21.6064 E0.0 
G1 X122.347 Y265.143 Z-21.6054 E0.0 
G1 X122.347 Y265.143 Z-22.715400000000002 E0.0 F200.0 
G1 X122.375 Y265.188 Z-22.715 E0.0 F700.0 
G1 X122.44 Y265.221 Z-22.7143 E0.0 
G1 X122.555 Y265.234 Z-22.713099999999997 E0.0 
G1 X122.668 Y265.209 Z-22.712 E0.0 
G1 X122.715 Y265.168 Z-22.7116 E0.0 
G1 X122.758 Y265.102 Z-22.711199999999998 E0.0 
G1 X122.803 Y264.984 Z-22.710900000000002 E0.0 
G1 X122.848 Y264.866 Z-22.7107 E0.0 
G1 X122.877 Y264.764 Z-22.7105 E0.0 
G1 X122.905 Y264.661 Z-22.7104 E0.0 
G1 X122.934 Y264.559 Z-22.7102 E0.0 
G1 X122.963 Y264.457 Z-22.7101 E0.0 
G1 X122.991 Y264.333 Z-22.71 E0.0 
G1 X123.018 Y264.208 Z-22.709899999999998 E0.0 
G1 X123.046 Y264.084 Z-22.7098 E0.0 
G1 X123.039 Y264.009 Z-22.71 E0.0 
G1 X123.003 Y263.969 Z-22.7104 E0.0 
G1 X122.927 Y263.922 Z-22.711199999999998 E0.0 
G1 X122.831 Y263.861 Z-22.7123 E0.0 
G1 X122.734 Y263.8 Z-22.7134 E0.0 
G1 X122.638 Y263.739 Z-22.714399999999998 E0.0 
G1 X122.541 Y263.677 Z-22.7155 E0.0 
G1 X122.445 Y263.616 Z-22.7165 E0.0 
G1 X122.348 Y263.555 Z-22.717599999999997 E0.0 
G1 X122.252 Y263.494 Z-22.718600000000002 E0.0 
G1 X122.151 Y263.432 Z-22.7197 E0.0 
G1 X122.05 Y263.37 Z-22.7208 E0.0 
G1 X121.95 Y263.308 Z-22.7218 E0.0 
G1 X121.849 Y263.246 Z-22.7229 E0.0 
G1 X121.699 Y263.17 Z-22.7245 E0.0 
G1 X121.56 Y263.119 Z-22.7259 E0.0 
G1 X121.413 Y263.088 Z-22.7274 E0.0 
G1 X121.243 Y263.072 Z-22.7291 E0.0 
G1 X121.122 Y263.07 Z-22.7303 E0.0 
G1 X121.001 Y263.068 Z-22.7315 E0.0 
G1 X120.881 Y263.067 Z-22.7327 E0.0 
G1 X120.76 Y263.065 Z-22.7339 E0.0 
G1 X120.658 Y263.065 Z-22.7349 E0.0 
G1 X120.556 Y263.065 Z-22.7359 E0.0 
G1 X120.454 Y263.065 Z-22.7369 E0.0 
G1 X120.351 Y263.065 Z-22.7379 E0.0 
G1 X120.249 Y263.065 Z-22.7389 E0.0 
G1 X120.147 Y263.065 Z-22.7399 E0.0 
G1 X120.045 Y263.065 Z-22.741 E0.0 
G1 X119.943 Y263.065 Z-22.741999999999997 E0.0 
G1 X119.909 Y263.099 Z-22.7423 E0.0 
G1 X119.886 Y263.157 Z-22.7424 E0.0 
G1 X119.876 Y263.25 Z-22.7425 E0.0 
G1 X119.876 Y263.368 Z-22.7424 E0.0 
G1 X119.982 Y263.368 Z-22.7413 E0.0 
G1 X120.088 Y263.368 Z-22.7402 E0.0 
G1 X120.194 Y263.368 Z-22.7392 E0.0 
G1 X120.301 Y263.368 Z-22.7381 E0.0 
G1 X120.407 Y263.368 Z-22.737099999999998 E0.0 
G1 X120.513 Y263.368 Z-22.736 E0.0 
G1 X120.619 Y263.368 Z-22.735 E0.0 
G1 X120.729 Y263.369 Z-22.7339 E0.0 
G1 X120.838 Y263.37 Z-22.732799999999997 E0.0 
G1 X120.948 Y263.372 Z-22.7317 E0.0 
G1 X121.058 Y263.373 Z-22.7306 E0.0 
G1 X121.201 Y263.393 Z-22.7292 E0.0 
G1 X121.344 Y263.413 Z-22.7277 E0.0 
G1 X121.469 Y263.455 Z-22.726399999999998 E0.0 
G1 X121.602 Y263.519 Z-22.725 E0.0 
G1 X121.691 Y263.571 Z-22.7241 E0.0 
G1 X121.779 Y263.623 Z-22.723100000000002 E0.0 
G1 X121.868 Y263.674 Z-22.7222 E0.0 
G1 X121.956 Y263.726 Z-22.7212 E0.0 
G1 X122.055 Y263.786 Z-22.7202 E0.0 
G1 X122.154 Y263.846 Z-22.719099999999997 E0.0 
G1 X122.253 Y263.906 Z-22.718 E0.0 
G1 X122.352 Y263.965 Z-22.717 E0.0 
G1 X122.451 Y264.025 Z-22.715899999999998 E0.0 
G1 X122.55 Y264.085 Z-22.7148 E0.0 
G1 X122.605 Y264.174 Z-22.714100000000002 E0.0 
G1 X122.579 Y264.271 Z-22.714199999999998 E0.0 
G1 X122.553 Y264.368 Z-22.714399999999998 E0.0 
G1 X122.528 Y264.465 Z-22.7145 E0.0 
G1 X122.502 Y264.562 Z-22.714599999999997 E0.0 
G1 X122.476 Y264.659 Z-22.7147 E0.0 
G1 X122.45 Y264.755 Z-22.7149 E0.0 
G1 X122.424 Y264.852 Z-22.715 E0.0 
G1 X122.399 Y264.949 Z-22.7151 E0.0 
G1 X122.373 Y265.046 Z-22.7153 E0.0 
G1 X122.347 Y265.143 Z-22.715400000000002 E0.0 
G1 X122.347 Y265.143 Z-21.6054 E0.0 
G1 X122.248 Y265.127 Z-21.6064 E0.0 
G1 X122.149 Y265.111 Z-21.6075 E0.0 
G1 X122.051 Y265.094 Z-21.6085 E0.0 
G1 X121.952 Y265.078 Z-21.6095 E0.0 
G1 X121.853 Y265.062 Z-21.610599999999998 E0.0 
G1 X121.754 Y265.046 Z-21.6116 E0.0 
G1 X121.655 Y265.029 Z-21.6126 E0.0 
G1 X121.556 Y265.013 Z-21.6137 E0.0 
G1 X121.458 Y264.997 Z-21.6147 E0.0 
G1 X121.359 Y264.981 Z-21.6157 E0.0 
G1 X121.26 Y264.965 Z-21.616799999999998 E0.0 
G1 X121.161 Y264.948 Z-21.6178 E0.0 
G1 X121.062 Y264.932 Z-21.6188 E0.0 
G1 X120.964 Y264.916 Z-21.6199 E0.0 
G1 X120.865 Y264.9 Z-21.6209 E0.0 
G1 X120.766 Y264.883 Z-21.6219 E0.0 
G1 X120.667 Y264.867 Z-21.6229 E0.0 
G1 X120.568 Y264.851 Z-21.624000000000002 E0.0 
G1 X120.469 Y264.835 Z-21.625 E0.0 
G1 X120.371 Y264.818 Z-21.625999999999998 E0.0 
G1 X120.272 Y264.802 Z-21.627000000000002 E0.0 
G1 X120.173 Y264.786 Z-21.6281 E0.0 
G1 X120.173 Y264.786 Z-22.7381 E0.0 F200.0 
G1 X120.106 Y264.857 Z-22.7387 E0.0 F700.0 
G1 X120.023 Y264.908 Z-22.7395 E0.0 
G1 X119.945 Y264.928 Z-22.740299999999998 E0.0 
G1 X119.862 Y264.918 Z-22.7411 E0.0 
G1 X119.768 Y264.878 Z-22.7421 E0.0 
G1 X119.721 Y264.848 Z-22.7426 E0.0 
G1 X119.7 Y264.82 Z-22.7429 E0.0 
G1 X119.702 Y264.789 Z-22.7429 E0.0 
G1 X119.727 Y264.751 Z-22.7426 E0.0 
G1 X119.803 Y264.703 Z-22.7419 E0.0 
G1 X119.912 Y264.682 Z-22.7408 E0.0 
G1 X120.028 Y264.692 Z-22.7396 E0.0 
G1 X120.128 Y264.731 Z-22.738599999999998 E0.0 
G1 X120.164 Y264.76 Z-22.7382 E0.0 
G1 X120.173 Y264.786 Z-22.7381 E0.0 
G1 X120.173 Y264.786 Z-21.6281 E0.0 
G1 X120.186 Y264.644 Z-21.6281 E0.0 
G1 X120.2 Y264.501 Z-21.6281 E0.0 
G1 X120.2 Y264.501 Z-22.7381 E0.0 F200.0 
G1 X120.084 Y264.49 Z-22.7393 E0.0 
G1 X119.967 Y264.48 Z-22.7404 E0.0 F700.0 
G1 X119.85 Y264.49 Z-22.7416 E0.0 
G1 X119.733 Y264.5 Z-22.7428 E0.0 
G1 X119.548 Y264.547 Z-22.7446 E0.0 
G1 X119.438 Y264.606 Z-22.7457 E0.0 
G1 X119.357 Y264.671 Z-22.746499999999997 E0.0 
G1 X119.307 Y264.741 Z-22.7469 E0.0 
G1 X119.286 Y264.812 Z-22.7471 E0.0 
G1 X119.296 Y264.882 Z-22.7469 E0.0 
G1 X119.336 Y264.95 Z-22.746499999999997 E0.0 
G1 X119.407 Y265.012 Z-22.7457 E0.0 
G1 X119.508 Y265.065 Z-22.7446 E0.0 
G1 X119.6 Y265.109 Z-22.7436 E0.0 
G1 X119.65 Y265.15 Z-22.7431 E0.0 
G1 X119.666 Y265.202 Z-22.7429 E0.0 
G1 X119.658 Y265.276 Z-22.7429 E0.0 
G1 X119.645 Y265.391 Z-22.7429 E0.0 
G1 X119.633 Y265.506 Z-22.743000000000002 E0.0 
G1 X119.62 Y265.62 Z-22.743000000000002 E0.0 
G1 X119.608 Y265.735 Z-22.743000000000002 E0.0 
G1 X119.595 Y265.85 Z-22.7431 E0.0 
G1 X119.587 Y265.976 Z-22.7431 E0.0 
G1 X119.578 Y266.103 Z-22.743000000000002 E0.0 
G1 X119.588 Y266.242 Z-22.7428 E0.0 
G1 X119.609 Y266.283 Z-22.7426 E0.0 
G1 X119.642 Y266.314 Z-22.7422 E0.0 
G1 X119.753 Y266.367 Z-22.741 E0.0 
G1 X119.871 Y266.405 Z-22.7397 E0.0 
G1 X120.02 Y266.427 Z-22.7381 E0.0 
G1 X120.135 Y266.429 Z-22.7369 E0.0 
G1 X120.249 Y266.431 Z-22.7357 E0.0 
G1 X120.363 Y266.432 Z-22.7345 E0.0 
G1 X120.478 Y266.434 Z-22.7333 E0.0 
G1 X120.584 Y266.431 Z-22.7322 E0.0 
G1 X120.69 Y266.428 Z-22.731099999999998 E0.0 
G1 X120.797 Y266.426 Z-22.7299 E0.0 
G1 X120.903 Y266.423 Z-22.7288 E0.0 
G1 X121.009 Y266.42 Z-22.7277 E0.0 
G1 X121.041 Y266.253 Z-22.727600000000002 E0.0 
G1 X120.934 Y266.245 Z-22.7287 E0.0 
G1 X120.827 Y266.237 Z-22.729799999999997 E0.0 
G1 X120.721 Y266.229 Z-22.731 E0.0 
G1 X120.614 Y266.221 Z-22.7321 E0.0 
G1 X120.507 Y266.213 Z-22.7332 E0.0 
G1 X120.4 Y266.205 Z-22.734299999999998 E0.0 
G1 X120.294 Y266.197 Z-22.735500000000002 E0.0 
G1 X120.187 Y266.189 Z-22.7366 E0.0 
G1 X120.08 Y266.181 Z-22.7377 E0.0 
G1 X120.028 Y266.118 Z-22.738300000000002 E0.0 
G1 X120.009 Y266.064 Z-22.738599999999998 E0.0 
G1 X120.005 Y265.963 Z-22.7387 E0.0 
G1 X120.017 Y265.845 Z-22.7387 E0.0 
G1 X120.028 Y265.728 Z-22.7387 E0.0 
G1 X120.04 Y265.61 Z-22.7387 E0.0 
G1 X120.06 Y265.481 Z-22.738599999999998 E0.0 
G1 X120.08 Y265.351 Z-22.738500000000002 E0.0 
G1 X120.121 Y265.207 Z-22.7382 E0.0 
G1 X120.188 Y265.128 Z-22.7376 E0.0 
G1 X120.305 Y265.061 Z-22.7364 E0.0 
G1 X120.406 Y265.002 Z-22.735500000000002 E0.0 
G1 X120.47 Y264.945 Z-22.7349 E0.0 
G1 X120.505 Y264.88 Z-22.7346 E0.0 
G1 X120.522 Y264.796 Z-22.7345 E0.0 
G1 X120.524 Y264.71 Z-22.7346 E0.0 
G1 X120.507 Y264.65 Z-22.7348 E0.0 
G1 X120.463 Y264.602 Z-22.735300000000002 E0.0 
G1 X120.386 Y264.556 Z-22.7361 E0.0 
G1 X120.2 Y264.501 Z-22.7381 E0.0 
G1 X120.2 Y264.501 Z-21.6281 E0.0 
G1 X120.239 Y264.6 Z-21.6276 E0.0 
G1 X120.279 Y264.7 Z-21.6271 E0.0 
G1 X120.318 Y264.799 Z-21.6266 E0.0 
G1 X120.357 Y264.898 Z-21.6261 E0.0 
G1 X120.396 Y264.998 Z-21.6256 E0.0 
G1 X120.436 Y265.097 Z-21.6251 E0.0 
G1 X120.475 Y265.197 Z-21.6246 E0.0 
G1 X120.514 Y265.296 Z-21.6241 E0.0 
G1 X120.553 Y265.395 Z-21.6236 E0.0 
G1 X120.593 Y265.495 Z-21.6231 E0.0 
G1 X120.632 Y265.594 Z-21.622500000000002 E0.0 
G1 X120.632 Y265.594 Z-22.7325 E0.0 F200.0 
G1 X120.537 Y265.648 Z-22.7335 E0.0 F700.0 
G1 X120.551 Y265.675 Z-22.7333 E0.0 
G1 X120.604 Y265.717 Z-22.7327 E0.0 
G1 X120.674 Y265.754 Z-22.7319 E0.0 
G1 X120.756 Y265.778 Z-22.731099999999998 E0.0 
G1 X120.931 Y265.786 Z-22.7292 E0.0 
G1 X121.076 Y265.746 Z-22.727800000000002 E0.0 
G1 X121.121 Y265.709 Z-22.7273 E0.0 
G1 X121.137 Y265.663 Z-22.7272 E0.0 
G1 X121.117 Y265.611 Z-22.7275 E0.0 
G1 X121.061 Y265.571 Z-22.728099999999998 E0.0 
G1 X120.975 Y265.547 Z-22.729 E0.0 
G1 X120.868 Y265.54 Z-22.7302 E0.0 
G1 X120.754 Y265.557 Z-22.731299999999997 E0.0 
G1 X120.632 Y265.594 Z-22.7325 E0.0 
G1 X120.632 Y265.594 Z-21.622500000000002 E0.0 
G1 X120.614 Y265.698 Z-21.6226 E0.0 
G1 X120.596 Y265.803 Z-21.622700000000002 E0.0 
G1 X120.578 Y265.907 Z-21.622799999999998 E0.0 
G1 X120.578 Y265.907 Z-22.732799999999997 E0.0 F200.0 
G1 X120.54 Y265.938 Z-22.7331 E0.0 F700.0 
G1 X120.531 Y265.993 Z-22.7332 E0.0 
G1 X120.539 Y266.048 Z-22.733 E0.0 
G1 X120.574 Y266.078 Z-22.732599999999998 E0.0 
G1 X120.654 Y266.087 Z-22.7318 E0.0 
G1 X120.796 Y266.082 Z-22.7303 E0.0 
G1 X120.902 Y266.067 Z-22.7292 E0.0 
G1 X121.008 Y266.051 Z-22.728099999999998 E0.0 
G1 X121.056 Y266.021 Z-22.7277 E0.0 
G1 X121.077 Y265.978 Z-22.7275 E0.0 
G1 X121.076 Y265.933 Z-22.727600000000002 E0.0 
G1 X121.04 Y265.906 Z-22.728 E0.0 
G1 X120.927 Y265.898 Z-22.7292 E0.0 
G1 X120.813 Y265.89 Z-22.7304 E0.0 
G1 X120.696 Y265.899 Z-22.7316 E0.0 
G1 X120.578 Y265.907 Z-22.732799999999997 E0.0 
G1 X120.578 Y265.907 Z-21.622799999999998 E0.0 
G1 X120.596 Y266.022 Z-21.622500000000002 E0.0 
G1 X120.613 Y266.137 Z-21.6222 E0.0 
G1 X120.63 Y266.251 Z-21.6219 E0.0 
G1 X120.648 Y266.366 Z-21.6216 E0.0 
G1 X120.665 Y266.481 Z-21.621299999999998 E0.0 
G1 X120.683 Y266.596 Z-21.621000000000002 E0.0 
G1 X120.683 Y266.596 Z-22.731 E0.0 F200.0 
G1 X120.507 Y266.606 Z-22.732799999999997 E0.0 F700.0 
G1 X120.414 Y266.629 Z-22.733800000000002 E0.0 
G1 X120.398 Y266.657 Z-22.7339 E0.0 
G1 X120.401 Y266.685 Z-22.7339 E0.0 
G1 X120.454 Y266.74 Z-22.7332 E0.0 
G1 X120.555 Y266.781 Z-22.7321 E0.0 
G1 X120.683 Y266.798 Z-22.730800000000002 E0.0 
G1 X120.811 Y266.781 Z-22.7294 E0.0 
G1 X120.911 Y266.74 Z-22.7284 E0.0 
G1 X120.964 Y266.685 Z-22.727899999999998 E0.0 
G1 X120.967 Y266.657 Z-22.727899999999998 E0.0 
G1 X120.951 Y266.629 Z-22.728099999999998 E0.0 
G1 X120.859 Y266.606 Z-22.7291 E0.0 
G1 X120.683 Y266.596 Z-22.731 E0.0 
G1 X120.683 Y266.596 Z-21.621000000000002 E0.0 
G1 X120.594 Y266.65 Z-21.6219 E0.0 
G1 X120.504 Y266.704 Z-21.622700000000002 E0.0 
G1 X120.415 Y266.758 Z-21.6236 E0.0 
G1 X120.326 Y266.812 Z-21.624499999999998 E0.0 
G1 X120.237 Y266.866 Z-21.6254 E0.0 
G1 X120.147 Y266.92 Z-21.6263 E0.0 
G1 X120.058 Y266.974 Z-21.627200000000002 E0.0 
G1 X119.969 Y267.028 Z-21.6281 E0.0 
G1 X119.879 Y267.082 Z-21.628999999999998 E0.0 
G1 X119.79 Y267.136 Z-21.6299 E0.0 
G1 X119.701 Y267.191 Z-21.6308 E0.0 
G1 X119.612 Y267.245 Z-21.631700000000002 E0.0 
G1 X119.522 Y267.299 Z-21.6326 E0.0 
G1 X119.433 Y267.353 Z-21.633499999999998 E0.0 
G1 X119.344 Y267.407 Z-21.6345 E0.0 
G1 X119.254 Y267.461 Z-21.6354 E0.0 
G1 X119.165 Y267.515 Z-21.6363 E0.0 
G1 X119.076 Y267.569 Z-21.6372 E0.0 
G1 X118.987 Y267.623 Z-21.6381 E0.0 
G1 X118.897 Y267.677 Z-21.6391 E0.0 
G1 X118.808 Y267.731 Z-21.639899999999997 E0.0 
G1 X118.808 Y267.731 Z-22.7499 E0.0 F200.0 
G1 X118.753 Y267.644 Z-22.7506 E0.0 
G1 X118.699 Y267.557 Z-22.7513 E0.0 
G1 X118.644 Y267.47 Z-22.7519 E0.0 
G1 X118.589 Y267.383 Z-22.7526 E0.0 
G1 X118.534 Y267.297 Z-22.7532 E0.0 
G1 X118.48 Y267.21 Z-22.7538 E0.0 
G1 X118.425 Y267.123 Z-22.7545 E0.0 
G1 X118.37 Y267.036 Z-22.7551 E0.0 
G1 X118.315 Y266.949 Z-22.755699999999997 E0.0 
G1 X118.261 Y266.862 Z-22.7564 E0.0 
G1 X118.206 Y266.775 Z-22.756999999999998 E0.0 
G1 X118.151 Y266.688 Z-22.7576 E0.0 
G1 X118.096 Y266.601 Z-22.7583 E0.0 
G1 X118.042 Y266.515 Z-22.7589 E0.0 
G1 X117.987 Y266.428 Z-22.7595 E0.0 
G1 X117.932 Y266.341 Z-22.7601 E0.0 
G1 X117.877 Y266.254 Z-22.7607 E0.0 
G1 X117.823 Y266.167 Z-22.761400000000002 E0.0 
G1 X117.768 Y266.08 Z-22.762 E0.0 
G1 X117.713 Y265.993 Z-22.7626 E0.0 
G1 X117.658 Y265.906 Z-22.763199999999998 E0.0 
G1 X117.604 Y265.819 Z-22.7638 E0.0 
G1 X117.549 Y265.733 Z-22.764400000000002 E0.0 
G1 X117.494 Y265.646 Z-22.765 E0.0 
G1 X117.439 Y265.559 Z-22.7656 E0.0 
G1 X117.385 Y265.472 Z-22.766199999999998 E0.0 
G1 X117.33 Y265.385 Z-22.7668 E0.0 F700.0 
G1 X117.253 Y265.385 Z-22.7675 E0.0 
G1 X117.253 Y265.485 Z-22.767400000000002 E0.0 
G1 X117.252 Y265.585 Z-22.767400000000002 E0.0 
G1 X117.252 Y265.685 Z-22.767400000000002 E0.0 
G1 X117.252 Y265.785 Z-22.7673 E0.0 
G1 X117.252 Y265.885 Z-22.7673 E0.0 
G1 X117.251 Y265.985 Z-22.7673 E0.0 
G1 X117.251 Y266.085 Z-22.7672 E0.0 
G1 X117.251 Y266.185 Z-22.7672 E0.0 
G1 X117.25 Y266.285 Z-22.7671 E0.0 
G1 X117.25 Y266.385 Z-22.7671 E0.0 
G1 X117.25 Y266.485 Z-22.7671 E0.0 
G1 X117.25 Y266.585 Z-22.767 E0.0 
G1 X117.249 Y266.685 Z-22.767 E0.0 
G1 X117.249 Y266.785 Z-22.767 E0.0 
G1 X117.249 Y266.885 Z-22.7669 E0.0 
G1 X117.248 Y266.985 Z-22.7669 E0.0 
G1 X117.248 Y267.085 Z-22.7669 E0.0 
G1 X117.248 Y267.185 Z-22.7668 E0.0 
G1 X117.248 Y267.285 Z-22.7668 E0.0 
G1 X117.247 Y267.385 Z-22.7667 E0.0 
G1 X117.247 Y267.485 Z-22.7667 E0.0 
G1 X117.247 Y267.585 Z-22.7667 E0.0 
G1 X117.246 Y267.685 Z-22.7666 E0.0 
G1 X117.246 Y267.785 Z-22.766399999999997 E0.0 
G1 X117.246 Y267.885 Z-22.766199999999998 E0.0 
G1 X117.246 Y267.985 Z-22.766 E0.0 
G1 X117.245 Y268.085 Z-22.7658 E0.0 
G1 X117.245 Y268.185 Z-22.7656 E0.0 
G1 X117.212 Y268.086 Z-22.7661 E0.0 
G1 X117.178 Y267.988 Z-22.7665 E0.0 
G1 X117.145 Y267.889 Z-22.7669 E0.0 
G1 X117.111 Y267.791 Z-22.767400000000002 E0.0 
G1 X117.078 Y267.692 Z-22.7678 E0.0 
G1 X117.044 Y267.594 Z-22.7681 E0.0 
G1 X117.011 Y267.495 Z-22.7683 E0.0 
G1 X116.977 Y267.397 Z-22.7686 E0.0 
G1 X116.944 Y267.298 Z-22.768900000000002 E0.0 
G1 X116.91 Y267.199 Z-22.7691 E0.0 
G1 X116.877 Y267.101 Z-22.769399999999997 E0.0 
G1 X116.843 Y267.002 Z-22.7696 E0.0 
G1 X116.809 Y266.904 Z-22.7699 E0.0 
G1 X116.776 Y266.805 Z-22.7702 E0.0 
G1 X116.743 Y266.707 Z-22.770400000000002 E0.0 
G1 X116.709 Y266.608 Z-22.770699999999998 E0.0 
G1 X116.658 Y266.517 Z-22.7711 E0.0 
G1 X116.607 Y266.425 Z-22.7714 E0.0 
G1 X116.552 Y266.51 Z-22.7718 E0.0 
G1 X116.498 Y266.595 Z-22.772100000000002 E0.0 
G1 X116.443 Y266.681 Z-22.7725 E0.0 
G1 X116.389 Y266.766 Z-22.7728 E0.0 
G1 X116.334 Y266.851 Z-22.7732 E0.0 
G1 X116.28 Y266.939 Z-22.7735 E0.0 
G1 X116.226 Y267.026 Z-22.7738 E0.0 
G1 X116.171 Y267.114 Z-22.7742 E0.0 
G1 X116.117 Y267.201 Z-22.7745 E0.0 
G1 X116.063 Y267.289 Z-22.774900000000002 E0.0 
G1 X116.009 Y267.376 Z-22.775199999999998 E0.0 
G1 X115.954 Y267.464 Z-22.775599999999997 E0.0 
G1 X115.9 Y267.551 Z-22.7759 E0.0 
G1 X115.846 Y267.639 Z-22.7763 E0.0 
G1 X115.792 Y267.73 Z-22.776600000000002 E0.0 
G1 X115.739 Y267.821 Z-22.7768 E0.0 
G1 X115.685 Y267.911 Z-22.777 E0.0 
G1 X115.631 Y268.002 Z-22.7772 E0.0 
G1 X115.683 Y268.091 Z-22.776699999999998 E0.0 
G1 X115.734 Y268.179 Z-22.7762 E0.0 
G1 X115.785 Y268.267 Z-22.7757 E0.0 
G1 X115.837 Y268.356 Z-22.775199999999998 E0.0 
G1 X115.888 Y268.445 Z-22.7746 E0.0 
G1 X115.94 Y268.533 Z-22.7741 E0.0 
G1 X115.992 Y268.622 Z-22.773600000000002 E0.0 
G1 X116.043 Y268.71 Z-22.7731 E0.0 
G1 X116.094 Y268.798 Z-22.7725 E0.0 
G1 X116.146 Y268.887 Z-22.772 E0.0 
G1 X116.198 Y268.976 Z-22.7715 E0.0 
G1 X116.249 Y269.064 Z-22.770899999999997 E0.0 
G1 X116.3 Y269.152 Z-22.770400000000002 E0.0 
G1 X116.352 Y269.241 Z-22.7699 E0.0 
G1 X116.404 Y269.329 Z-22.7693 E0.0 
G1 X116.455 Y269.418 Z-22.7688 E0.0 
G1 X116.507 Y269.507 Z-22.7682 E0.0 
G1 X116.558 Y269.595 Z-22.767699999999998 E0.0 
G1 X116.609 Y269.683 Z-22.7671 E0.0 
G1 X116.661 Y269.772 Z-22.7666 E0.0 
G1 X116.713 Y269.861 Z-22.766 E0.0 
G1 X116.764 Y269.949 Z-22.7655 E0.0 
G1 X116.816 Y270.037 Z-22.764899999999997 E0.0 
G1 X116.867 Y270.126 Z-22.764400000000002 E0.0 
G1 X116.918 Y270.214 Z-22.7638 E0.0 
G1 X116.97 Y270.303 Z-22.763199999999998 E0.0 
G1 X117.022 Y270.392 Z-22.762700000000002 E0.0 
G1 X117.073 Y270.48 Z-22.7621 E0.0 
G1 X117.124 Y270.568 Z-22.761499999999998 E0.0 
G1 X117.176 Y270.657 Z-22.761 E0.0 
G1 X117.176 Y270.762 Z-22.7607 E0.0 
G1 X117.176 Y270.867 Z-22.7605 E0.0 
G1 X117.176 Y270.971 Z-22.7603 E0.0 
G1 X117.176 Y271.076 Z-22.7601 E0.0 
G1 X117.176 Y271.181 Z-22.759900000000002 E0.0 
G1 X117.176 Y271.286 Z-22.7596 E0.0 
G1 X117.177 Y271.39 Z-22.7594 E0.0 
G1 X117.177 Y271.495 Z-22.7592 E0.0 
G1 X117.177 Y271.6 Z-22.759 E0.0 
G1 X117.177 Y271.705 Z-22.7588 E0.0 
G1 X117.177 Y271.809 Z-22.7586 E0.0 
G1 X117.177 Y271.914 Z-22.7583 E0.0 
G1 X117.177 Y272.019 Z-22.7581 E0.0 
G1 X117.125 Y271.931 Z-22.758699999999997 E0.0 
G1 X117.073 Y271.842 Z-22.7593 E0.0 
G1 X117.021 Y271.754 Z-22.759900000000002 E0.0 
G1 X116.969 Y271.665 Z-22.7605 E0.0 
G1 X116.917 Y271.577 Z-22.761 E0.0 
G1 X116.865 Y271.488 Z-22.7616 E0.0 
G1 X116.813 Y271.4 Z-22.7622 E0.0 
G1 X116.761 Y271.311 Z-22.7628 E0.0 
G1 X116.709 Y271.223 Z-22.763399999999997 E0.0 
G1 X116.657 Y271.134 Z-22.7639 E0.0 
G1 X116.605 Y271.046 Z-22.764499999999998 E0.0 
G1 X116.553 Y270.957 Z-22.7651 E0.0 
G1 X116.501 Y270.869 Z-22.7656 E0.0 
G1 X116.449 Y270.78 Z-22.766199999999998 E0.0 
G1 X116.397 Y270.692 Z-22.7667 E0.0 
G1 X116.345 Y270.603 Z-22.7673 E0.0 
G1 X116.293 Y270.515 Z-22.767899999999997 E0.0 
G1 X116.241 Y270.426 Z-22.7684 E0.0 
G1 X116.189 Y270.338 Z-22.769 E0.0 
G1 X116.137 Y270.249 Z-22.7695 E0.0 
G1 X116.085 Y270.161 Z-22.7701 E0.0 
G1 X116.033 Y270.072 Z-22.7706 E0.0 
G1 X115.981 Y269.984 Z-22.7712 E0.0 
G1 X115.929 Y269.895 Z-22.7717 E0.0 
G1 X115.877 Y269.807 Z-22.7723 E0.0 
G1 X115.825 Y269.718 Z-22.7728 E0.0 
G1 X115.773 Y269.63 Z-22.7733 E0.0 
G1 X115.721 Y269.541 Z-22.773899999999998 E0.0 
G1 X115.669 Y269.453 Z-22.7744 E0.0 
G1 X115.617 Y269.364 Z-22.774900000000002 E0.0 
G1 X115.565 Y269.276 Z-22.7755 E0.0 
G1 X115.552 Y269.295 Z-22.7755 E0.0 
G1 X115.548 Y269.405 Z-22.775399999999998 E0.0 
G1 X115.544 Y269.516 Z-22.775199999999998 E0.0 
G1 X115.54 Y269.626 Z-22.775 E0.0 
G1 X115.536 Y269.736 Z-22.774900000000002 E0.0 
G1 X115.532 Y269.846 Z-22.7747 E0.0 
G1 X115.528 Y269.957 Z-22.7746 E0.0 
G1 X115.524 Y270.067 Z-22.7744 E0.0 
G1 X115.52 Y270.177 Z-22.7742 E0.0 
G1 X115.518 Y270.279 Z-22.7741 E0.0 
G1 X115.516 Y270.38 Z-22.773899999999998 E0.0 
G1 X115.514 Y270.482 Z-22.7738 E0.0 
G1 X115.512 Y270.584 Z-22.773600000000002 E0.0 
G1 X115.51 Y270.685 Z-22.773400000000002 E0.0 
G1 X115.508 Y270.787 Z-22.7733 E0.0 
G1 X115.506 Y270.888 Z-22.7731 E0.0 
G1 X115.504 Y270.99 Z-22.773 E0.0 
G1 X115.502 Y271.092 Z-22.7728 E0.0 
G1 X115.5 Y271.193 Z-22.7726 E0.0 
G1 X115.498 Y271.295 Z-22.7725 E0.0 
G1 X115.496 Y271.397 Z-22.7723 E0.0 
G1 X115.494 Y271.498 Z-22.772199999999998 E0.0 
G1 X115.492 Y271.6 Z-22.772 E0.0 
G1 X115.49 Y271.701 Z-22.7718 E0.0 
G1 X115.488 Y271.803 Z-22.7717 E0.0 
G1 X115.488 Y271.909 Z-22.7715 E0.0 
G1 X115.488 Y272.015 Z-22.7713 E0.0 
G1 X115.488 Y272.121 Z-22.7711 E0.0 
G1 X115.487 Y272.228 Z-22.771 E0.0 
G1 X115.487 Y272.334 Z-22.7708 E0.0 
G1 X115.487 Y272.44 Z-22.7706 E0.0 
G1 X115.487 Y272.546 Z-22.770400000000002 E0.0 
G1 X115.367 Y272.607 Z-22.7713 E0.0 
G1 X115.248 Y272.669 Z-22.772100000000002 E0.0 
G1 X115.138 Y272.732 Z-22.7729 E0.0 
G1 X115.029 Y272.796 Z-22.773600000000002 E0.0 
G1 X114.919 Y272.859 Z-22.7744 E0.0 
G1 X114.83 Y272.926 Z-22.775 E0.0 
G1 X114.812 Y273.029 Z-22.775 E0.0 
G1 X114.795 Y273.133 Z-22.775 E0.0 
G1 X114.777 Y273.236 Z-22.774900000000002 E0.0 
G1 X114.759 Y273.34 Z-22.774900000000002 E0.0 
G1 X114.741 Y273.443 Z-22.774900000000002 E0.0 
G1 X114.724 Y273.547 Z-22.774900000000002 E0.0 
G1 X114.706 Y273.65 Z-22.774900000000002 E0.0 
G1 X114.688 Y273.754 Z-22.774900000000002 E0.0 
G1 X114.671 Y273.857 Z-22.7748 E0.0 
G1 X114.653 Y273.961 Z-22.7748 E0.0 
G1 X114.635 Y274.064 Z-22.7748 E0.0 
G1 X114.618 Y274.168 Z-22.7748 E0.0 
G1 X114.6 Y274.271 Z-22.7748 E0.0 
G1 X114.582 Y274.375 Z-22.7748 E0.0 
G1 X114.564 Y274.478 Z-22.7748 E0.0 
G1 X114.547 Y274.582 Z-22.7748 E0.0 
G1 X114.529 Y274.685 Z-22.7747 E0.0 
G1 X114.529 Y274.85 Z-22.7745 E0.0 
G1 X114.63 Y274.85 Z-22.773600000000002 E0.0 
G1 X114.731 Y274.85 Z-22.7728 E0.0 
G1 X114.832 Y274.85 Z-22.772 E0.0 
G1 X114.932 Y274.849 Z-22.7711 E0.0 
G1 X115.033 Y274.849 Z-22.7703 E0.0 
G1 X115.134 Y274.849 Z-22.769399999999997 E0.0 
G1 X115.235 Y274.849 Z-22.7686 E0.0 
G1 X115.336 Y274.849 Z-22.767699999999998 E0.0 
G1 X115.437 Y274.849 Z-22.7669 E0.0 
G1 X115.538 Y274.849 Z-22.766 E0.0 
G1 X115.639 Y274.849 Z-22.7652 E0.0 
G1 X115.739 Y274.848 Z-22.7643 E0.0 
G1 X115.84 Y274.848 Z-22.7635 E0.0 
G1 X115.941 Y274.848 Z-22.7626 E0.0 
G1 X116.042 Y274.848 Z-22.7618 E0.0 
G1 X116.143 Y274.848 Z-22.7609 E0.0 
G1 X116.244 Y274.848 Z-22.7601 E0.0 
G1 X116.345 Y274.848 Z-22.7592 E0.0 
G1 X116.446 Y274.848 Z-22.7584 E0.0 
G1 X116.546 Y274.847 Z-22.7575 E0.0 
G1 X116.647 Y274.847 Z-22.756700000000002 E0.0 
G1 X116.748 Y274.847 Z-22.7558 E0.0 
G1 X116.849 Y274.847 Z-22.755 E0.0 
G1 X116.95 Y274.847 Z-22.754199999999997 E0.0 
G1 X117.051 Y274.847 Z-22.7533 E0.0 
G1 X117.152 Y274.847 Z-22.752499999999998 E0.0 
G1 X117.253 Y274.847 Z-22.7516 E0.0 
G1 X117.353 Y274.846 Z-22.7506 E0.0 
G1 X117.454 Y274.846 Z-22.749299999999998 E0.0 
G1 X117.555 Y274.846 Z-22.7481 E0.0 
G1 X117.656 Y274.846 Z-22.7469 E0.0 
G1 X117.757 Y274.846 Z-22.7457 E0.0 
G1 X117.858 Y274.846 Z-22.744500000000002 E0.0 
G1 X117.959 Y274.846 Z-22.743299999999998 E0.0 
G1 X118.06 Y274.846 Z-22.7421 E0.0 
G1 X118.16 Y274.845 Z-22.7409 E0.0 
G1 X118.261 Y274.845 Z-22.7397 E0.0 
G1 X118.362 Y274.845 Z-22.738500000000002 E0.0 
G1 X118.463 Y274.845 Z-22.737299999999998 E0.0 
G1 X118.564 Y274.845 Z-22.7361 E0.0 
G1 X118.665 Y274.845 Z-22.7349 E0.0 
G1 X118.766 Y274.845 Z-22.7337 E0.0 
G1 X118.867 Y274.845 Z-22.7324 E0.0 
G1 X118.967 Y274.844 Z-22.7312 E0.0 
G1 X119.068 Y274.844 Z-22.73 E0.0 
G1 X119.169 Y274.844 Z-22.7288 E0.0 
G1 X119.27 Y274.844 Z-22.727600000000002 E0.0 
G1 X119.371 Y274.844 Z-22.726399999999998 E0.0 
G1 X119.472 Y274.844 Z-22.7252 E0.0 
G1 X119.573 Y274.844 Z-22.724 E0.0 
G1 X119.674 Y274.844 Z-22.7228 E0.0 
G1 X119.774 Y274.843 Z-22.721600000000002 E0.0 
G1 X119.875 Y274.843 Z-22.720399999999998 E0.0 
G1 X119.976 Y274.843 Z-22.7192 E0.0 
G1 X120.077 Y274.843 Z-22.718 E0.0 
G1 X120.077 Y274.758 Z-22.7182 E0.0 
G1 X120.06 Y274.656 Z-22.718600000000002 E0.0 
G1 X120.043 Y274.555 Z-22.719099999999997 E0.0 
G1 X120.026 Y274.453 Z-22.7196 E0.0 
G1 X120.009 Y274.352 Z-22.72 E0.0 
G1 X119.991 Y274.25 Z-22.7205 E0.0 
G1 X119.974 Y274.148 Z-22.721 E0.0 
G1 X119.957 Y274.047 Z-22.7214 E0.0 
G1 X119.94 Y273.945 Z-22.721899999999998 E0.0 
G1 X119.923 Y273.844 Z-22.7223 E0.0 
G1 X119.906 Y273.742 Z-22.7228 E0.0 
G1 X119.889 Y273.64 Z-22.723300000000002 E0.0 
G1 X119.872 Y273.539 Z-22.7237 E0.0 
G1 X119.855 Y273.437 Z-22.7242 E0.0 
G1 X119.837 Y273.335 Z-22.724600000000002 E0.0 
G1 X119.82 Y273.234 Z-22.725099999999998 E0.0 
G1 X119.803 Y273.132 Z-22.7256 E0.0 
G1 X119.786 Y273.031 Z-22.726 E0.0 
G1 X119.769 Y272.929 Z-22.7265 E0.0 
G1 X119.75 Y272.91 Z-22.7267 E0.0 
G1 X119.637 Y272.842 Z-22.7282 E0.0 
G1 X119.525 Y272.773 Z-22.7297 E0.0 
G1 X119.412 Y272.705 Z-22.7312 E0.0 
G1 X119.306 Y272.643 Z-22.732599999999998 E0.0 
G1 X119.2 Y272.582 Z-22.7339 E0.0 
G1 X119.094 Y272.52 Z-22.735300000000002 E0.0 
G1 X119.093 Y272.418 Z-22.735599999999998 E0.0 
G1 X119.092 Y272.316 Z-22.735799999999998 E0.0 
G1 X119.09 Y272.214 Z-22.7361 E0.0 
G1 X119.089 Y272.112 Z-22.7363 E0.0 
G1 X119.088 Y272.01 Z-22.7366 E0.0 
G1 X119.087 Y271.908 Z-22.7369 E0.0 
G1 X119.086 Y271.806 Z-22.737099999999998 E0.0 
G1 X119.085 Y271.704 Z-22.7374 E0.0 
G1 X119.083 Y271.602 Z-22.7376 E0.0 
G1 X119.082 Y271.5 Z-22.7379 E0.0 
G1 X119.081 Y271.398 Z-22.7382 E0.0 
G1 X119.08 Y271.296 Z-22.7384 E0.0 
G1 X119.079 Y271.194 Z-22.7387 E0.0 
G1 X119.077 Y271.092 Z-22.7389 E0.0 
G1 X119.076 Y270.99 Z-22.7392 E0.0 
G1 X119.075 Y270.888 Z-22.7395 E0.0 
G1 X119.074 Y270.786 Z-22.7397 E0.0 
G1 X119.073 Y270.684 Z-22.740000000000002 E0.0 
G1 X119.071 Y270.582 Z-22.7402 E0.0 
G1 X119.07 Y270.48 Z-22.740499999999997 E0.0 
G1 X119.069 Y270.378 Z-22.7407 E0.0 
G1 X119.068 Y270.277 Z-22.741 E0.0 
G1 X119.067 Y270.175 Z-22.7413 E0.0 
G1 X119.066 Y270.073 Z-22.741500000000002 E0.0 
G1 X119.064 Y269.971 Z-22.741799999999998 E0.0 
G1 X119.063 Y269.869 Z-22.741999999999997 E0.0 
G1 X119.062 Y269.767 Z-22.7423 E0.0 
G1 X119.061 Y269.665 Z-22.7426 E0.0 
G1 X119.06 Y269.563 Z-22.7428 E0.0 
G1 X119.058 Y269.461 Z-22.7431 E0.0 
G1 X119.057 Y269.359 Z-22.743299999999998 E0.0 
G1 X119.056 Y269.257 Z-22.7436 E0.0 
G1 X119.055 Y269.155 Z-22.7438 E0.0 
G1 X119.054 Y269.053 Z-22.7441 E0.0 
G1 X119.052 Y268.951 Z-22.7444 E0.0 
G1 X119.051 Y268.849 Z-22.7446 E0.0 
G1 X119.05 Y268.747 Z-22.7449 E0.0 
G1 X119.049 Y268.645 Z-22.7451 E0.0 
G1 X119.048 Y268.543 Z-22.7454 E0.0 
G1 X119.047 Y268.441 Z-22.7456 E0.0 
G1 X119.045 Y268.339 Z-22.7459 E0.0 
G1 X119.044 Y268.237 Z-22.7462 E0.0 
G1 X119.043 Y268.135 Z-22.7464 E0.0 
G1 X118.984 Y268.034 Z-22.7473 E0.0 
G1 X118.925 Y267.933 Z-22.7482 E0.0 
G1 X118.867 Y267.832 Z-22.749000000000002 E0.0 
G1 X118.808 Y267.731 Z-22.7499 E0.0 
G1 X118.808 Y267.731 Z-21.639899999999997 E0.0 
G1 X118.707 Y267.71 Z-21.641 E0.0 
G1 X118.607 Y267.688 Z-21.6422 E0.0 
G1 X118.506 Y267.667 Z-21.6433 E0.0 
G1 X118.405 Y267.645 Z-21.644399999999997 E0.0 
G1 X118.305 Y267.624 Z-21.6455 E0.0 
G1 X118.204 Y267.603 Z-21.6466 E0.0 
G1 X118.104 Y267.581 Z-21.6476 E0.0 
G1 X118.003 Y267.56 Z-21.648699999999998 E0.0 
G1 X117.902 Y267.538 Z-21.6498 E0.0 
G1 X117.802 Y267.517 Z-21.6509 E0.0 
G1 X117.701 Y267.496 Z-21.652 E0.0 
G1 X117.6 Y267.474 Z-21.653100000000002 E0.0 
G1 X117.5 Y267.453 Z-21.6542 E0.0 
G1 X117.399 Y267.431 Z-21.6553 E0.0 
G1 X117.298 Y267.41 Z-21.656399999999998 E0.0 
G1 X117.198 Y267.389 Z-21.6571 E0.0 
G1 X117.097 Y267.367 Z-21.6578 E0.0 
G1 X116.997 Y267.346 Z-21.6585 E0.0 
G1 X116.896 Y267.325 Z-21.6592 E0.0 
G1 X116.795 Y267.303 Z-21.6599 E0.0 
G1 X116.695 Y267.282 Z-21.660600000000002 E0.0 
G1 X116.594 Y267.26 Z-21.6613 E0.0 
G1 X116.493 Y267.239 Z-21.662 E0.0 
G1 X116.393 Y267.218 Z-21.6627 E0.0 
G1 X116.292 Y267.196 Z-21.6633 E0.0 
G1 X116.191 Y267.175 Z-21.664 E0.0 
G1 X116.091 Y267.153 Z-21.6647 E0.0 
G1 X115.99 Y267.132 Z-21.665399999999998 E0.0 
G1 X115.89 Y267.111 Z-21.6661 E0.0 
G1 X115.789 Y267.089 Z-21.666800000000002 E0.0 
G1 X115.688 Y267.068 Z-21.6675 E0.0 
G1 X115.588 Y267.046 Z-21.6682 E0.0 
G1 X115.487 Y267.025 Z-21.6689 E0.0 
G1 X115.487 Y267.025 Z-22.7789 E0.0 F200.0 
G1 X115.475 Y266.989 Z-22.779 E0.0 F700.0 
G1 X115.434 Y266.966 Z-22.7793 E0.0 
G1 X115.244 Y266.949 Z-22.7806 E0.0 
G1 X115.062 Y266.959 Z-22.7818 E0.0 
G1 X114.967 Y266.981 Z-22.7824 E0.0 
G1 X114.946 Y267.03 Z-22.782600000000002 E0.0 
G1 X114.987 Y267.068 Z-22.7823 E0.0 
G1 X115.086 Y267.092 Z-22.781599999999997 E0.0 
G1 X115.238 Y267.1 Z-22.7806 E0.0 
G1 X115.433 Y267.084 Z-22.7792 E0.0 
G1 X115.475 Y267.061 Z-22.779 E0.0 
G1 X115.487 Y267.025 Z-22.7789 E0.0 
G1 X115.487 Y267.025 Z-21.6689 E0.0 
G1 X115.459 Y266.915 Z-21.6691 E0.0 
G1 X115.431 Y266.804 Z-21.6693 E0.0 
G1 X115.431 Y266.804 Z-22.7793 E0.0 F200.0 
G1 X115.467 Y266.774 Z-22.7791 E0.0 F700.0 
G1 X115.48 Y266.745 Z-22.779 E0.0 
G1 X115.474 Y266.718 Z-22.779 E0.0 
G1 X115.448 Y266.695 Z-22.7792 E0.0 
G1 X115.344 Y266.66 Z-22.779899999999998 E0.0 
G1 X115.178 Y266.647 Z-22.781100000000002 E0.0 
G1 X115.076 Y266.655 Z-22.7817 E0.0 
G1 X114.974 Y266.663 Z-22.7824 E0.0 
G1 X114.943 Y266.69 Z-22.782600000000002 E0.0 
G1 X114.942 Y266.735 Z-22.782600000000002 E0.0 
G1 X114.963 Y266.77 Z-22.7825 E0.0 
G1 X115.009 Y266.799 Z-22.7822 E0.0 
G1 X115.148 Y266.836 Z-22.7812 E0.0 
G1 X115.306 Y266.841 Z-22.7802 E0.0 
G1 X115.431 Y266.804 Z-22.7793 E0.0 
G1 X115.431 Y266.804 Z-21.6693 E0.0 
G1 X115.4 Y266.704 Z-21.6695 E0.0 
G1 X115.368 Y266.605 Z-21.669800000000002 E0.0 
G1 X115.337 Y266.505 Z-21.67 E0.0 
G1 X115.337 Y266.505 Z-22.78 E0.0 F200.0 
G1 X115.398 Y266.474 Z-22.779600000000002 E0.0 F700.0 
G1 X115.427 Y266.432 Z-22.7794 E0.0 
G1 X115.426 Y266.386 Z-22.7794 E0.0 
G1 X115.39 Y266.36 Z-22.7797 E0.0 
G1 X115.274 Y266.352 Z-22.7804 E0.0 
G1 X115.159 Y266.344 Z-22.7812 E0.0 
G1 X115.044 Y266.352 Z-22.782 E0.0 
G1 X114.929 Y266.36 Z-22.7828 E0.0 
G1 X114.893 Y266.386 Z-22.783 E0.0 
G1 X114.892 Y266.432 Z-22.783 E0.0 
G1 X114.921 Y266.474 Z-22.7828 E0.0 
G1 X114.982 Y266.505 Z-22.7824 E0.0 
G1 X115.159 Y266.529 Z-22.7812 E0.0 
G1 X115.337 Y266.505 Z-22.78 E0.0 
G1 X115.337 Y266.505 Z-21.67 E0.0 
G1 X115.342 Y266.404 Z-21.67 E0.0 
G1 X115.348 Y266.303 Z-21.67 E0.0 
G1 X115.353 Y266.202 Z-21.6699 E0.0 
G1 X115.353 Y266.202 Z-22.779899999999998 E0.0 F200.0 
G1 X115.398 Y266.178 Z-22.779600000000002 E0.0 F700.0 
G1 X115.412 Y266.142 Z-22.779600000000002 E0.0 
G1 X115.397 Y266.106 Z-22.7797 E0.0 
G1 X115.347 Y266.08 Z-22.78 E0.0 
G1 X115.232 Y266.065 Z-22.7808 E0.0 
G1 X115.117 Y266.051 Z-22.781599999999997 E0.0 
G1 X114.996 Y266.053 Z-22.7824 E0.0 
G1 X114.875 Y266.054 Z-22.7832 E0.0 
G1 X114.841 Y266.079 Z-22.7834 E0.0 
G1 X114.841 Y266.127 Z-22.7834 E0.0 
G1 X114.861 Y266.172 Z-22.7833 E0.0 
G1 X114.908 Y266.2 Z-22.782899999999998 E0.0 
G1 X114.995 Y266.214 Z-22.7824 E0.0 
G1 X115.135 Y266.218 Z-22.781399999999998 E0.0 
G1 X115.244 Y266.21 Z-22.7807 E0.0 
G1 X115.353 Y266.202 Z-22.779899999999998 E0.0 
G1 X115.353 Y266.202 Z-21.6699 E0.0 
G1 X115.248 Y266.191 Z-21.6706 E0.0 
G1 X115.144 Y266.18 Z-21.6714 E0.0 
G1 X115.039 Y266.169 Z-21.6721 E0.0 
G1 X114.935 Y266.158 Z-21.672800000000002 E0.0 
G1 X114.83 Y266.147 Z-21.6735 E0.0 
G1 X114.726 Y266.136 Z-21.6742 E0.0 
G1 X114.621 Y266.125 Z-21.6749 E0.0 
G1 X114.621 Y266.125 Z-22.7849 E0.0 F200.0 
G1 X114.579 Y266.015 Z-22.7852 E0.0 F700.0 
G1 X114.521 Y265.94 Z-22.785600000000002 E0.0 
G1 X114.416 Y265.885 Z-22.7863 E0.0 
G1 X114.266 Y265.851 Z-22.787300000000002 E0.0 
G1 X114.075 Y265.839 Z-22.788600000000002 E0.0 
G1 X113.994 Y265.829 Z-22.789099999999998 E0.0 
G1 X113.94 Y265.767 Z-22.7895 E0.0 
G1 X113.891 Y265.606 Z-22.7898 E0.0 
G1 X113.869 Y265.503 Z-22.7899 E0.0 
G1 X113.847 Y265.4 Z-22.790100000000002 E0.0 
G1 X113.825 Y265.297 Z-22.7902 E0.0 
G1 X113.803 Y265.189 Z-22.790399999999998 E0.0 
G1 X113.78 Y265.08 Z-22.7905 E0.0 
G1 X113.758 Y264.972 Z-22.7907 E0.0 
G1 X113.735 Y264.863 Z-22.790799999999997 E0.0 
G1 X113.713 Y264.755 Z-22.791 E0.0 
G1 X113.688 Y264.646 Z-22.7911 E0.0 
G1 X113.691 Y264.582 Z-22.7911 E0.0 
G1 X113.746 Y264.514 Z-22.790799999999997 E0.0 
G1 X113.876 Y264.426 Z-22.7899 E0.0 
G1 X113.989 Y264.363 Z-22.7892 E0.0 
G1 X114.101 Y264.299 Z-22.7884 E0.0 
G1 X114.19 Y264.248 Z-22.7879 E0.0 
G1 X114.279 Y264.197 Z-22.787300000000002 E0.0 
G1 X114.367 Y264.147 Z-22.7867 E0.0 
G1 X114.456 Y264.096 Z-22.786099999999998 E0.0 
G1 X114.562 Y264.022 Z-22.7855 E0.0 
G1 X114.668 Y263.947 Z-22.7848 E0.0 
G1 X114.728 Y263.887 Z-22.784399999999998 E0.0 
G1 X114.76 Y263.833 Z-22.7842 E0.0 
G1 X114.768 Y263.783 Z-22.784100000000002 E0.0 
G1 X114.754 Y263.735 Z-22.7842 E0.0 
G1 X114.724 Y263.688 Z-22.784399999999998 E0.0 
G1 X114.688 Y263.663 Z-22.7847 E0.0 
G1 X114.64 Y263.658 Z-22.785 E0.0 
G1 X114.573 Y263.672 Z-22.7854 E0.0 
G1 X114.441 Y263.709 Z-22.7863 E0.0 
G1 X114.35 Y263.761 Z-22.7869 E0.0 
G1 X114.258 Y263.813 Z-22.787399999999998 E0.0 
G1 X114.167 Y263.866 Z-22.788 E0.0 
G1 X114.075 Y263.918 Z-22.788600000000002 E0.0 
G1 X113.984 Y263.97 Z-22.7892 E0.0 
G1 X113.892 Y264.023 Z-22.7898 E0.0 
G1 X113.801 Y264.075 Z-22.790399999999998 E0.0 
G1 X113.71 Y264.127 Z-22.791 E0.0 
G1 X113.618 Y264.179 Z-22.7916 E0.0 
G1 X113.527 Y264.231 Z-22.7922 E0.0 
G1 X113.435 Y264.284 Z-22.7928 E0.0 
G1 X113.344 Y264.336 Z-22.7934 E0.0 
G1 X113.216 Y264.457 Z-22.7942 E0.0 
G1 X113.237 Y264.561 Z-22.7941 E0.0 
G1 X113.258 Y264.664 Z-22.794 E0.0 
G1 X113.28 Y264.768 Z-22.793799999999997 E0.0 
G1 X113.301 Y264.872 Z-22.7937 E0.0 
G1 X113.322 Y264.976 Z-22.793599999999998 E0.0 
G1 X113.343 Y265.079 Z-22.7934 E0.0 
G1 X113.364 Y265.183 Z-22.793300000000002 E0.0 
G1 X113.385 Y265.287 Z-22.7931 E0.0 
G1 X113.406 Y265.391 Z-22.793 E0.0 
G1 X113.428 Y265.495 Z-22.7929 E0.0 
G1 X113.449 Y265.598 Z-22.7927 E0.0 
G1 X113.47 Y265.702 Z-22.7926 E0.0 
G1 X113.47 Y265.839 Z-22.7926 E0.0 
G1 X113.367 Y265.839 Z-22.793300000000002 E0.0 
G1 X113.263 Y265.839 Z-22.794 E0.0 
G1 X113.16 Y265.839 Z-22.7947 E0.0 
G1 X113.057 Y265.839 Z-22.7954 E0.0 
G1 X112.953 Y265.839 Z-22.7961 E0.0 
G1 X112.85 Y265.839 Z-22.796799999999998 E0.0 
G1 X112.747 Y265.839 Z-22.7974 E0.0 
G1 X112.644 Y265.839 Z-22.798099999999998 E0.0 
G1 X112.54 Y265.839 Z-22.7988 E0.0 
G1 X112.437 Y265.839 Z-22.799500000000002 E0.0 
G1 X112.334 Y265.839 Z-22.8002 E0.0 
G1 X112.23 Y265.839 Z-22.8009 E0.0 
G1 X112.127 Y265.839 Z-22.8016 E0.0 
G1 X112.035 Y265.906 Z-22.8022 E0.0 
G1 X111.943 Y265.974 Z-22.802799999999998 E0.0 
G1 X111.974 Y266.07 Z-22.8027 E0.0 
G1 X112.006 Y266.166 Z-22.802500000000002 E0.0 
G1 X112.037 Y266.262 Z-22.802300000000002 E0.0 
G1 X112.069 Y266.358 Z-22.8021 E0.0 
G1 X112.1 Y266.454 Z-22.8019 E0.0 
G1 X112.131 Y266.55 Z-22.8017 E0.0 
G1 X112.163 Y266.646 Z-22.801499999999997 E0.0 
G1 X112.194 Y266.742 Z-22.801299999999998 E0.0 
G1 X112.226 Y266.838 Z-22.801099999999998 E0.0 
G1 X112.257 Y266.934 Z-22.8009 E0.0 
G1 X112.289 Y267.03 Z-22.8007 E0.0 
G1 X112.32 Y267.126 Z-22.8005 E0.0 
G1 X112.421 Y267.214 Z-22.799799999999998 E0.0 
G1 X112.522 Y267.302 Z-22.7991 E0.0 
G1 X112.624 Y267.302 Z-22.7984 E0.0 
G1 X112.726 Y267.302 Z-22.7977 E0.0 
G1 X112.829 Y267.302 Z-22.797 E0.0 
G1 X112.931 Y267.302 Z-22.796300000000002 E0.0 
G1 X113.033 Y267.302 Z-22.7956 E0.0 
G1 X113.135 Y267.302 Z-22.7949 E0.0 
G1 X113.237 Y267.302 Z-22.7942 E0.0 
G1 X113.34 Y267.302 Z-22.7935 E0.0 
G1 X113.442 Y267.302 Z-22.7928 E0.0 
G1 X113.544 Y267.302 Z-22.792099999999998 E0.0 
G1 X113.646 Y267.302 Z-22.7914 E0.0 
G1 X113.748 Y267.302 Z-22.7907 E0.0 
G1 X113.85 Y267.302 Z-22.79 E0.0 
G1 X113.953 Y267.302 Z-22.789299999999997 E0.0 
G1 X114.055 Y267.302 Z-22.788600000000002 E0.0 
G1 X114.157 Y267.302 Z-22.7879 E0.0 
G1 X114.259 Y267.302 Z-22.7872 E0.0 
G1 X114.361 Y267.302 Z-22.7865 E0.0 
G1 X114.464 Y267.302 Z-22.785800000000002 E0.0 
G1 X114.566 Y267.302 Z-22.7851 E0.0 
G1 X114.668 Y267.302 Z-22.784399999999998 E0.0 
G1 X114.776 Y267.172 Z-22.7837 E0.0 
G1 X114.76 Y267.067 Z-22.7838 E0.0 
G1 X114.745 Y266.963 Z-22.784 E0.0 
G1 X114.73 Y266.858 Z-22.784100000000002 E0.0 
G1 X114.714 Y266.753 Z-22.7842 E0.0 
G1 X114.698 Y266.649 Z-22.7843 E0.0 
G1 X114.683 Y266.544 Z-22.784399999999998 E0.0 
G1 X114.667 Y266.439 Z-22.7845 E0.0 
G1 X114.652 Y266.334 Z-22.784599999999998 E0.0 
G1 X114.636 Y266.23 Z-22.7848 E0.0 
G1 X114.621 Y266.125 Z-22.7849 E0.0 
G1 X114.621 Y266.125 Z-21.6749 E0.0 
G1 X114.675 Y266.039 Z-21.674500000000002 E0.0 
G1 X114.73 Y265.954 Z-21.6742 E0.0 
G1 X114.784 Y265.868 Z-21.6738 E0.0 
G1 X114.838 Y265.783 Z-21.6735 E0.0 
G1 X114.892 Y265.697 Z-21.673099999999998 E0.0 
G1 X114.947 Y265.612 Z-21.672800000000002 E0.0 
G1 X115.001 Y265.526 Z-21.6724 E0.0 
G1 X115.055 Y265.441 Z-21.6721 E0.0 
G1 X115.109 Y265.355 Z-21.6717 E0.0 
G1 X115.164 Y265.27 Z-21.6714 E0.0 
G1 X115.218 Y265.184 Z-21.671 E0.0 
G1 X115.272 Y265.099 Z-21.6707 E0.0 
G1 X115.326 Y265.013 Z-21.670299999999997 E0.0 
G1 X115.381 Y264.928 Z-21.67 E0.0 
G1 X115.435 Y264.842 Z-21.6696 E0.0 
G1 X115.435 Y264.842 Z-22.779600000000002 E0.0 F200.0 
G1 X115.405 Y264.806 Z-22.7798 E0.0 F700.0 
G1 X115.389 Y264.744 Z-22.78 E0.0 
G1 X115.393 Y264.706 Z-22.779899999999998 E0.0 
G1 X115.454 Y264.68 Z-22.7795 E0.0 
G1 X115.556 Y264.661 Z-22.7789 E0.0 
G1 X115.667 Y264.655 Z-22.7782 E0.0 
G1 X115.755 Y264.663 Z-22.7776 E0.0 
G1 X115.815 Y264.705 Z-22.7772 E0.0 
G1 X115.83 Y264.772 Z-22.777099999999997 E0.0 
G1 X115.807 Y264.812 Z-22.7772 E0.0 
G1 X115.76 Y264.843 Z-22.7775 E0.0 
G1 X115.626 Y264.876 Z-22.778399999999998 E0.0 
G1 X115.487 Y264.865 Z-22.7793 E0.0 
G1 X115.435 Y264.842 Z-22.779600000000002 E0.0 
G1 X115.435 Y264.842 Z-21.6696 E0.0 
G1 X115.429 Y264.955 Z-21.6697 E0.0 
G1 X115.423 Y265.068 Z-21.6697 E0.0 
G1 X115.423 Y265.068 Z-22.7797 E0.0 F200.0 
G1 X115.526 Y265.076 Z-22.779 E0.0 
G1 X115.629 Y265.083 Z-22.7783 E0.0 F700.0 
G1 X115.759 Y265.074 Z-22.7775 E0.0 
G1 X115.889 Y265.064 Z-22.776600000000002 E0.0 
G1 X115.986 Y265.037 Z-22.776 E0.0 
G1 X116.082 Y265.01 Z-22.7753 E0.0 
G1 X116.152 Y264.971 Z-22.774900000000002 E0.0 
G1 X116.203 Y264.923 Z-22.7746 E0.0 
G1 X116.234 Y264.868 Z-22.7744 E0.0 
G1 X116.244 Y264.806 Z-22.7743 E0.0 
G1 X116.233 Y264.718 Z-22.7744 E0.0 
G1 X116.191 Y264.645 Z-22.7747 E0.0 
G1 X116.103 Y264.569 Z-22.7753 E0.0 
G1 X115.954 Y264.475 Z-22.7763 E0.0 
G1 X115.869 Y264.418 Z-22.776899999999998 E0.0 
G1 X115.819 Y264.36 Z-22.7772 E0.0 
G1 X115.796 Y264.284 Z-22.7774 E0.0 
G1 X115.79 Y264.176 Z-22.7775 E0.0 
G1 X115.79 Y264.075 Z-22.7775 E0.0 
G1 X115.79 Y263.973 Z-22.7775 E0.0 
G1 X115.891 Y263.973 Z-22.7768 E0.0 
G1 X115.992 Y263.973 Z-22.7762 E0.0 
G1 X116.093 Y263.973 Z-22.7755 E0.0 
G1 X116.194 Y263.973 Z-22.774900000000002 E0.0 
G1 X116.294 Y263.973 Z-22.7742 E0.0 
G1 X116.395 Y263.973 Z-22.773600000000002 E0.0 
G1 X116.496 Y263.973 Z-22.7729 E0.0 
G1 X116.597 Y263.973 Z-22.7723 E0.0 
G1 X116.698 Y263.973 Z-22.7716 E0.0 
G1 X116.799 Y263.973 Z-22.771 E0.0 
G1 X116.9 Y263.973 Z-22.7703 E0.0 
G1 X117.001 Y263.973 Z-22.7697 E0.0 
G1 X117.102 Y263.973 Z-22.769 E0.0 
G1 X117.202 Y263.973 Z-22.7683 E0.0 
G1 X117.303 Y263.973 Z-22.767699999999998 E0.0 
G1 X117.404 Y263.973 Z-22.7666 E0.0 
G1 X117.505 Y263.973 Z-22.7656 E0.0 
G1 X117.606 Y263.973 Z-22.7646 E0.0 
G1 X117.707 Y263.973 Z-22.7636 E0.0 
G1 X117.808 Y263.973 Z-22.7626 E0.0 
G1 X117.909 Y263.973 Z-22.7616 E0.0 
G1 X118.009 Y263.973 Z-22.7606 E0.0 
G1 X118.11 Y263.973 Z-22.7596 E0.0 
G1 X118.211 Y263.973 Z-22.758499999999998 E0.0 
G1 X118.312 Y263.973 Z-22.7575 E0.0 
G1 X118.413 Y263.973 Z-22.7565 E0.0 
G1 X118.514 Y263.973 Z-22.755499999999998 E0.0 
G1 X118.615 Y263.973 Z-22.7545 E0.0 
G1 X118.716 Y263.973 Z-22.7535 E0.0 
G1 X118.817 Y263.973 Z-22.752499999999998 E0.0 
G1 X118.917 Y263.973 Z-22.7514 E0.0 
G1 X119.018 Y263.973 Z-22.7504 E0.0 
G1 X119.119 Y263.973 Z-22.7494 E0.0 
G1 X119.22 Y263.973 Z-22.7484 E0.0 
G1 X119.321 Y263.973 Z-22.7474 E0.0 
G1 X119.411 Y263.883 Z-22.7466 E0.0 
G1 X119.501 Y263.793 Z-22.7457 E0.0 
G1 X119.513 Y263.689 Z-22.7457 E0.0 
G1 X119.525 Y263.585 Z-22.7457 E0.0 
G1 X119.537 Y263.481 Z-22.7456 E0.0 
G1 X119.549 Y263.377 Z-22.7456 E0.0 
G1 X119.561 Y263.273 Z-22.7456 E0.0 
G1 X119.573 Y263.169 Z-22.7455 E0.0 
G1 X119.585 Y263.065 Z-22.7455 E0.0 
G1 X119.597 Y262.961 Z-22.7455 E0.0 
G1 X119.609 Y262.857 Z-22.7454 E0.0 
G1 X119.621 Y262.753 Z-22.7454 E0.0 
G1 X119.633 Y262.649 Z-22.7454 E0.0 
G1 X119.645 Y262.545 Z-22.7453 E0.0 
G1 X119.657 Y262.441 Z-22.7453 E0.0 
G1 X119.669 Y262.337 Z-22.7453 E0.0 
G1 X119.681 Y262.233 Z-22.7453 E0.0 
G1 X119.705 Y262.147 Z-22.7451 E0.0 
G1 X119.707 Y262.106 Z-22.7451 E0.0 
G1 X119.692 Y262.056 Z-22.7453 E0.0 
G1 X119.626 Y261.958 Z-22.746000000000002 E0.0 
G1 X119.523 Y261.855 Z-22.7471 E0.0 
G1 X119.421 Y261.855 Z-22.7481 E0.0 
G1 X119.319 Y261.855 Z-22.7491 E0.0 
G1 X119.217 Y261.855 Z-22.7501 E0.0 
G1 X119.115 Y261.855 Z-22.750999999999998 E0.0 
G1 X119.013 Y261.855 Z-22.752000000000002 E0.0 
G1 X118.911 Y261.855 Z-22.753 E0.0 
G1 X118.809 Y261.855 Z-22.753999999999998 E0.0 
G1 X118.707 Y261.855 Z-22.755 E0.0 
G1 X118.605 Y261.855 Z-22.756 E0.0 
G1 X118.503 Y261.855 Z-22.7569 E0.0 
G1 X118.4 Y261.855 Z-22.7579 E0.0 
G1 X118.298 Y261.855 Z-22.7589 E0.0 
G1 X118.196 Y261.855 Z-22.759900000000002 E0.0 
G1 X118.094 Y261.855 Z-22.7609 E0.0 
G1 X117.992 Y261.855 Z-22.7618 E0.0 
G1 X117.89 Y261.855 Z-22.7628 E0.0 
G1 X117.788 Y261.855 Z-22.7638 E0.0 
G1 X117.686 Y261.855 Z-22.7648 E0.0 
G1 X117.584 Y261.855 Z-22.7658 E0.0 
G1 X117.482 Y261.855 Z-22.7668 E0.0 
G1 X117.38 Y261.855 Z-22.767699999999998 E0.0 
G1 X117.278 Y261.855 Z-22.7687 E0.0 
G1 X117.176 Y261.855 Z-22.7693 E0.0 
G1 X117.074 Y261.855 Z-22.77 E0.0 
G1 X116.972 Y261.855 Z-22.7706 E0.0 
G1 X116.87 Y261.855 Z-22.7712 E0.0 
G1 X116.768 Y261.855 Z-22.771900000000002 E0.0 
G1 X116.666 Y261.855 Z-22.7725 E0.0 
G1 X116.564 Y261.855 Z-22.7731 E0.0 
G1 X116.462 Y261.855 Z-22.7738 E0.0 
G1 X116.36 Y261.855 Z-22.7744 E0.0 
G1 X116.258 Y261.855 Z-22.775100000000002 E0.0 
G1 X116.156 Y261.855 Z-22.7757 E0.0 
G1 X116.053 Y261.855 Z-22.7763 E0.0 
G1 X115.951 Y261.855 Z-22.777 E0.0 
G1 X115.849 Y261.855 Z-22.7776 E0.0 
G1 X115.747 Y261.855 Z-22.7782 E0.0 
G1 X115.645 Y261.855 Z-22.7789 E0.0 
G1 X115.543 Y261.855 Z-22.7795 E0.0 
G1 X115.441 Y261.855 Z-22.7802 E0.0 
G1 X115.339 Y261.855 Z-22.7808 E0.0 
G1 X115.237 Y261.855 Z-22.781399999999998 E0.0 
G1 X115.135 Y261.855 Z-22.7821 E0.0 
G1 X115.033 Y261.855 Z-22.7827 E0.0 
G1 X114.934 Y261.954 Z-22.7833 E0.0 
G1 X114.891 Y262.007 Z-22.7836 E0.0 
G1 X114.864 Y262.064 Z-22.7837 E0.0 
G1 X114.853 Y262.126 Z-22.7838 E0.0 
G1 X114.857 Y262.194 Z-22.7838 E0.0 
G1 X114.881 Y262.334 Z-22.7836 E0.0 
G1 X114.892 Y262.435 Z-22.7835 E0.0 
G1 X114.903 Y262.536 Z-22.7834 E0.0 
G1 X114.914 Y262.637 Z-22.7834 E0.0 
G1 X114.925 Y262.737 Z-22.7833 E0.0 
G1 X114.936 Y262.838 Z-22.7832 E0.0 
G1 X114.947 Y262.939 Z-22.783099999999997 E0.0 
G1 X114.959 Y263.04 Z-22.783 E0.0 
G1 X114.97 Y263.141 Z-22.782899999999998 E0.0 
G1 X114.981 Y263.242 Z-22.7828 E0.0 
G1 X114.992 Y263.343 Z-22.7828 E0.0 
G1 X115.003 Y263.443 Z-22.7827 E0.0 
G1 X115.014 Y263.544 Z-22.782600000000002 E0.0 
G1 X115.025 Y263.645 Z-22.7825 E0.0 
G1 X115.036 Y263.746 Z-22.7824 E0.0 
G1 X115.061 Y263.827 Z-22.7822 E0.0 
G1 X115.115 Y263.9 Z-22.7819 E0.0 
G1 X115.211 Y263.964 Z-22.7813 E0.0 
G1 X115.274 Y264.001 Z-22.7808 E0.0 
G1 X115.312 Y264.049 Z-22.7806 E0.0 
G1 X115.331 Y264.118 Z-22.7805 E0.0 
G1 X115.336 Y264.219 Z-22.7804 E0.0 
G1 X115.33 Y264.327 Z-22.7804 E0.0 
G1 X115.306 Y264.401 Z-22.7806 E0.0 
G1 X115.252 Y264.46 Z-22.7809 E0.0 
G1 X115.159 Y264.521 Z-22.7815 E0.0 
G1 X115.042 Y264.612 Z-22.7823 E0.0 
G1 X114.984 Y264.707 Z-22.782600000000002 E0.0 
G1 X114.979 Y264.801 Z-22.782600000000002 E0.0 
G1 X115.025 Y264.889 Z-22.7823 E0.0 
G1 X115.118 Y264.966 Z-22.7817 E0.0 
G1 X115.251 Y265.027 Z-22.7808 E0.0 
G1 X115.423 Y265.068 Z-22.7797 E0.0 
G1 X115.423 Y265.068 Z-21.6697 E0.0 
G1 X115.323 Y265.078 Z-21.670299999999997 E0.0 
G1 X115.223 Y265.088 Z-21.671 E0.0 
G1 X115.123 Y265.099 Z-21.6717 E0.0 
G1 X115.023 Y265.109 Z-21.6723 E0.0 
G1 X114.923 Y265.119 Z-21.673000000000002 E0.0 
G1 X114.823 Y265.129 Z-21.6736 E0.0 
G1 X114.723 Y265.14 Z-21.674300000000002 E0.0 
G1 X114.623 Y265.15 Z-21.675 E0.0 
G1 X114.523 Y265.16 Z-21.6756 E0.0 
G1 X114.423 Y265.17 Z-21.676299999999998 E0.0 
G1 X114.323 Y265.18 Z-21.6769 E0.0 
G1 X114.223 Y265.191 Z-21.677599999999998 E0.0 
G1 X114.123 Y265.201 Z-21.6783 E0.0 
G1 X114.022 Y265.211 Z-21.6789 E0.0 
G1 X113.922 Y265.221 Z-21.6796 E0.0 
G1 X113.822 Y265.231 Z-21.6803 E0.0 
G1 X113.722 Y265.242 Z-21.6809 E0.0 
G1 X113.622 Y265.252 Z-21.6816 E0.0 
G1 X113.522 Y265.262 Z-21.6822 E0.0 
G1 X113.422 Y265.272 Z-21.6829 E0.0 
G1 X113.322 Y265.283 Z-21.6836 E0.0 
G1 X113.222 Y265.293 Z-21.6842 E0.0 
G1 X113.122 Y265.303 Z-21.6849 E0.0 
G1 X113.022 Y265.313 Z-21.6856 E0.0 
G1 X112.922 Y265.323 Z-21.6862 E0.0 
G1 X112.822 Y265.334 Z-21.6869 E0.0 
G1 X112.722 Y265.344 Z-21.6876 E0.0 
G1 X112.622 Y265.354 Z-21.688200000000002 E0.0 
G1 X112.522 Y265.364 Z-21.6889 E0.0 
G1 X112.422 Y265.375 Z-21.689500000000002 E0.0 
G1 X112.322 Y265.385 Z-21.690199999999997 E0.0 
G1 X112.222 Y265.395 Z-21.6909 E0.0 
G1 X112.122 Y265.405 Z-21.691499999999998 E0.0 
G1 X112.022 Y265.415 Z-21.6922 E0.0 
G1 X111.922 Y265.426 Z-21.6929 E0.0 
G1 X111.822 Y265.436 Z-21.6935 E0.0 
G1 X111.722 Y265.446 Z-21.694200000000002 E0.0 
G1 X111.622 Y265.456 Z-21.6949 E0.0 
G1 X111.522 Y265.467 Z-21.6955 E0.0 
G1 X111.422 Y265.477 Z-21.696199999999997 E0.0 
G1 X111.322 Y265.487 Z-21.6969 E0.0 
G1 X111.221 Y265.497 Z-21.697499999999998 E0.0 
G1 X111.121 Y265.507 Z-21.6982 E0.0 
G1 X111.021 Y265.518 Z-21.698900000000002 E0.0 
G1 X110.921 Y265.528 Z-21.6996 E0.0 
G1 X110.821 Y265.538 Z-21.700200000000002 E0.0 
G1 X110.721 Y265.548 Z-21.700899999999997 E0.0 
G1 X110.621 Y265.558 Z-21.7016 E0.0 
G1 X110.521 Y265.569 Z-21.702199999999998 E0.0 
G1 X110.421 Y265.579 Z-21.7029 E0.0 
G1 X110.321 Y265.589 Z-21.7036 E0.0 
G1 X110.221 Y265.599 Z-21.7042 E0.0 
G1 X110.121 Y265.61 Z-21.704900000000002 E0.0 
G1 X110.021 Y265.62 Z-21.7056 E0.0 
G1 X109.921 Y265.63 Z-21.7063 E0.0 
G1 X109.921 Y265.63 Z-22.8163 E0.0 F200.0 
G1 X109.917 Y265.682 Z-22.8163 E0.0 F700.0 
G1 X109.878 Y265.717 Z-22.8166 E0.0 
G1 X109.82 Y265.736 Z-22.817 E0.0 
G1 X109.675 Y265.734 Z-22.8179 E0.0 
G1 X109.542 Y265.688 Z-22.8188 E0.0 
G1 X109.501 Y265.651 Z-22.8191 E0.0 
G1 X109.485 Y265.607 Z-22.819200000000002 E0.0 
G1 X109.497 Y265.58 Z-22.8191 E0.0 
G1 X109.531 Y265.559 Z-22.8188 E0.0 
G1 X109.641 Y265.538 Z-22.8181 E0.0 
G1 X109.772 Y265.545 Z-22.8172 E0.0 
G1 X109.882 Y265.582 Z-22.816499999999998 E0.0 
G1 X109.921 Y265.63 Z-22.8163 E0.0 
G1 X109.921 Y265.63 Z-21.7063 E0.0 
G1 X109.929 Y265.731 Z-21.7062 E0.0 
G1 X109.937 Y265.832 Z-21.7062 E0.0 
G1 X109.945 Y265.933 Z-21.7062 E0.0 
G1 X109.945 Y265.933 Z-22.816200000000002 E0.0 F200.0 
G1 X110.066 Y265.909 Z-22.8154 E0.0 F700.0 
G1 X110.183 Y265.861 Z-22.8146 E0.0 
G1 X110.314 Y265.786 Z-22.813699999999997 E0.0 
G1 X110.436 Y265.709 Z-22.8128 E0.0 
G1 X110.559 Y265.631 Z-22.811999999999998 E0.0 
G1 X110.647 Y265.584 Z-22.8114 E0.0 
G1 X110.735 Y265.536 Z-22.8108 E0.0 
G1 X110.823 Y265.489 Z-22.810200000000002 E0.0 
G1 X110.912 Y265.442 Z-22.8096 E0.0 
G1 X111.0 Y265.394 Z-22.808999999999997 E0.0 
G1 X111.088 Y265.347 Z-22.8084 E0.0 
G1 X111.176 Y265.3 Z-22.8078 E0.0 
G1 X111.264 Y265.252 Z-22.8072 E0.0 
G1 X111.352 Y265.205 Z-22.8066 E0.0 
G1 X111.44 Y265.158 Z-22.805999999999997 E0.0 
G1 X111.528 Y265.11 Z-22.8054 E0.0 
G1 X111.617 Y265.063 Z-22.8048 E0.0 
G1 X111.705 Y265.016 Z-22.8042 E0.0 
G1 X111.793 Y264.968 Z-22.8036 E0.0 
G1 X111.881 Y264.921 Z-22.802999999999997 E0.0 
G1 X111.948 Y264.858 Z-22.802599999999998 E0.0 
G1 X111.976 Y264.807 Z-22.8024 E0.0 
G1 X111.978 Y264.719 Z-22.8024 E0.0 
G1 X111.948 Y264.59 Z-22.802500000000002 E0.0 
G1 X111.918 Y264.462 Z-22.8027 E0.0 
G1 X111.888 Y264.333 Z-22.8029 E0.0 
G1 X111.862 Y264.235 Z-22.802999999999997 E0.0 
G1 X111.837 Y264.136 Z-22.8032 E0.0 
G1 X111.811 Y264.038 Z-22.8033 E0.0 
G1 X111.802 Y263.942 Z-22.8034 E0.0 
G1 X111.821 Y263.864 Z-22.8032 E0.0 
G1 X111.873 Y263.793 Z-22.8029 E0.0 
G1 X111.964 Y263.716 Z-22.802300000000002 E0.0 
G1 X112.07 Y263.644 Z-22.8016 E0.0 
G1 X112.177 Y263.573 Z-22.8009 E0.0 
G1 X112.283 Y263.501 Z-22.8002 E0.0 
G1 X112.383 Y263.435 Z-22.799500000000002 E0.0 
G1 X112.484 Y263.368 Z-22.7989 E0.0 
G1 X112.589 Y263.368 Z-22.7982 E0.0 
G1 X112.693 Y263.368 Z-22.7975 E0.0 
G1 X112.798 Y263.368 Z-22.796799999999998 E0.0 
G1 X112.902 Y263.368 Z-22.7962 E0.0 
G1 X113.007 Y263.368 Z-22.7955 E0.0 
G1 X113.111 Y263.368 Z-22.794800000000002 E0.0 
G1 X113.216 Y263.368 Z-22.7942 E0.0 
G1 X113.321 Y263.368 Z-22.7935 E0.0 
G1 X113.425 Y263.368 Z-22.7928 E0.0 
G1 X113.53 Y263.368 Z-22.792099999999998 E0.0 
G1 X113.634 Y263.368 Z-22.7915 E0.0 
G1 X113.739 Y263.368 Z-22.790799999999997 E0.0 
G1 X113.843 Y263.368 Z-22.790100000000002 E0.0 
G1 X113.948 Y263.368 Z-22.7895 E0.0 
G1 X114.053 Y263.368 Z-22.788800000000002 E0.0 
G1 X114.157 Y263.368 Z-22.7881 E0.0 
G1 X114.262 Y263.368 Z-22.787399999999998 E0.0 
G1 X114.366 Y263.368 Z-22.7868 E0.0 
G1 X114.471 Y263.368 Z-22.786099999999998 E0.0 
G1 X114.575 Y263.368 Z-22.7854 E0.0 
G1 X114.68 Y263.368 Z-22.7848 E0.0 
G1 X114.68 Y263.267 Z-22.7848 E0.0 
G1 X114.68 Y263.166 Z-22.7848 E0.0 
G1 X114.68 Y263.065 Z-22.7848 E0.0 
G1 X114.576 Y263.065 Z-22.7855 E0.0 
G1 X114.472 Y263.065 Z-22.786099999999998 E0.0 
G1 X114.367 Y263.065 Z-22.7868 E0.0 
G1 X114.263 Y263.065 Z-22.7875 E0.0 
G1 X114.159 Y263.065 Z-22.7881 E0.0 
G1 X114.055 Y263.065 Z-22.788800000000002 E0.0 
G1 X113.951 Y263.065 Z-22.7894 E0.0 
G1 X113.847 Y263.065 Z-22.790100000000002 E0.0 
G1 X113.742 Y263.065 Z-22.790799999999997 E0.0 
G1 X113.638 Y263.065 Z-22.7914 E0.0 
G1 X113.534 Y263.065 Z-22.792099999999998 E0.0 
G1 X113.43 Y263.065 Z-22.7928 E0.0 
G1 X113.326 Y263.065 Z-22.7934 E0.0 
G1 X113.222 Y263.065 Z-22.7941 E0.0 
G1 X113.117 Y263.065 Z-22.794800000000002 E0.0 
G1 X113.013 Y263.065 Z-22.7954 E0.0 
G1 X112.909 Y263.065 Z-22.7961 E0.0 
G1 X112.805 Y263.065 Z-22.796799999999998 E0.0 
G1 X112.701 Y263.065 Z-22.7974 E0.0 
G1 X112.597 Y263.065 Z-22.798099999999998 E0.0 
G1 X112.492 Y263.065 Z-22.7988 E0.0 
G1 X112.388 Y263.065 Z-22.7994 E0.0 
G1 X112.284 Y263.065 Z-22.8001 E0.0 
G1 X112.195 Y263.125 Z-22.8007 E0.0 
G1 X112.105 Y263.184 Z-22.8012 E0.0 
G1 X112.016 Y263.244 Z-22.8018 E0.0 
G1 X111.927 Y263.304 Z-22.8024 E0.0 
G1 X111.837 Y263.364 Z-22.802999999999997 E0.0 
G1 X111.748 Y263.423 Z-22.8036 E0.0 
G1 X111.658 Y263.483 Z-22.8042 E0.0 
G1 X111.569 Y263.543 Z-22.8048 E0.0 
G1 X111.48 Y263.603 Z-22.8054 E0.0 
G1 X111.39 Y263.662 Z-22.8059 E0.0 
G1 X111.301 Y263.722 Z-22.8065 E0.0 
G1 X111.301 Y263.852 Z-22.8066 E0.0 
G1 X111.332 Y263.959 Z-22.8064 E0.0 
G1 X111.363 Y264.065 Z-22.8062 E0.0 
G1 X111.394 Y264.172 Z-22.8061 E0.0 
G1 X111.424 Y264.278 Z-22.8059 E0.0 
G1 X111.455 Y264.385 Z-22.8057 E0.0 
G1 X111.486 Y264.491 Z-22.805500000000002 E0.0 
G1 X111.517 Y264.598 Z-22.8054 E0.0 
G1 X111.548 Y264.704 Z-22.8052 E0.0 
G1 X111.477 Y264.77 Z-22.8057 E0.0 
G1 X111.388 Y264.818 Z-22.8063 E0.0 
G1 X111.299 Y264.867 Z-22.8069 E0.0 
G1 X111.209 Y264.915 Z-22.807499999999997 E0.0 
G1 X111.12 Y264.964 Z-22.8081 E0.0 
G1 X111.031 Y265.012 Z-22.8087 E0.0 
G1 X110.942 Y265.06 Z-22.8093 E0.0 
G1 X110.852 Y265.109 Z-22.8099 E0.0 
G1 X110.763 Y265.157 Z-22.810499999999998 E0.0 
G1 X110.674 Y265.205 Z-22.8111 E0.0 
G1 X110.585 Y265.254 Z-22.811700000000002 E0.0 
G1 X110.495 Y265.302 Z-22.8123 E0.0 
G1 X110.406 Y265.351 Z-22.8129 E0.0 
G1 X110.317 Y265.399 Z-22.813499999999998 E0.0 
G1 X110.141 Y265.387 Z-22.814700000000002 E0.0 
G1 X110.032 Y265.383 Z-22.8154 E0.0 
G1 X109.923 Y265.378 Z-22.8161 E0.0 
G1 X109.814 Y265.374 Z-22.8169 E0.0 
G1 X109.705 Y265.369 Z-22.8176 E0.0 
G1 X109.596 Y265.365 Z-22.8183 E0.0 
G1 X109.405 Y265.374 Z-22.8196 E0.0 
G1 X109.263 Y265.397 Z-22.8205 E0.0 
G1 X109.166 Y265.435 Z-22.821199999999997 E0.0 
G1 X109.109 Y265.49 Z-22.8216 E0.0 
G1 X109.089 Y265.562 Z-22.8218 E0.0 
G1 X109.099 Y265.653 Z-22.8217 E0.0 
G1 X109.127 Y265.712 Z-22.8216 E0.0 
G1 X109.177 Y265.766 Z-22.8213 E0.0 
G1 X109.333 Y265.857 Z-22.8203 E0.0 
G1 X109.441 Y265.888 Z-22.8196 E0.0 
G1 X109.549 Y265.918 Z-22.8189 E0.0 
G1 X109.677 Y265.929 Z-22.817999999999998 E0.0 
G1 X109.804 Y265.94 Z-22.8172 E0.0 
G1 X109.945 Y265.933 Z-22.816200000000002 E0.0 
G1 X109.945 Y265.933 Z-21.7062 E0.0 
G1 X109.947 Y265.832 Z-21.7062 E0.0 
G1 X109.949 Y265.731 Z-21.7061 E0.0 
G1 X109.952 Y265.631 Z-21.7061 E0.0 
G1 X109.954 Y265.53 Z-21.706 E0.0 
G1 X109.956 Y265.429 Z-21.7059 E0.0 
G1 X109.958 Y265.328 Z-21.7059 E0.0 
G1 X109.96 Y265.227 Z-21.7058 E0.0 
G1 X109.963 Y265.127 Z-21.7058 E0.0 
G1 X109.965 Y265.026 Z-21.7057 E0.0 
G1 X109.967 Y264.925 Z-21.7057 E0.0 
G1 X109.969 Y264.824 Z-21.7056 E0.0 
G1 X109.971 Y264.723 Z-21.7055 E0.0 
G1 X109.973 Y264.622 Z-21.7055 E0.0 
G1 X109.976 Y264.522 Z-21.705399999999997 E0.0 
G1 X109.978 Y264.421 Z-21.705399999999997 E0.0 
G1 X109.98 Y264.32 Z-21.7053 E0.0 
G1 X109.982 Y264.219 Z-21.7053 E0.0 
G1 X109.984 Y264.118 Z-21.705199999999998 E0.0 
G1 X109.987 Y264.018 Z-21.7051 E0.0 
G1 X109.989 Y263.917 Z-21.7051 E0.0 
G1 X109.991 Y263.816 Z-21.705 E0.0 
G1 X109.991 Y263.816 Z-22.814999999999998 E0.0 F200.0 
G1 X110.108 Y263.788 Z-22.8143 E0.0 F700.0 
G1 X110.131 Y263.762 Z-22.8141 E0.0 
G1 X110.133 Y263.726 Z-22.8141 E0.0 
G1 X110.088 Y263.617 Z-22.8143 E0.0 
G1 X110.048 Y263.566 Z-22.8146 E0.0 
G1 X109.978 Y263.537 Z-22.814999999999998 E0.0 
G1 X109.856 Y263.523 Z-22.8158 E0.0 
G1 X109.66 Y263.519 Z-22.817 E0.0 
G1 X109.534 Y263.519 Z-22.8178 E0.0 
G1 X109.409 Y263.519 Z-22.8187 E0.0 
G1 X109.283 Y263.519 Z-22.819499999999998 E0.0 
G1 X109.283 Y263.541 Z-22.819499999999998 E0.0 
