; generated by Slic3r 1.3.0 on 2026-04-04 at 18:43:24

; external perimeters extrusion width = 1.10mm (26.56mm^3/s)
; perimeters extrusion width = 1.05mm (50.12mm^3/s)
; infill extrusion width = 1.05mm (66.83mm^3/s)
; solid infill extrusion width = 1.05mm (16.71mm^3/s)
; top infill extrusion width = 1.05mm (12.53mm^3/s)

M107
M104 S5 ; set temperature


; Filament gcode

M109 S5 ; set temperature and wait for it to be reached
G21 ; set units to millimeters
G90 ; use absolute coordinates
M82 ; use absolute distances for extrusion
G92 E0
G1 Z0.100 F7800.000
G1 E-2.00000 F2400.00000
G92 E0
G1 X39.556 Y38.459 F7800.000
G1 E2.00000 F2400.00000
G1 F1800
G1 X39.556 Y38.828 E2.00274
G1 X39.197 Y38.828 E2.00540
G1 X39.451 Y38.566 E2.00811
G1 X39.735 Y39.006 F7800.000
G1 F1800
G1 X38.620 Y39.006 E2.01638
G1 X38.602 Y38.921 E2.01703
G1 X38.901 Y38.791 E2.01945
G1 X39.131 Y38.640 E2.02149
G1 X39.408 Y38.355 E2.02444
G1 X39.550 Y38.123 E2.02646
G1 X39.647 Y37.877 E2.02843
G1 X39.735 Y37.893 E2.02908
G1 X39.735 Y38.856 E2.03623
G1 X38.856 Y38.529 F7800.000
G1 E0.03623 F2400.00000
G92 E0
G1 X35.455 Y33.548 F7800.000
G1 E2.00000 F2400.00000
G1 F1800
G1 X34.924 Y34.080 E2.00558
G1 X34.100 Y34.080 E2.01170
G1 X34.140 Y33.983 E2.01248
G1 X34.197 Y33.712 E2.01454
G1 X34.098 Y33.330 E2.01746
G1 X33.952 Y33.078 E2.01962
G1 X33.952 Y29.975 E2.04266
G1 X36.861 Y27.073 E2.07316
G1 X36.890 Y27.246 E2.07446
G1 X37.095 Y27.589 E2.07743
G1 X37.394 Y27.820 E2.08024
G1 X37.612 Y27.908 E2.08198
G1 X37.809 Y27.938 E2.08346
G1 X38.276 Y28.412 E2.08840
G1 X38.276 Y29.112 E2.09359
G1 X36.842 Y29.112 E2.10424
G1 X36.842 Y29.578 E2.10771
G1 X36.169 Y29.578 E2.11270
G1 X35.785 Y29.742 E2.11580
G1 X34.372 Y31.176 E2.13074
G1 X34.372 Y32.917 E2.14366
G1 X34.607 Y33.269 E2.14680
G1 X34.850 Y33.463 E2.14911
G1 X35.141 Y33.557 E2.15138
G1 X35.305 Y33.552 E2.15260
G1 X36.120 Y32.882 F7800.000
G1 F1800
G1 X36.130 Y32.655 E2.15428
G1 X36.089 Y32.443 E2.15589
G1 X36.088 Y31.907 E2.15986
G1 X36.705 Y31.296 E2.16631
G1 X37.327 Y31.309 E2.17093
G1 X37.349 Y31.386 E2.17152
G1 X37.130 Y31.525 E2.17345
G1 X36.899 Y31.881 E2.17659
G1 X36.840 Y32.160 E2.17871
G1 X36.226 Y32.776 E2.18517
G1 X35.704 Y33.234 F7800.000
G1 F1800
G1 X35.867 Y33.043 E2.18703
G1 X35.944 Y32.819 E2.18879
G1 X35.950 Y32.668 E2.18991
G1 X35.910 Y32.460 E2.19148
G1 X35.909 Y31.832 E2.19614
G1 X36.634 Y31.115 E2.20371
G1 X38.455 Y31.156 E2.21723
G1 X38.455 Y31.574 E2.22033
G1 X38.329 Y31.493 E2.22145
G1 X38.150 Y31.424 E2.22287
G1 X37.959 Y31.394 E2.22431
G1 X37.761 Y31.406 E2.22577
G1 X37.558 Y31.465 E2.22735
G1 X37.258 Y31.655 E2.22998
G1 X37.067 Y31.950 E2.23259
G1 X37.004 Y32.248 E2.23485
G1 X34.998 Y34.259 E2.25594
G1 X33.804 Y34.259 E2.26480
G1 X33.884 Y34.137 E2.26589
G1 X33.969 Y33.930 E2.26754
G1 X34.014 Y33.716 E2.26917
G1 X33.930 Y33.395 E2.27164
G1 X33.840 Y33.220 E2.27309
G1 X33.773 Y33.150 E2.27381
G1 X33.773 Y29.901 E2.29793
G1 X36.949 Y26.733 E2.33122
G1 X37.019 Y26.772 E2.33182
G1 X37.003 Y26.843 E2.33236
G1 X37.060 Y27.183 E2.33492
G1 X37.231 Y27.468 E2.33739
G1 X37.484 Y27.664 E2.33976
G1 X37.660 Y27.734 E2.34117
G1 X37.895 Y27.771 E2.34293
G1 X38.455 Y28.339 E2.34885
G1 X38.455 Y29.290 E2.35591
G1 X37.020 Y29.290 E2.36656
G1 X37.020 Y29.757 E2.37003
G1 X36.205 Y29.757 E2.37608
G1 X35.888 Y29.892 E2.37864
G1 X34.551 Y31.249 E2.39278
G1 X34.551 Y32.863 E2.40476
G1 X34.740 Y33.147 E2.40729
G1 X34.936 Y33.303 E2.40915
G1 X35.167 Y33.377 E2.41095
G1 X35.412 Y33.371 E2.41277
G1 X35.569 Y33.298 E2.41405
G1 E0.41405 F2400.00000
G92 E0
G1 X38.455 Y26.127 F7800.000
G1 E2.00000 F2400.00000
G1 F1800
G1 X38.359 Y26.052 E2.00090
G1 X38.083 Y25.966 E2.00305
G1 X37.824 Y25.963 E2.00497
G1 X37.790 Y25.894 E2.00554
G1 X37.984 Y25.700 E2.00758
G1 X38.181 Y25.666 E2.00907
G1 X38.455 Y25.543 E2.01130
G1 X38.455 Y25.977 E2.01451
G1 X37.652 Y26.166 F7800.000
G1 F1800
G1 X37.424 Y26.309 E2.01651
G1 X37.250 Y26.552 E2.01873
G1 X37.185 Y26.847 E2.02097
G1 X37.231 Y27.120 E2.02303
G1 X37.367 Y27.348 E2.02499
G1 X37.574 Y27.507 E2.02693
G1 X37.707 Y27.561 E2.02800
G1 X37.981 Y27.604 E2.03006
G1 X38.633 Y28.266 E2.03696
G1 X38.633 Y29.469 E2.04589
G1 X37.199 Y29.469 E2.05654
G1 X37.199 Y29.936 E2.06000
G1 X36.242 Y29.936 E2.06711
G1 X35.990 Y30.043 E2.06914
G1 X34.729 Y31.322 E2.08247
G1 X34.729 Y32.809 E2.09351
G1 X34.873 Y33.024 E2.09542
G1 X35.022 Y33.143 E2.09684
G1 X35.193 Y33.198 E2.09817
G1 X35.370 Y33.193 E2.09949
G1 X35.594 Y33.089 E2.10132
G1 X35.709 Y32.954 E2.10264
G1 X35.766 Y32.786 E2.10396
G1 X35.771 Y32.681 E2.10474
G1 X35.732 Y32.477 E2.10628
G1 X35.730 Y31.758 E2.11161
G1 X36.562 Y30.935 E2.12030
G1 X38.633 Y30.981 E2.13568
G1 X38.633 Y31.932 E2.14273
G1 X38.556 Y31.954 E2.14333
G1 X38.487 Y31.846 E2.14428
G1 X38.377 Y31.736 E2.14544
G1 X38.248 Y31.653 E2.14658
G1 X38.104 Y31.598 E2.14772
G1 X37.950 Y31.573 E2.14888
G1 X37.792 Y31.583 E2.15006
G1 X37.632 Y31.629 E2.15129
G1 X37.387 Y31.785 E2.15344
G1 X37.235 Y32.020 E2.15552
G1 X37.168 Y32.337 E2.15793
G1 X35.072 Y34.438 E2.17996
G1 X33.444 Y34.438 E2.19204
G1 X33.421 Y34.361 E2.19263
G1 X33.600 Y34.243 E2.19423
G1 X33.725 Y34.053 E2.19592
G1 X33.797 Y33.878 E2.19732
G1 X33.830 Y33.720 E2.19852
G1 X33.762 Y33.459 E2.20053
G1 X33.693 Y33.325 E2.20164
G1 X33.595 Y33.222 E2.20270
G1 X33.595 Y29.827 E2.22790
G1 X37.898 Y25.534 E2.27302
G1 X38.129 Y25.494 E2.27476
G1 X38.334 Y25.402 E2.27643
G1 X38.494 Y25.254 E2.27804
G1 X38.552 Y25.145 E2.27896
G1 X38.633 Y25.165 E2.27959
G1 X38.633 Y26.501 E2.28950
G1 X38.557 Y26.524 E2.29010
G1 X38.430 Y26.333 E2.29180
G1 X38.275 Y26.213 E2.29325
G1 X38.051 Y26.143 E2.29499
G1 X37.800 Y26.146 E2.29686
G1 X37.438 Y26.002 F7800.000
G1 E0.29686 F2400.00000
G92 E0
G1 X39.735 Y11.890 F7800.000
G1 E2.00000 F2400.00000
G1 F1800
G1 X39.651 Y11.909 E2.00064
G1 X39.491 Y11.571 E2.00341
G1 X39.382 Y11.415 E2.00482
G1 X39.254 Y11.270 E2.00626
G1 X39.088 Y11.131 E2.00787
G1 X38.988 Y11.073 E2.00873
G1 X39.009 Y10.994 E2.00933
G1 X39.735 Y10.994 E2.01472
G1 X39.735 Y11.740 E2.02026
G1 X39.650 Y11.877 F7800.000
G1 E0.02026 F2400.00000
G92 E0
G1 X12.355 Y34.947 F7800.000
G1 E2.00000 F2400.00000
G1 F1800
G1 X12.363 Y35.245 E2.00221
G1 X12.332 Y35.381 E2.00325
G1 X12.222 Y35.601 E2.00507
G1 X12.056 Y35.770 E2.00683
G1 X11.951 Y35.839 E2.00777
G1 X11.732 Y35.922 E2.00950
G1 X11.498 Y35.942 E2.01125
G1 X11.369 Y35.924 E2.01221
G1 X11.142 Y35.837 E2.01402
G1 X10.927 Y35.663 E2.01607
G1 X10.832 Y35.523 E2.01733
G1 X10.761 Y35.351 E2.01871
G1 X10.721 Y35.174 E2.02005
G1 X10.722 Y35.019 E2.02120
G1 X10.770 Y34.853 E2.02249
G1 X10.914 Y34.594 E2.02468
G1 X11.129 Y34.410 E2.02679
G1 X11.400 Y34.315 E2.02892
G1 X11.672 Y34.312 E2.03094
G1 X11.798 Y34.339 E2.03189
G1 X12.009 Y34.436 E2.03362
G1 X12.183 Y34.589 E2.03534
G1 X12.258 Y34.694 E2.03630
G1 X12.302 Y34.807 E2.03720
G1 X12.635 Y35.051 F7800.000
G1 E0.03720 F2400.00000
G92 E0
G1 X11.162 Y31.727 F7800.000
G1 E2.00000 F2400.00000
G1 F1800
G1 X11.021 Y31.632 E2.00126
G1 X10.850 Y31.441 E2.00316
G1 X10.736 Y31.164 E2.00538
G1 X10.724 Y30.951 E2.00697
G1 X10.801 Y30.658 E2.00922
G1 X10.977 Y30.407 E2.01149
G1 X11.229 Y30.235 E2.01376
G1 X11.436 Y30.176 E2.01536
G1 X11.628 Y30.175 E2.01679
G1 X11.886 Y30.253 E2.01878
G1 X12.116 Y30.389 E2.02077
G1 X12.226 Y30.502 E2.02194
G1 X13.524 Y30.503 E2.03157
G1 X13.740 Y30.662 E2.03357
G1 X13.821 Y30.761 E2.03452
G1 X13.859 Y30.891 E2.03552
G1 X13.862 Y31.048 E2.03668
G1 X13.816 Y31.230 E2.03808
G1 X13.537 Y31.503 E2.04097
G1 X12.191 Y31.503 E2.05097
G1 X12.105 Y31.615 E2.05202
G1 X11.963 Y31.714 E2.05330
G1 X11.806 Y31.785 E2.05458
G1 X11.642 Y31.821 E2.05583
G1 X11.476 Y31.822 E2.05706
G1 X11.300 Y31.784 E2.05839
G1 X11.018 Y31.816 F7800.000
G1 X10.691 Y30.504 F7800.000
G1 F1800
G1 X10.616 Y30.481 E2.05897
G1 X10.616 Y30.146 E2.06146
G1 X10.996 Y29.764 E2.06546
G1 X11.071 Y29.820 E2.06615
G1 X11.256 Y29.902 E2.06765
G1 X11.376 Y29.919 E2.06856
G1 X11.383 Y30.005 E2.06920
G1 X11.152 Y30.071 E2.07098
G1 X10.849 Y30.278 E2.07370
G1 X10.777 Y30.381 E2.07464
G1 E0.07464 F2400.00000
G92 E0
G1 X10.548 Y28.145 F7800.000
G1 E2.00000 F2400.00000
G1 F1800
G1 X10.497 Y28.072 E2.00066
G1 X10.792 Y27.776 E2.00377
G1 X10.958 Y27.901 E2.00530
G1 X10.722 Y28.088 E2.00754
G1 X10.689 Y28.096 E2.00779
G1 X10.622 Y28.308 F7800.000
G1 F1800
G1 X10.426 Y28.397 E2.00940
G1 X9.394 Y29.438 E2.02027
G1 X9.397 Y28.918 E2.02413
G1 X10.754 Y27.562 E2.03837
G1 X10.797 Y27.557 E2.03869
G1 X11.007 Y27.714 E2.04064
G1 X11.180 Y27.806 E2.04210
G1 X11.382 Y27.869 E2.04367
G1 X11.380 Y27.950 E2.04426
G1 X11.200 Y27.997 E2.04565
G1 X10.996 Y28.098 E2.04734
G1 X10.803 Y28.251 E2.04917
G1 X10.764 Y28.261 E2.04947
G1 E0.04947 F2400.00000
G92 E0
G1 X15.493 Y26.901 F7800.000
G1 E2.00000 F2400.00000
G1 F1800
G1 X15.410 Y27.141 E2.00189
G1 X15.325 Y27.242 E2.00287
G1 X15.215 Y27.325 E2.00389
G1 X15.060 Y27.388 E2.00513
G1 X14.688 Y27.361 E2.00790
G1 X12.248 Y27.333 E2.02601
G1 X12.004 Y27.560 E2.02849
G1 X11.861 Y27.640 E2.02970
G1 X11.711 Y27.688 E2.03087
G1 X11.557 Y27.704 E2.03202
G1 X11.402 Y27.688 E2.03318
G1 X11.249 Y27.641 E2.03437
G1 X11.102 Y27.563 E2.03560
G1 X10.855 Y27.377 E2.03790
G1 X10.672 Y27.392 E2.03926
G1 X9.219 Y28.844 E2.05450
G1 X9.203 Y31.521 E2.07438
G1 X7.797 Y32.936 E2.08919
G1 X7.775 Y33.117 E2.09054
G1 X7.701 Y33.272 E2.09181
G1 X7.545 Y33.465 E2.09365
G1 X7.389 Y33.568 E2.09504
G1 X7.202 Y33.617 E2.09648
G1 X6.912 Y33.609 E2.09863
G1 X6.765 Y33.560 E2.09979
G1 X6.637 Y33.464 E2.10097
G1 X6.505 Y33.316 E2.10244
G1 X6.402 Y33.147 E2.10392
G1 X6.387 Y32.808 E2.10644
G1 X6.404 Y32.699 E2.10725
G1 X6.489 Y32.524 E2.10870
G1 X6.597 Y32.402 E2.10991
G1 X6.737 Y32.300 E2.11119
G1 X6.957 Y32.210 E2.11296
G1 X7.075 Y32.205 E2.11383
G1 X8.202 Y31.077 E2.12567
G1 X8.202 Y28.540 E2.14450
G1 X8.294 Y28.359 E2.14601
G1 X10.160 Y26.482 E2.16566
G1 X10.274 Y26.421 E2.16661
G1 X10.431 Y26.381 E2.16782
G1 X10.863 Y26.355 E2.17103
G1 X11.194 Y26.122 E2.17403
G1 X11.420 Y26.059 E2.17577
G1 X11.650 Y26.056 E2.17749
G1 X11.808 Y26.094 E2.17869
G1 X11.959 Y26.161 E2.17991
G1 X12.188 Y26.334 E2.18205
G1 X14.514 Y26.335 E2.19931
G1 X14.958 Y26.236 E2.20268
G1 X15.243 Y26.344 E2.20495
G1 X15.379 Y26.472 E2.20634
G1 X15.492 Y26.751 E2.20857
G1 X15.694 Y27.056 F7800.000
G1 E0.20857 F2400.00000
G92 E0
G1 X10.829 Y25.748 F7800.000
G1 E2.00000 F2400.00000
G1 F1800
G1 X10.975 Y25.839 E2.00128
G1 X10.741 Y26.005 E2.00341
G1 X10.376 Y26.026 E2.00612
G1 X10.144 Y26.086 E2.00789
G1 X9.945 Y26.192 E2.00957
G1 X7.958 Y28.190 E2.03048
G1 X7.958 Y27.774 E2.03357
G1 X10.043 Y25.691 E2.05545
G1 X10.703 Y25.691 E2.06035
G1 X11.386 Y25.883 F7800.000
G1 F1800
G1 X11.116 Y25.958 E2.06243
G1 X10.802 Y26.180 E2.06528
G1 X10.403 Y26.204 E2.06825
G1 X10.209 Y26.254 E2.06974
G1 X10.053 Y26.337 E2.07105
G1 X8.147 Y28.253 E2.09111
G1 X8.023 Y28.497 E2.09314
G1 X8.023 Y30.604 E2.10878
G1 X7.939 Y30.622 E2.10942
G1 X7.814 Y30.348 E2.11165
G1 X7.780 Y30.314 E2.11201
G1 X7.780 Y27.700 E2.13142
G1 X9.969 Y25.512 E2.15439
G1 X10.845 Y25.512 E2.16090
G1 X10.941 Y25.607 E2.16190
G1 X11.081 Y25.695 E2.16312
G1 X11.322 Y25.781 E2.16502
G1 E0.16502 F2400.00000
G92 E0
G1 X15.494 Y24.896 F7800.000
G1 E2.00000 F2400.00000
G1 F1800
G1 X15.392 Y25.124 E2.00185
G1 X15.309 Y25.226 E2.00283
G1 X15.152 Y25.334 E2.00424
G1 X12.236 Y25.298 E2.02589
G1 X11.996 Y25.500 E2.02822
G1 X11.856 Y25.581 E2.02941
G1 X11.627 Y25.632 E2.03116
G1 X11.384 Y25.613 E2.03297
G1 X11.159 Y25.533 E2.03474
G1 X11.052 Y25.467 E2.03567
G1 X10.919 Y25.333 E2.03707
G1 X9.895 Y25.333 E2.04467
G1 X7.601 Y27.626 E2.06875
G1 X7.601 Y30.390 E2.08926
G1 X7.666 Y30.453 E2.08993
G1 X7.767 Y30.675 E2.09174
G1 X7.791 Y30.787 E2.09259
G1 X7.790 Y30.993 E2.09412
G1 X7.690 Y31.263 E2.09626
G1 X7.562 Y31.414 E2.09773
G1 X7.400 Y31.524 E2.09918
G1 X7.213 Y31.584 E2.10064
G1 X7.103 Y31.595 E2.10146
G1 X6.891 Y31.567 E2.10304
G1 X6.729 Y31.499 E2.10435
G1 X6.594 Y31.398 E2.10560
G1 X6.488 Y31.268 E2.10684
G1 X6.396 Y31.048 E2.10862
G1 X6.377 Y30.879 E2.10988
G1 X6.420 Y30.631 E2.11175
G1 X6.567 Y30.377 E2.11393
G1 X6.567 Y27.339 E2.13648
G1 X6.682 Y27.124 E2.13829
G1 X9.431 Y24.383 E2.16710
G1 X9.656 Y24.300 E2.16889
G1 X10.877 Y24.300 E2.17795
G1 X11.133 Y24.105 E2.18033
G1 X11.318 Y24.026 E2.18183
G1 X11.539 Y23.980 E2.18350
G1 X11.666 Y23.985 E2.18445
G1 X11.910 Y24.074 E2.18638
G1 X12.209 Y24.300 E2.18915
G1 X14.564 Y24.300 E2.20664
G1 X14.806 Y24.224 E2.20852
G1 X14.974 Y24.214 E2.20977
G1 X15.190 Y24.288 E2.21146
G1 X15.313 Y24.381 E2.21260
G1 X15.409 Y24.494 E2.21371
G1 X15.469 Y24.619 E2.21474
G1 X15.501 Y24.748 E2.21572
G1 X15.679 Y25.064 F7800.000
G1 E0.21572 F2400.00000
G92 E0
G1 X11.805 Y23.535 F7800.000
G1 E2.00000 F2400.00000
G1 F1800
G1 X11.593 Y23.569 E2.00159
G1 X11.269 Y23.525 E2.00402
G1 X11.078 Y23.432 E2.00559
G1 X10.960 Y23.331 E2.00675
G1 X10.800 Y23.095 E2.00886
G1 X10.727 Y22.818 E2.01099
G1 X10.752 Y22.540 E2.01306
G1 X10.807 Y22.401 E2.01417
G1 X10.953 Y22.196 E2.01604
G1 X11.048 Y22.109 E2.01700
G1 X11.249 Y21.992 E2.01872
G1 X11.523 Y21.933 E2.02081
G1 X11.800 Y21.967 E2.02288
G1 X12.005 Y22.065 E2.02456
G1 X12.104 Y22.141 E2.02549
G1 X12.256 Y22.323 E2.02726
G1 X12.322 Y22.450 E2.02831
G1 X12.373 Y22.739 E2.03050
G1 X12.343 Y22.970 E2.03222
G1 X12.302 Y23.085 E2.03313
G1 X12.184 Y23.276 E2.03480
G1 X11.941 Y23.473 E2.03712
G1 X11.758 Y23.745 F7800.000
G1 E0.03712 F2400.00000
G92 E0
G1 X11.314 Y19.422 F7800.000
G1 E2.00000 F2400.00000
G1 F1800
G1 X11.083 Y19.310 E2.00191
G1 X10.950 Y19.195 E2.00321
G1 X10.843 Y19.055 E2.00452
G1 X10.745 Y18.815 E2.00644
G1 X10.725 Y18.632 E2.00781
G1 X10.735 Y18.497 E2.00881
G1 X10.807 Y18.267 E2.01060
G1 X10.940 Y18.074 E2.01234
G1 X11.118 Y17.929 E2.01405
G1 X11.324 Y17.839 E2.01572
G1 X11.443 Y17.814 E2.01662
G1 X11.671 Y17.814 E2.01832
G1 X11.896 Y17.881 E2.02006
G1 X12.010 Y17.946 E2.02103
G1 X12.221 Y18.130 E2.02311
G1 X13.724 Y18.131 E2.03427
G1 X13.940 Y18.291 E2.03626
G1 X14.022 Y18.392 E2.03723
G1 X14.075 Y18.621 E2.03897
G1 X14.055 Y18.762 E2.04003
G1 X13.999 Y18.888 E2.04105
G1 X13.909 Y18.997 E2.04210
G1 X13.674 Y19.131 E2.04411
G1 X12.192 Y19.131 E2.05511
G1 X12.105 Y19.247 E2.05619
G1 X11.821 Y19.404 E2.05860
G1 X11.577 Y19.456 E2.06045
G1 X11.463 Y19.441 E2.06131
G1 X11.127 Y19.599 F7800.000
G1 E0.06131 F2400.00000
G92 E0
G1 X8.307 Y18.305 F7800.000
G1 E2.00000 F2400.00000
G1 F1800
G1 X8.209 Y18.222 E2.00095
G1 X8.064 Y18.034 E2.00272
G1 X7.979 Y17.813 E2.00448
G1 X7.978 Y17.592 E2.00612
G1 X8.110 Y17.291 E2.00856
G1 X8.333 Y17.057 E2.01096
G1 X8.434 Y17.001 E2.01182
G1 X8.590 Y16.971 E2.01299
G1 X8.787 Y16.969 E2.01446
G1 X9.014 Y17.004 E2.01616
G1 X9.273 Y17.168 E2.01844
G1 X9.307 Y17.172 E2.01869
G1 X9.366 Y17.137 E2.01919
G1 X9.637 Y16.860 E2.02208
G1 X9.637 Y15.709 E2.03062
G1 X10.711 Y14.628 E2.04193
G1 X10.746 Y14.313 E2.04428
G1 X10.800 Y14.158 E2.04550
G1 X10.968 Y13.918 E2.04768
G1 X11.089 Y13.821 E2.04882
G1 X11.224 Y13.749 E2.04997
G1 X11.446 Y13.698 E2.05165
G1 X11.700 Y13.700 E2.05354
G1 X11.845 Y13.729 E2.05464
G1 X11.979 Y13.803 E2.05578
G1 X12.220 Y14.037 E2.05827
G1 X12.304 Y14.172 E2.05945
G1 X12.368 Y14.422 E2.06136
G1 X12.357 Y14.669 E2.06319
G1 X12.309 Y14.827 E2.06442
G1 X12.233 Y14.967 E2.06561
G1 X12.132 Y15.089 E2.06678
G1 X12.010 Y15.190 E2.06796
G1 X11.868 Y15.265 E2.06915
G1 X11.709 Y15.314 E2.07038
G1 X11.431 Y15.327 E2.07245
G1 X10.653 Y16.106 E2.08062
G1 X10.645 Y16.406 E2.08285
G1 X10.737 Y16.421 E2.08354
G1 X10.808 Y16.196 E2.08529
G1 X10.874 Y16.086 E2.08624
G1 X11.034 Y15.919 E2.08796
G1 X11.236 Y15.802 E2.08969
G1 X11.514 Y15.744 E2.09180
G1 X11.684 Y15.752 E2.09307
G1 X11.922 Y15.832 E2.09493
G1 X12.036 Y15.903 E2.09593
G1 X12.204 Y16.060 E2.09763
G1 X13.778 Y16.080 E2.10931
G1 X13.975 Y16.278 E2.11139
G1 X14.037 Y16.375 E2.11225
G1 X14.074 Y16.570 E2.11372
G1 X14.056 Y16.700 E2.11469
G1 X14.005 Y16.821 E2.11566
G1 X13.923 Y16.928 E2.11667
G1 X13.706 Y17.063 E2.11856
G1 X12.224 Y17.063 E2.12957
G1 X12.051 Y17.223 E2.13131
G1 X11.729 Y17.371 E2.13395
G1 X11.571 Y17.397 E2.13513
G1 X11.399 Y17.380 E2.13642
G1 X11.241 Y17.332 E2.13765
