; generated by Slic3r 1.3.0 on 2026-04-04 at 21:29:49

; external perimeters extrusion width = 1.00mm (3.93mm^3/s)
; perimeters extrusion width = 1.00mm (7.85mm^3/s)
; infill extrusion width = 1.00mm (7.85mm^3/s)
; solid infill extrusion width = 1.00mm (1.57mm^3/s)
; top infill extrusion width = 1.00mm (0.24mm^3/s)

M107
M104 S5 ; set temperature


; Filament gcode

M109 S5 ; set temperature and wait for it to be reached
G21 ; set units to millimeters
G90 ; use absolute coordinates
M82 ; use absolute distances for extrusion
G92 E0
G1 Z0.100 F1200.000
G1 E-2.00000 F2400.00000
G92 E0
G1 Z0.600 F1200.000
G1 X5.157 Y7.657 F1200.000
G1 Z0.100 F1200.000
G1 E2.00000 F2400.00000
G1 F600
G1 X39.843 Y7.657 E3.41112
G1 X39.843 Y42.343 E4.82225
G1 X5.157 Y42.343 E6.23337
G1 X5.157 Y7.807 E7.63839
G1 X4.179 Y6.679 F1200.000
G1 F600
G1 X40.821 Y6.679 E9.12913
G1 X40.821 Y43.321 E10.61987
G1 X4.179 Y43.321 E12.11062
G1 X4.179 Y6.829 E13.59526
G1 X3.200 Y5.700 F1200.000
G1 F300
G1 X41.800 Y5.700 E15.16562
G1 X41.800 Y44.300 E16.73598
G1 X3.200 Y44.300 E18.30634
G1 X3.200 Y5.850 E19.87060
G1 X4.166 Y5.959 F1200.000
G1 E17.87060 F2400.00000
G92 E0
G1 Z0.600 F1200.000
G1 X5.755 Y9.016 F1200.000
G1 Z0.100 F1200.000
G1 E2.00000 F2400.00000
G1 F120
G1 X6.516 Y8.255 E2.04407
G1 X7.909 Y8.255 E2.10109
G1 X5.755 Y10.409 E2.22581
G1 X5.755 Y11.802 E2.28283
G1 X9.302 Y8.255 E2.48820
G1 X10.694 Y8.255 E2.54522
G1 X5.755 Y13.194 E2.83122
G1 X5.755 Y14.587 E2.88824
G1 X12.087 Y8.255 E3.25488
G1 X13.480 Y8.255 E3.31190
G1 X5.755 Y15.980 E3.75919
G1 X5.755 Y17.373 E3.81621
G1 X14.873 Y8.255 E4.34413
G1 X16.265 Y8.255 E4.40116
G1 X5.755 Y18.765 E5.00972
G1 X5.755 Y20.158 E5.06674
G1 X17.658 Y8.255 E5.75595
G1 X19.051 Y8.255 E5.81297
G1 X5.755 Y21.551 E6.58282
G1 X5.755 Y22.943 E6.63984
G1 X20.443 Y8.255 E7.49032
G1 X21.836 Y8.255 E7.54735
G1 X5.755 Y24.336 E8.47847
G1 X5.755 Y25.729 E8.53550
G1 X23.229 Y8.255 E9.54727
G1 X24.622 Y8.255 E9.60429
G1 X5.755 Y27.122 E10.69670
G1 X5.755 Y28.514 E10.75372
G1 X26.014 Y8.255 E11.92677
G1 X27.407 Y8.255 E11.98379
G1 X5.755 Y29.907 E13.23748
G1 X5.755 Y31.300 E13.29450
G1 X28.800 Y8.255 E14.62884
G1 X30.192 Y8.255 E14.68586
G1 X5.755 Y32.692 E16.10083
G1 X5.755 Y34.085 E16.15785
G1 X31.585 Y8.255 E17.65347
G1 X32.978 Y8.255 E17.71049
G1 X5.755 Y35.478 E19.28674
G1 X5.755 Y36.870 E19.34376
G1 X34.370 Y8.255 E21.00066
G1 X35.763 Y8.255 E21.05768
G1 X5.755 Y38.263 E22.79522
G1 X5.755 Y39.656 E22.85224
G1 X37.156 Y8.255 E24.67042
G1 X38.549 Y8.255 E24.72744
G1 X5.755 Y41.049 E26.62625
G1 X5.755 Y41.745 E26.65477
G1 X6.451 Y41.745 E26.68328
G1 X39.245 Y8.951 E28.58209
G1 X39.245 Y10.344 E28.63912
G1 X7.844 Y41.745 E30.45729
G1 X9.237 Y41.745 E30.51431
G1 X39.245 Y11.737 E32.25185
G1 X39.245 Y13.130 E32.30887
G1 X10.630 Y41.745 E33.96576
G1 X12.022 Y41.745 E34.02279
G1 X39.245 Y14.522 E35.59904
G1 X39.245 Y15.915 E35.65606
G1 X13.415 Y41.745 E37.15168
G1 X14.808 Y41.745 E37.20870
G1 X39.245 Y17.308 E38.62367
G1 X39.245 Y18.700 E38.68069
G1 X16.200 Y41.745 E40.01502
G1 X17.593 Y41.745 E40.07204
G1 X39.245 Y20.093 E41.32573
G1 X39.245 Y21.486 E41.38276
G1 X18.986 Y41.745 E42.55581
G1 X20.378 Y41.745 E42.61283
G1 X39.245 Y22.878 E43.70524
G1 X39.245 Y24.271 E43.76226
G1 X21.771 Y41.745 E44.77403
G1 X23.164 Y41.745 E44.83105
G1 X39.245 Y25.664 E45.76218
G1 X39.245 Y27.057 E45.81920
G1 X24.557 Y41.745 E46.66968
G1 X25.949 Y41.745 E46.72671
G1 X39.245 Y28.449 E47.49655
G1 X39.245 Y29.842 E47.55357
G1 X27.342 Y41.745 E48.24278
G1 X28.735 Y41.745 E48.29980
G1 X39.245 Y31.235 E48.90837
G1 X39.245 Y32.627 E48.96539
G1 X30.127 Y41.745 E49.49331
G1 X31.520 Y41.745 E49.55033
G1 X39.245 Y34.020 E49.99761
G1 X39.245 Y35.413 E50.05464
G1 X32.913 Y41.745 E50.42128
G1 X34.306 Y41.745 E50.47830
G1 X39.245 Y36.806 E50.76430
G1 X39.245 Y38.198 E50.82132
G1 X35.698 Y41.745 E51.02668
G1 X37.091 Y41.745 E51.08371
G1 X39.245 Y39.591 E51.20842
G1 X39.245 Y40.984 E51.26545
G1 X38.484 Y41.745 E51.30953
G1 E49.30953 F2400.00000
G92 E0
G1 Z0.600 F1200.000
; Filament-specific end gcode 
;END gcode for filament

G1 Z0  ; home X axis

M104 S0 ; set temperature
M140 S0 ; set bed temperature
; filament used = 67.2mm (0.2cm3)
; total filament cost = 0.0

; avoid_crossing_perimeters = 0
; bed_shape = 0x0,45x0,45x50,0x50
; bed_temperature = 0
; before_layer_gcode = 
; between_objects_gcode = 
; bridge_acceleration = 0
; bridge_fan_speed = 100
; brim_connections_width = 0
; brim_width = 0
; complete_objects = 0
; cooling = 1
; default_acceleration = 0
; disable_fan_first_layers = 3
; duplicate_distance = 6
; end_filament_gcode = "; Filament-specific end gcode \n;END gcode for filament\n"
; end_gcode = G1 Z0  ; home X axis\n
; extruder_clearance_height = 20
; extruder_clearance_radius = 20
; extruder_offset = 0x0
; extrusion_axis = E
; extrusion_multiplier = 1
; fan_always_on = 0
; fan_below_layer_time = 60
; filament_colour = #FFFFFF
; filament_cost = 0
; filament_density = 0
; filament_diameter = 1.75
; filament_max_volumetric_speed = 0
; filament_notes = ""
; first_layer_acceleration = 0
; first_layer_bed_temperature = 0
; first_layer_extrusion_width = 1
; first_layer_speed = 100%
; first_layer_temperature = 5
; gcode_arcs = 0
; gcode_comments = 0
; gcode_flavor = reprap
; has_heatbed = 1
; infill_acceleration = 0
; infill_first = 0
; interior_brim_width = 0
; layer_gcode = 
; max_fan_speed = 100
; max_layer_height = 3
; max_print_speed = 80
; max_volumetric_speed = 0
; min_fan_speed = 35
; min_layer_height = 0.03
; min_print_speed = 10
; min_skirt_length = 0
; notes = 
; nozzle_diameter = 1
; only_retract_when_crossing_perimeters = 1
; ooze_prevention = 0
; output_filename_format = [input_filename_base].gcode
; perimeter_acceleration = 0
; post_process = 
; pressure_advance = 0
; printer_notes = 
; resolution = 0
; retract_before_travel = 2
; retract_layer_change = 0
; retract_length = 2
; retract_length_toolchange = 10
; retract_lift = 0.5
; retract_lift_above = 0
; retract_lift_below = 0
; retract_restart_extra = 0
; retract_restart_extra_toolchange = 0
; retract_speed = 40
; skirt_distance = 6
; skirt_height = 1
; skirts = 0
; slowdown_below_layer_time = 5
; spiral_vase = 0
; standby_temperature_delta = -5
; start_filament_gcode = "; Filament gcode\n"
; start_gcode = \n
; temperature = 0
; threads = 16
; toolchange_gcode = 
; travel_speed = 20
; use_firmware_retraction = 0
; use_relative_e_distances = 0
; use_set_and_wait_bed = 0
; use_set_and_wait_extruder = 0
; use_volumetric_e = 0
; vibration_limit = 0
; wipe = 0
; z_offset = 0
; z_steps_per_mm = 0
; adaptive_slicing = 0
; adaptive_slicing_quality = 75%
; dont_support_bridges = 1
; extrusion_width = 1
; first_layer_height = 0.1
; infill_only_where_needed = 0
; interface_shells = 0
; layer_height = 1
; match_horizontal_surfaces = 0
; raft_layers = 0
; regions_overlap = 0
; seam_position = aligned
; sequential_print_priority = 0
; support_material = 0
; support_material_angle = 0
; support_material_buildplate_only = 0
; support_material_contact_distance = 0.2
; support_material_enforce_layers = 0
; support_material_extruder = 1
; support_material_extrusion_width = 0
; support_material_interface_extruder = 1
; support_material_interface_extrusion_width = 0
; support_material_interface_layers = 3
; support_material_interface_spacing = 0
; support_material_interface_speed = 100%
; support_material_max_layers = 0
; support_material_pattern = pillars
; support_material_spacing = 2.5
; support_material_speed = 60
; support_material_threshold = 60%
; xy_size_compensation = 0
; bottom_infill_pattern = rectilinear
; bottom_solid_layers = 3
; bridge_flow_ratio = 1
; bridge_speed = 1
; external_perimeter_extrusion_width = 1
; external_perimeter_speed = 50%
; external_perimeters_first = 0
; extra_perimeters = 1
; fill_angle = 45
; fill_density = 20%
; fill_gaps = 1
; fill_pattern = stars
; gap_fill_speed = 20%
; infill_every_layers = 1
; infill_extruder = 1
; infill_extrusion_width = 1
; infill_overlap = 55%
; infill_speed = 10
; overhangs = 1
; perimeter_extruder = 1
; perimeter_extrusion_width = 1
; perimeter_speed = 10
; perimeters = 3
; small_perimeter_speed = 25%
; solid_infill_below_area = 70
; solid_infill_every_layers = 0
; solid_infill_extruder = 1
; solid_infill_extrusion_width = 1
; solid_infill_speed = 20%
; thin_walls = 1
; top_infill_extrusion_width = 1
; top_infill_pattern = rectilinear
; top_solid_infill_speed = 15%
; top_solid_layers = 3
