;START
;%
;(VECTRIC POST REVISION)
;(2913AB479EA3000D32B9C42F7F010597)
;O0001
;G17 G90 G21 G40 G80
;G08 P1
;T0
;(TOOL#1)
;T1
;M11
;G0 G90 X0.000 Y0.000 M13 S18000
;G0 G43 Z20.000 H1
G0 X21.381 Y13.202 
G0   Z1.000
G1   Z-0.110F200.0
G1 X21.344 Y13.322 F700.0
G1 X21.308 Y13.556 
G1 X21.292 Y13.738 
G1 X21.310 Y13.832 
G1 X21.338 Y13.855 
G1 X21.383 Y13.866 
G1 X21.532 Y13.871 
G1 X21.682 Y13.868 
G1 X21.758 Y13.844 
G1 X21.787 Y13.779 
G1 X21.791 Y13.652 
G1 X21.813 Y13.469 
G1 X21.840 Y13.404 
G1 X21.879 Y13.357 
G1 X21.967 Y13.282 
G1 X23.985 Y12.147 
G1 X24.149 Y12.120 
G1 X24.244 Y12.108 
G1 X24.292 Y12.128 
G1 X24.310 Y12.200 
G1 X24.313 Y12.346 
G1 X24.331 Y12.549 
G1 X24.356 Y12.602 
G1 X24.393 Y12.630 
G1 X24.472 Y12.661 
G1 X28.186  
G1 X28.385 Y12.484 
G1 X28.576 Y11.935 
G1 X28.728 Y11.452 
G1 X28.723 Y11.367 
G1 X28.674 Y11.317 
G1 X28.581 Y11.248 
G1 X24.631  
G1 X24.554 Y11.337 
G1 X24.486 Y11.443 
G1 X24.429 Y11.576 
G1 X24.394 Y11.660 
G1 X24.342 Y11.709 
G1 X24.246 Y11.738 
G1 X24.082 Y11.759 
G1 X23.783 Y11.791 
G1 X21.419 Y13.164 
G1 X21.381 Y13.202 
G0   Z1.000
G0 X25.632 Y14.796 
G1   Z-0.110F200.0
G1 X25.649 Y14.759 F700.0
G1 X25.688 Y14.723 
G1 X25.751 Y14.687 
G1 X25.861 Y14.645 
G1 X25.947 Y14.632 
G1 X26.024 Y14.650 
G1 X26.104 Y14.698 
G1 X26.152 Y14.738 
G1 X26.171 Y14.771 
G1 X26.164 Y14.806 
G1 X26.131 Y14.852 
G1 X26.088 Y14.889 
G1 X26.029 Y14.912 
G1 X25.856 Y14.921 
G1 X25.708 Y14.889 
G1 X25.662 Y14.863 
G1 X25.637 Y14.831 
G1 X25.632 Y14.796 
G0   Z1.000
G0 X25.546 Y14.473 
G1   Z-0.110F200.0
G1 X25.387 Y14.544 F700.0
G1 X25.226 Y14.628 
G1 X22.710  
G1 X22.684 Y14.766 
G1 X22.672 Y14.875 
G1 X22.681 Y14.943 
G1 X22.705 Y14.981 
G1 X25.164  
G1 X25.356 Y15.094 
G1 X25.451 Y15.140 
G1 X25.554 Y15.173 
G1 X25.777 Y15.201 
G1 X26.006 Y15.184 
G1 X26.221 Y15.130 
G1 X26.404 Y15.044 
G1 X26.537 Y14.934 
G1 X26.578 Y14.872 
G1 X26.600 Y14.806 
G1 X26.599 Y14.737 
G1 X26.575 Y14.666 
G1 X26.500 Y14.569 
G1 X26.388 Y14.492 
G1 X26.245 Y14.436 
G1 X26.075 Y14.404 
G1 X25.872 Y14.399 
G1 X25.700 Y14.420 
G1 X25.546 Y14.473 
G0   Z1.000
G0 X27.995 Y13.821 
G1   Z-0.110F200.0
G1 X28.422  F700.0
G1 X28.783 Y13.804 
G1 X28.859 Y13.774 
G1 X28.901 Y13.723 
G1 X28.953 Y13.572 
G1  Y13.518 
G1 X28.526  
G1 X28.165 Y13.535 
G1 X28.089 Y13.565 
G1 X28.047 Y13.616 
G1 X27.995 Y13.767 
G1  Y13.821 
G0   Z1.000
G0 X30.055 Y11.781 
G1   Z-0.110F200.0
G1 X30.131 Y11.831 F700.0
G1 X30.226 Y11.872 
G1 X30.338 Y11.902 
G1 X30.618 Y11.927 
G1 X30.802 Y11.912 
G1 X30.973 Y11.871 
G1 X31.127 Y11.808 
G1 X31.259 Y11.728 
G1 X31.361 Y11.634 
G1 X31.431 Y11.531 
G1 X31.461 Y11.422 
G1 X31.447 Y11.312 
G1 X31.415 Y11.250 
G1 X31.366 Y11.191 
G1 X31.228 Y11.091 
G1 X31.055 Y11.023 
G1 X30.870 Y11.000 
G1 X30.686 Y11.021 
G1 X30.491 Y11.067 
G1 X30.351 Y11.118 
G1 X30.231 Y11.176 
G1 X30.132 Y11.240 
G1 X30.054 Y11.308 
G1 X29.995 Y11.379 
G1 X29.957 Y11.451 
G1 X29.938 Y11.523 
G1 X29.938 Y11.594 
G1 X29.958 Y11.661 
G1 X29.997 Y11.724 
G1 X30.055 Y11.781 
G0   Z1.000
G0 X29.531 Y13.417 
G1   Z-0.110F200.0
G1 X29.319 Y13.565 F700.0
G1 X28.978 Y14.361 
G1 X28.316 Y15.883 
G1 X27.995 Y16.608 
G1  Y16.670 
G1 X28.026 Y16.741 
G1 X28.100 Y16.826 
G1 X28.206 Y16.922 
G1 X30.290 Y16.959 
G1 X30.505 Y16.901 
G1 X30.613 Y16.864 
G1 X30.699 Y16.815 
G1 X30.772 Y16.747 
G1 X30.839 Y16.656 
G1 X30.959 Y16.469 
G1 X32.401 Y14.002 
G1 X32.422 Y13.895 
G1 X32.414 Y13.765 
G1 X32.365 Y13.602 
G1 X32.288 Y13.417 
G1 X29.531  
G0   Z1.000
G0 X28.690 Y14.148 
G1   Z-0.110F200.0
G1 X28.676 Y14.136 F700.0
G1 X28.284 Y14.100 
G1 X28.057 Y14.082 
G1 X27.933 Y14.090 
G1 X27.896 Y14.107 
G1 X27.869 Y14.136 
G1 X27.822 Y14.233 
G1 X27.788 Y14.330 
G1 X27.791 Y14.361 
G1 X27.813 Y14.382 
G1 X27.932 Y14.405 
G1 X28.176 Y14.416 
G1 X28.553 Y14.411 
G1 X28.616 Y14.372 
G1 X28.653 Y14.295 
G1 X28.690 Y14.148 
G0   Z1.000
G0 X28.449 Y14.678 
G1   Z-0.110F200.0
G1 X28.053  F700.0
G1 X27.832 Y14.681 
G1 X27.706 Y14.697 
G1 X27.641 Y14.736 
G1 X27.599 Y14.808 
G1 X27.566 Y14.914 
G1 X27.569 Y14.985 
G1 X27.609 Y15.003 
G1 X27.700 Y15.018 
G1 X27.974 Y15.032 
G1 X28.185 Y15.029 
G1 X28.304 Y15.013 
G1 X28.364 Y14.974 
G1 X28.400 Y14.902 
G1 X28.449 Y14.726 
G1  Y14.678 
G0   Z1.000
G0 X28.210 Y15.264 
G1   Z-0.110F200.0
G1 X28.080 Y15.242 F700.0
G1 X27.809 Y15.233 
G1 X27.601 Y15.236 
G1 X27.484 Y15.252 
G1 X27.424 Y15.291 
G1 X27.388 Y15.363 
G1 X27.339 Y15.514 
G1  Y15.536 
G1 X27.735  
G1 X28.079 Y15.518 
G1 X28.145 Y15.481 
G1 X28.185 Y15.415 
G1 X28.215 Y15.320 
G1 X28.210 Y15.264 
G0   Z1.000
G0 X27.963 Y15.822 
G1   Z-0.110F200.0
G1 X27.846 Y15.794 F700.0
G1 X27.618 Y15.788 
G1 X27.300 Y15.806 
G1 X27.230 Y15.835 
G1 X27.190 Y15.886 
G1 X27.145 Y15.995 
G1 X27.147 Y16.031 
G1 X27.170 Y16.057 
G1 X27.286 Y16.084 
G1 X27.514 Y16.091 
G1 X27.832 Y16.073 
G1 X27.902 Y16.044 
G1 X27.943 Y15.993 
G1 X27.988 Y15.884 
G1 X27.985 Y15.848 
G1 X27.963 Y15.822 
G0   Z1.000
G0 X29.317 Y17.347 
G1   Z-0.110F200.0
G1 X28.837 Y18.220 F700.0
G1 X28.029 Y19.697 
G1 X27.700 Y20.303 
G1 X22.371 Y20.353 
G1 X22.383 Y20.550 
G1 X22.400 Y20.698 
G1 X22.425 Y20.777 
G1 X22.455 Y20.807 
G1 X27.869 Y20.840 
G1 X28.046 Y20.706 
G1 X29.911 Y17.377 
G1 X29.317 Y17.347 
G0   Z1.000
G0 X27.239 Y19.655 
G1   Z-0.110F200.0
G1 X27.130 Y19.595 F700.0
G1 X26.986 Y19.558 
G1 X26.802 Y19.552 
G1 X26.608 Y19.577 
G1 X26.438 Y19.642 
G1 X26.313 Y19.734 
G1 X26.263 Y19.799 
G1 X26.248 Y19.843 
G1 X26.270 Y19.882 
G1 X26.332 Y19.935 
G1 X26.432 Y19.989 
G1 X26.563 Y20.019 
G1 X26.712 Y20.027 
G1 X26.868 Y20.016 
G1 X27.017 Y19.986 
G1 X27.148 Y19.940 
G1 X27.248 Y19.879 
G1 X27.304 Y19.805 
G1 X27.311 Y19.766 
G1 X27.301 Y19.728 
G1 X27.239 Y19.655 
G0   Z1.000
G0 X26.619 Y18.953 
G1   Z-0.110F200.0
G1 X26.630 Y18.928 F700.0
G1 X26.620 Y18.906 
G1 X26.540 Y18.876 
G1 X26.384 Y18.865 
G1 X26.199 Y18.880 
G1 X26.103 Y18.916 
G1 X26.089 Y18.964 
G1 X26.106 Y19.005 
G1 X26.148 Y19.037 
G1 X26.210 Y19.059 
G1 X26.368 Y19.065 
G1 X26.454 Y19.048 
G1 X26.535 Y19.015 
G1 X26.619 Y18.953 
G0   Z1.000
G0 X26.514 Y18.704 
G1   Z-0.110F200.0
G1 X26.666 Y18.671 F700.0
G1 X26.706 Y18.641 
G1 X26.725 Y18.600 
G1 X26.724 Y18.555 
G1 X26.692 Y18.528 
G1 X26.618 Y18.515 
G1 X26.491 Y18.512 
G1 X26.292 Y18.530 
G1 X26.238 Y18.554 
G1 X26.211 Y18.590 
G1 X26.207 Y18.652 
G1 X26.256 Y18.692 
G1 X26.358 Y18.709 
G1 X26.514 Y18.704 
G0   Z1.000
G0 X26.571 Y18.375 
G1   Z-0.110F200.0
G1 X26.743 Y18.373 F700.0
G1 X26.802 Y18.357 
G1 X26.839 Y18.330 
G1 X26.874 Y18.258 
G1 X26.867 Y18.228 
G1 X26.845 Y18.204 
G1 X26.754 Y18.170 
G1 X26.603 Y18.159 
G1 X26.425 Y18.178 
G1 X26.374 Y18.202 
G1 X26.348 Y18.237 
G1 X26.331 Y18.299 
G1 X26.351 Y18.335 
G1 X26.425 Y18.357 
G1 X26.571 Y18.375 
G0   Z1.000
G0 X26.549 Y18.049 
G1   Z-0.110F200.0
G1 X26.713 Y18.057 F700.0
G1 X26.880 Y18.034 
G1 X26.945 Y18.011 
G1 X26.987 Y17.981 
G1 X27.026 Y17.917 
G1 X27.025 Y17.893 
G1 X27.009 Y17.873 
G1 X26.928 Y17.843 
G1 X26.772 Y17.820 
G1 X26.588 Y17.818 
G1 X26.530 Y17.839 
G1 X26.488 Y17.874 
G1 X26.451 Y17.945 
G1 X26.455 Y18.005 
G1 X26.490 Y18.032 
G1 X26.549 Y18.049 
G0   Z1.000
G0 X26.109 Y17.427 
G1   Z-0.110F200.0
G1 X26.161 Y17.340 F700.0
G1 X26.179 Y17.229 
G1 X26.170 Y17.193 
G1 X26.140 Y17.169 
G1 X26.011 Y17.150 
G1 X25.926 Y17.156 
G1 X25.865 Y17.177 
G1 X25.820 Y17.217 
G1 X25.783 Y17.280 
G1 X25.748 Y17.385 
G1 X25.758 Y17.454 
G1 X25.817 Y17.492 
G1 X25.928 Y17.503 
G1 X26.030 Y17.483 
G1 X26.109 Y17.427 
G0   Z1.000
G0 X24.857 Y17.255 
G1   Z-0.110F200.0
G1 X24.855 Y17.187 F700.0
G1 X24.802 Y17.157 
G1 X24.693 Y17.150 
G1 X24.610 Y17.156 
G1 X24.545 Y17.174 
G1 X24.497 Y17.207 
G1 X24.462 Y17.255 
G1 X24.426 Y17.358 
G1 X24.442 Y17.436 
G1 X24.505 Y17.486 
G1 X24.615 Y17.503 
G1 X24.692 Y17.497 
G1 X24.747 Y17.476 
G1 X24.787 Y17.436 
G1 X24.818 Y17.374 
G1 X24.857 Y17.255 
G0   Z1.000
G0 X24.282 Y17.654 
G1   Z-0.110F200.0
G1 X24.115 Y17.781 F700.0
G1 X23.841 Y19.170 
G1 X23.965 Y19.294 
G1 X25.683  
G1 X25.816 Y19.111 
G1 X26.284 Y17.739 
G1 X26.154 Y17.656 
G1 X24.282 Y17.654 
G0   Z1.000
G0 X25.069 Y17.412 
G1   Z-0.110F200.0
G1 X25.097 Y17.457 F700.0
G1 X25.162 Y17.490 
G1 X25.277 Y17.503 
G1 X25.390 Y17.478 
G1 X25.437 Y17.437 
G1 X25.480 Y17.371 
G1 X25.570 Y17.135 
G1 X25.685 Y16.726 
G1 X25.768 Y16.353 
G1 X25.761 Y16.278 
G1 X25.725 Y16.238 
G1 X25.649 Y16.191 
G1 X24.974 Y15.763 
G1 X24.571 Y15.515 
G1 X24.421 Y15.439 
G1 X24.282 Y15.388 
G1 X24.135 Y15.357 
G1 X23.965 Y15.341 
G1 X23.482 Y15.334 
G1 X22.665  
G1 X22.631 Y15.368 
G1 X22.608 Y15.426 
G1 X22.598 Y15.519 
G1  Y15.637 
G1 X23.341  
G1 X23.780 Y15.642 
G1 X24.066 Y15.682 
G1 X24.191 Y15.724 
G1 X24.324 Y15.788 
G1 X24.678 Y15.995 
G1 X25.272 Y16.354 
G1 X25.327 Y16.443 
G1 X25.069 Y17.412 
G0   Z1.000
G0 X22.895 Y17.055 
G1   Z-0.110F200.0
G1 X22.828 Y17.126 F700.0
G1 X22.745 Y17.177 
G1 X22.667 Y17.197 
G1 X22.584 Y17.187 
G1 X22.490 Y17.147 
G1 X22.443 Y17.117 
G1 X22.422 Y17.089 
G1 X22.424 Y17.058 
G1 X22.449 Y17.020 
G1 X22.525 Y16.972 
G1 X22.634 Y16.951 
G1 X22.750 Y16.961 
G1 X22.850 Y17.000 
G1 X22.886 Y17.029 
G1 X22.895 Y17.055 
G0   Z1.000
G0 X22.922 Y16.770 
G1   Z-0.110F200.0
G1 X22.689 Y16.749 F700.0
G1 X22.455 Y16.769 
G1 X22.270 Y16.816 
G1 X22.160 Y16.875 
G1 X22.079 Y16.940 
G1 X22.029 Y17.010 
G1 X22.008 Y17.081 
G1 X22.018 Y17.151 
G1 X22.058 Y17.219 
G1 X22.129 Y17.281 
G1 X22.230 Y17.334 
G1 X22.322 Y17.378 
G1 X22.372 Y17.419 
G1 X22.388 Y17.471 
G1 X22.380 Y17.545 
G1 X22.317 Y18.119 
G1 X22.300 Y18.372 
G1 X22.310 Y18.511 
G1 X22.331 Y18.552 
G1 X22.364 Y18.583 
G1 X22.475 Y18.636 
G1 X22.593 Y18.674 
G1 X22.742 Y18.696 
G1 X23.200 Y18.703 
G1 X23.731 Y18.689 
G1 X23.763 Y18.522 
G1 X22.802 Y18.450 
G1 X22.750 Y18.387 
G1 X22.731 Y18.333 
G1 X22.727 Y18.232 
G1 X22.762 Y17.879 
G1 X22.802 Y17.620 
G1 X22.843 Y17.476 
G1 X22.910 Y17.397 
G1 X23.027 Y17.330 
G1 X23.128 Y17.271 
G1 X23.192 Y17.214 
G1 X23.227 Y17.149 
G1 X23.244 Y17.065 
G1 X23.246 Y16.979 
G1 X23.229 Y16.919 
G1 X23.185 Y16.871 
G1 X23.108 Y16.825 
G1 X22.922 Y16.770 
G0   Z1.000
G0 X23.354 Y17.863 
G1   Z-0.110F200.0
G1 X23.259 Y17.917 F700.0
G1 X23.273 Y17.944 
G1 X23.326 Y17.986 
G1 X23.396 Y18.023 
G1 X23.478 Y18.047 
G1 X23.653 Y18.055 
G1 X23.798 Y18.015 
G1 X23.843 Y17.978 
G1 X23.859 Y17.932 
G1 X23.839 Y17.880 
G1 X23.783 Y17.840 
G1 X23.697 Y17.816 
G1 X23.590 Y17.809 
G1 X23.476 Y17.826 
G1 X23.354 Y17.863 
G0   Z1.000
G0 X23.300 Y18.176 
G1   Z-0.110F200.0
G1 X23.262 Y18.207 F700.0
G1 X23.253 Y18.262 
G1 X23.261 Y18.317 
G1 X23.296 Y18.347 
G1 X23.376 Y18.356 
G1 X23.518 Y18.351 
G1 X23.730 Y18.320 
G1 X23.778 Y18.290 
G1 X23.799 Y18.247 
G1 X23.798 Y18.202 
G1 X23.762 Y18.175 
G1 X23.535 Y18.159 
G1 X23.300 Y18.176 
G0   Z1.000
G0 X23.405 Y18.865 
G1   Z-0.110F200.0
G1 X23.229 Y18.875 F700.0
G1 X23.136 Y18.898 
G1 X23.120 Y18.926 
G1 X23.123 Y18.954 
G1 X23.176 Y19.009 
G1 X23.277 Y19.050 
G1 X23.405 Y19.067 
G1 X23.533 Y19.050 
G1 X23.633 Y19.009 
G1 X23.686 Y18.954 
G1 X23.689 Y18.926 
G1 X23.673 Y18.898 
G1 X23.581 Y18.875 
G1 X23.405 Y18.865 
G0   Z1.000
G0 X21.530 Y20.000 
G1   Z-0.110F200.0
G1 X20.052 Y17.654 F700.0
G1 X19.975  
G1 X19.967 Y20.454 
G1 X19.431 Y18.877 
G1 X19.329 Y18.694 
G1 X19.056 Y19.120 
G1 X18.568 Y19.908 
G1 X18.353 Y20.271 
G1 X19.898 Y22.926 
G1 X19.899 Y24.288 
G1 X18.287 Y21.545 
G1 X18.274 Y21.564 
G1 X18.242 Y22.446 
G1 X18.210 Y24.072 
G1 X18.209 Y24.815 
G1 X17.970 Y24.938 
G1 X17.641 Y25.128 
G1 X17.552 Y25.195 
G1 X17.251 Y26.954 
G1  Y27.119 
G1 X22.799 Y27.112 
G1 X22.799 Y27.027 
G1 X22.491 Y25.198 
G1 X22.472 Y25.179 
G1 X22.134 Y24.974 
G1 X21.816 Y24.789 
G1 X21.765 Y20.404 
G1 X21.530 Y20.000 
G0   Z1.000
G0 X18.209 Y19.294 
G1   Z-0.110F200.0
G1 X18.197 Y19.258 F700.0
G1 X18.156 Y19.235 
G1 X17.966 Y19.218 
G1 X17.784 Y19.228 
G1 X17.689 Y19.250 
G1 X17.668 Y19.299 
G1 X17.709 Y19.337 
G1 X17.808 Y19.361 
G1 X17.960 Y19.369 
G1 X18.155 Y19.353 
G1 X18.197 Y19.330 
G1 X18.209 Y19.294 
G0   Z1.000
G0 X18.153 Y19.073 
G1   Z-0.110F200.0
G1 X18.189 Y19.043 F700.0
G1 X18.202 Y19.014 
G1 X18.196 Y18.987 
G1 X18.170 Y18.964 
G1 X18.066 Y18.929 
G1 X17.900 Y18.916 
G1 X17.696 Y18.932 
G1 X17.665 Y18.959 
G1 X17.664 Y19.004 
G1 X17.685 Y19.039 
G1 X17.731 Y19.068 
G1 X17.870 Y19.105 
G1 X18.028 Y19.110 
G1 X18.153 Y19.073 
G0   Z1.000
G0 X18.059 Y18.774 
G1   Z-0.110F200.0
G1 X18.120 Y18.743 F700.0
G1 X18.149 Y18.701 
G1 X18.148 Y18.655 
G1 X18.112 Y18.629 
G1 X17.881 Y18.613 
G1 X17.651 Y18.629 
G1 X17.615 Y18.655 
G1 X17.614 Y18.701 
G1 X17.643 Y18.743 
G1 X17.704 Y18.774 
G1 X17.881 Y18.798 
G1 X18.059 Y18.774 
G0   Z1.000
G0 X18.075 Y18.471 
G1   Z-0.110F200.0
G1 X18.120 Y18.447 F700.0
G1 X18.134 Y18.411 
G1 X18.119 Y18.375 
G1 X18.069 Y18.349 
G1 X17.839 Y18.320 
G1 X17.597 Y18.323 
G1 X17.563 Y18.348 
G1 X17.563 Y18.396 
G1 X17.583 Y18.441 
G1 X17.630 Y18.469 
G1 X17.717 Y18.483 
G1 X17.857 Y18.487 
G1 X18.075 Y18.471 
G0   Z1.000
G0 X17.343 Y18.394 
G1   Z-0.110F200.0
G1 X17.301 Y18.284 F700.0
G1 X17.243 Y18.209 
G1 X17.138 Y18.154 
G1 X16.988 Y18.120 
G1 X16.797 Y18.108 
G1 X16.716 Y18.098 
G1 X16.662 Y18.036 
G1 X16.613 Y17.875 
G1 X16.547 Y17.566 
G1 X16.435 Y17.024 
G1 X16.410 Y16.915 
G1 X16.413 Y16.851 
G1 X16.468 Y16.783 
G1 X16.598 Y16.695 
G1 X16.823 Y16.568 
G1 X17.178 Y16.365 
G1 X17.390 Y16.216 
G1 X17.450 Y16.156 
G1 X17.482 Y16.102 
G1 X17.490 Y16.052 
G1 X17.476 Y16.004 
G1 X17.446 Y15.957 
G1 X17.410 Y15.932 
G1 X17.362 Y15.927 
G1 X17.295 Y15.941 
G1 X17.163 Y15.978 
G1 X16.066 Y16.605 
G1 X15.938 Y16.726 
G1 X16.192 Y17.971 
G1  Y18.108 
G1 X14.849  
G1 X14.665 Y18.243 
G1 X15.042 Y19.395 
G1 X15.244 Y19.571 
G1 X17.390  
G1 X17.498 Y19.441 
G1 X17.343 Y18.394 
G0   Z1.000
G0 X18.157 Y17.111 
G1   Z-0.110F200.0
G1 X18.127 Y17.075 F700.0
G1 X18.111 Y17.013 
G1 X18.115 Y16.975 
G1 X18.176 Y16.949 
G1 X18.278 Y16.930 
G1 X18.389 Y16.924 
G1 X18.477 Y16.932 
G1 X18.537 Y16.974 
G1 X18.552 Y17.041 
G1 X18.529 Y17.081 
G1 X18.482 Y17.112 
G1 X18.348 Y17.145 
G1 X18.209 Y17.134 
G1 X18.157 Y17.111 
G0   Z1.000
G0 X18.145 Y17.337 
G1   Z-0.110F200.0
G1 X18.351 Y17.352 F700.0
G1 X18.611 Y17.333 
G1 X18.804 Y17.279 
G1 X18.874 Y17.240 
G1 X18.925 Y17.192 
G1 X18.956 Y17.137 
G1 X18.966 Y17.075 
G1 X18.955 Y16.987 
G1 X18.913 Y16.914 
G1 X18.825 Y16.838 
G1 X18.676 Y16.744 
G1 X18.591 Y16.687 
G1 X18.541 Y16.629 
G1 X18.518 Y16.553 
G1 X18.512 Y16.445 
G1  Y16.242 
G1 X22.043  
G1 X22.223 Y16.062 
G1 X22.403 Y14.502 
G1 X22.427 Y14.416 
G1 X22.429 Y14.375 
G1 X22.414 Y14.325 
G1 X22.348 Y14.227 
G1 X22.245 Y14.124 
G1 X17.755  
G1 X17.656 Y14.223 
G1 X17.613 Y14.276 
G1 X17.586 Y14.333 
G1 X17.575 Y14.395 
G1 X17.579 Y14.463 
G1 X17.603 Y14.603 
G1 X17.758 Y16.015 
G1 X17.783 Y16.096 
G1 X17.837 Y16.169 
G1 X17.933 Y16.233 
G1 X17.996 Y16.270 
G1 X18.034 Y16.318 
G1 X18.053 Y16.387 
G1 X18.058 Y16.488 
G1 X18.052 Y16.596 
G1 X18.028 Y16.670 
G1 X17.974 Y16.729 
G1 X17.881 Y16.790 
G1 X17.764 Y16.881 
G1 X17.706 Y16.976 
G1 X17.701 Y17.070 
G1 X17.747 Y17.158 
G1 X17.840 Y17.235 
G1 X17.973 Y17.296 
G1 X18.145 Y17.337 
G0   Z1.000
G0 X12.643 Y17.899 
G1   Z-0.110F200.0
G1 X12.639 Y17.951 F700.0
G1 X12.600 Y17.986 
G1 X12.542 Y18.005 
G1 X12.397 Y18.003 
G1 X12.264 Y17.957 
G1 X12.223 Y17.920 
G1 X12.207 Y17.876 
G1 X12.219 Y17.849 
G1 X12.253 Y17.828 
G1 X12.363 Y17.807 
G1 X12.494 Y17.814 
G1 X12.604 Y17.851 
G1 X12.643 Y17.899 
G0   Z1.000
G0 X12.667 Y18.202 
G1   Z-0.110F200.0
G1 X12.788 Y18.178 F700.0
G1 X12.905 Y18.130 
G1 X13.036 Y18.055 
G1 X13.281 Y17.900 
G1 X14.603 Y17.190 
G1 X14.670 Y17.127 
G1 X14.698 Y17.076 
G1 X14.700 Y16.988 
G1 X14.610 Y16.602 
G1 X14.533 Y16.307 
G1 X14.524 Y16.211 
G1 X14.543 Y16.133 
G1 X14.595 Y16.062 
G1 X14.686 Y15.985 
G1 X15.005 Y15.770 
G1 X15.206 Y15.637 
G1 X17.402  
G1  Y15.334 
G1 X15.006  
G1 X14.023 Y15.991 
G1  Y16.121 
G1 X14.270 Y16.973 
G1 X14.199 Y17.039 
G1 X13.039 Y17.668 
G1 X12.863 Y17.656 
G1 X12.318 Y17.634 
G1 X12.127 Y17.643 
G1 X11.985 Y17.666 
G1 X11.888 Y17.704 
G1 X11.831 Y17.759 
G1 X11.811 Y17.831 
G1 X11.821 Y17.922 
G1 X11.849 Y17.981 
G1 X11.899 Y18.035 
G1 X12.055 Y18.126 
G1 X12.271 Y18.187 
G1 X12.526 Y18.209 
G1 X12.667 Y18.202 
G0   Z1.000
G0 X12.713 Y16.085 
G1   Z-0.110F200.0
G1 X12.830 Y16.057 F700.0
G1 X12.853 Y16.031 
G1 X12.855 Y15.995 
G1 X12.810 Y15.886 
G1 X12.770 Y15.835 
G1 X12.700 Y15.806 
G1 X12.578 Y15.792 
G1 X12.382 Y15.788 
G1 X12.005  
G1  Y15.810 
G1 X12.054 Y15.961 
G1 X12.090 Y16.034 
G1 X12.151 Y16.072 
G1 X12.270 Y16.088 
G1 X12.483 Y16.091 
G1 X12.713 Y16.085 
G0   Z1.000
G0 X12.661 Y15.536 
G1   Z-0.110F200.0
G1  Y15.514 F700.0
G1 X12.612 Y15.363 
G1 X12.576 Y15.291 
G1 X12.515 Y15.252 
G1 X12.396 Y15.236 
G1 X12.183 Y15.233 
G1 X11.883 Y15.248 
G1 X11.821 Y15.270 
G1 X11.803 Y15.305 
G1 X11.818 Y15.427 
G1 X11.841 Y15.468 
G1 X11.880 Y15.497 
G1 X12.019 Y15.529 
G1 X12.263 Y15.536 
G1 X12.661  
G0   Z1.000
G0 X12.393 Y14.988 
G1   Z-0.110F200.0
G1 X12.423 Y14.960 F700.0
G1 X12.434 Y14.922 
G1 X12.403 Y14.813 
G1 X12.360 Y14.737 
G1 X12.294 Y14.697 
G1 X12.167 Y14.681 
G1 X11.941 Y14.678 
G1 X11.595 Y14.696 
G1 X11.570 Y14.712 
G1 X11.561 Y14.737 
G1 X11.575 Y14.817 
G1 X11.616 Y14.929 
G1 X11.688 Y14.993 
G1 X11.817 Y15.023 
G1 X12.030 Y15.030 
G1 X12.264 Y15.021 
G1 X12.393 Y14.988 
G0   Z1.000
G0 X12.197 Y14.406 
G1   Z-0.110F200.0
G1 X12.219 Y14.386 F700.0
G1 X12.223 Y14.357 
G1 X12.191 Y14.262 
G1 X12.146 Y14.169 
G1 X12.087 Y14.118 
G1 X11.975 Y14.096 
G1 X11.775 Y14.085 
G1 X11.508 Y14.089 
G1 X11.359 Y14.115 
G1 X11.330 Y14.142 
G1 X11.319 Y14.176 
G1 X11.355 Y14.292 
G1 X11.398 Y14.368 
G1 X11.465 Y14.408 
G1 X11.598 Y14.423 
G1 X11.837 Y14.426 
G1 X12.079 Y14.424 
G1 X12.197 Y14.406 
G0   Z1.000
G0 X12.005 Y13.821 
G1   Z-0.110F200.0
G1  Y13.799 F700.0
G1 X11.958 Y13.652 
G1 X11.923 Y13.585 
G1 X11.866 Y13.545 
G1 X11.763 Y13.523 
G1 X11.592 Y13.510 
G1 X11.164 Y13.509 
G1 X11.107 Y13.522 
G1 X11.080 Y13.546 
G1 X11.081 Y13.593 
G1 X11.106 Y13.673 
G1 X11.142 Y13.758 
G1 X11.204 Y13.802 
G1 X11.335 Y13.819 
G1 X11.581 Y13.821 
G1 X12.005  
G0   Z1.000
G0 X9.987 Y11.766 
G1   Z-0.110F200.0
G1 X10.035 Y11.705 F700.0
G1 X10.066 Y11.641 
G1 X10.079 Y11.576 
G1 X10.073 Y11.509 
G1 X10.050 Y11.440 
G1 X9.949 Y11.303 
G1 X9.797 Y11.196 
G1 X9.583 Y11.096 
G1 X9.360 Y11.024 
G1 X9.184 Y11.001 
G1 X8.939 Y11.046 
G1 X8.778 Y11.103 
G1 X8.664 Y11.182 
G1 X8.595 Y11.279 
G1 X8.572 Y11.388 
G1 X8.595 Y11.503 
G1 X8.663 Y11.620 
G1 X8.778 Y11.732 
G1 X8.938 Y11.834 
G1 X9.045 Y11.877 
G1 X9.172 Y11.907 
G1 X9.455 Y11.929 
G1 X9.725 Y11.901 
G1 X9.836 Y11.868 
G1 X9.920 Y11.824 
G1 X9.987 Y11.766 
G0   Z1.000
G0 X13.021 Y12.987 
G1   Z-0.110F200.0
G1 X13.042 Y12.941 F700.0
G1 X13.080 Y12.905 
G1 X13.134 Y12.881 
G1 X13.279 Y12.870 
G1 X13.455 Y12.915 
G1 X13.536 Y12.976 
G1 X13.560 Y13.018 
G1 X13.569 Y13.062 
G1 X13.547 Y13.129 
G1 X13.489 Y13.175 
G1 X13.406 Y13.201 
G1 X13.310 Y13.208 
G1 X13.213 Y13.195 
G1 X13.124 Y13.163 
G1 X13.057 Y13.113 
G1 X13.022 Y13.044 
G1 X13.021 Y12.987 
G0   Z1.000
G0 X16.104 Y12.345 
G1   Z-0.110F200.0
G1 X16.100 Y12.265 F700.0
G1 X16.117 Y12.230 
G1 X16.149 Y12.201 
G1 X16.252 Y12.166 
G1 X16.384 Y12.159 
G1 X16.516 Y12.180 
G1 X16.619 Y12.225 
G1 X16.678 Y12.297 
G1 X16.687 Y12.336 
G1 X16.681 Y12.375 
G1 X16.619 Y12.444 
G1 X16.511 Y12.488 
G1 X16.380 Y12.501 
G1 X16.248 Y12.478 
G1 X16.156 Y12.422 
G1 X16.104 Y12.345 
G0   Z1.000
G0 X15.890 Y12.683 
G1   Z-0.110F200.0
G1 X15.994 Y12.733 F700.0
G1 X16.117 Y12.766 
G1 X16.273 Y12.786 
G1 X16.480 Y12.795 
G1 X16.725 Y12.805 
G1 X16.911 Y12.841 
G1 X17.117 Y12.926 
G1 X17.424 Y13.087 
G1 X17.953 Y13.370 
G1 X18.031 Y13.448 
G1 X18.086 Y13.554 
G1 X18.108 Y13.698 
G1 X18.112 Y13.798 
G1 X18.141 Y13.850 
G1 X18.218 Y13.869 
G1 X18.367 Y13.871 
G1 X18.516 Y13.867 
G1 X18.589 Y13.838 
G1 X18.607 Y13.760 
G1 X18.591 Y13.607 
G1 X18.549 Y13.402 
G1 X18.497 Y13.282 
G1 X18.436 Y13.223 
G1 X17.427 Y12.646 
G1 X17.293 Y12.552 
G1 X17.188 Y12.441 
G1 X17.125 Y12.306 
G1 X17.079 Y12.201 
G1 X16.989 Y12.094 
G1 X16.853 Y11.985 
G1 X16.671 Y11.874 
G1 X16.570 Y11.818 
G1 X16.400 Y10.719 
G1 X16.393 Y10.389 
G1 X19.042 Y10.416 
G1 X19.075 Y11.375 
G1 X19.143 Y13.102 
G1 X19.178 Y13.871 
G1 X19.657  
G1 X19.608 Y10.391 
G1 X22.158  
G1 X22.124 Y10.782 
G1 X22.060 Y11.479 
G1 X22.031 Y11.786 
G1 X20.454 Y12.726 
G1 X20.366 Y12.802 
G1 X20.321 Y12.860 
G1 X20.294 Y12.958 
G1 X20.277 Y13.375 
G1 X20.281 Y13.662 
G1 X20.306 Y13.809 
G1 X20.332 Y13.845 
G1 X20.372 Y13.864 
G1 X20.502 Y13.871 
G1 X20.628 Y13.868 
G1 X20.699 Y13.848 
G1 X20.734 Y13.799 
G1 X20.754 Y13.707 
G1 X20.794 Y13.266 
G1 X20.807 Y12.989 
G1 X22.371 Y12.064 
G1 X22.561 Y11.925 
G1 X22.694 Y10.668 
G1 X22.699 Y10.390 
G1 X33.133 Y10.416 
G1 X31.828 Y12.874 
G1  Y12.896 
G1 X31.934 Y12.907 
G1 X32.187 Y12.903 
G1 X32.398 Y12.886 
G1 X32.473 Y12.863 
G1 X32.536 Y12.823 
G1 X32.597 Y12.759 
G1 X32.662 Y12.665 
G1 X32.835 Y12.358 
G1 X33.126 Y11.828 
G1 X34.098 Y10.063 
G1  Y9.533 
G1 X6.019  
G1 X5.986 Y9.567 
G1 X5.962 Y9.659 
G1 X5.952 Y9.833 
G1  Y10.065 
G1 X7.474 Y12.837 
G1 X7.526 Y12.900 
G1 X7.572 Y12.923 
G1 X7.658 Y12.941 
G1 X7.894 Y12.963 
G1 X8.121 Y12.961 
G1 X8.194 Y12.950 
G1 X8.222 Y12.930 
G1  Y12.897 
G1 X6.999 Y10.567 
G1 X6.955 Y10.520 
G1 X6.910 Y10.431 
G1  Y10.391 
G1 X12.187  
G1 X12.827 Y12.434 
G1 X12.849 Y12.515 
G1 X12.846 Y12.556 
G1 X12.818 Y12.602 
G1 X12.690 Y12.702 
G1 X12.601 Y12.761 
G1 X12.546 Y12.818 
G1 X12.517 Y12.882 
G1 X12.509 Y12.962 
G1 X12.526 Y13.070 
G1 X12.575 Y13.171 
G1 X12.652 Y13.260 
G1 X12.755 Y13.338 
G1 X12.882 Y13.402 
G1 X13.028 Y13.450 
G1 X13.191 Y13.480 
G1 X13.369 Y13.491 
G1 X13.613 Y13.475 
G1 X13.801 Y13.421 
G1 X13.876 Y13.379 
G1 X13.939 Y13.326 
G1 X13.991 Y13.264 
G1 X14.032 Y13.190 
G1 X14.052 Y13.125 
G1 X14.052 Y13.059 
G1 X14.033 Y12.993 
G1 X13.996 Y12.929 
G1 X13.869 Y12.807 
G1 X13.678 Y12.700 
G1 X13.427 Y12.584 
G1 X13.411 Y12.571 
G1 X12.828 Y10.618 
G1 X12.754 Y10.388 
G1 X13.996 Y10.416 
G1 X14.576 Y12.736 
G1 X14.891 Y14.149 
G1 X15.006 Y14.268 
G1 X15.629 Y14.599 
G1 X15.997 Y14.791 
G1 X16.238 Y14.889 
G1 X16.460 Y14.925 
G1 X16.768 Y14.931 
G1 X17.285  
G1 X17.311 Y14.904 
G1 X17.323 Y14.849 
G1 X17.314 Y14.753 
G1 X17.292 Y14.682 
G1 X17.235 Y14.645 
G1 X17.105 Y14.630 
G1 X16.862 Y14.628 
G1 X16.611 Y14.623 
G1 X16.425 Y14.593 
G1 X16.225 Y14.516 
G1 X15.931 Y14.369 
G1 X15.427 Y14.110 
G1 X15.335 Y13.897 
G1 X15.134 Y12.963 
G1 X14.756 Y11.258 
G1 X14.578 Y10.487 
G1  Y10.391 
G1 X15.781  
G1 X15.831 Y10.567 
G1 X15.994 Y11.627 
G1 X16.015 Y11.728 
G1 X16.015 Y11.781 
G1 X15.987 Y11.832 
G1 X15.930 Y11.884 
G1 X15.837 Y11.943 
G1 X15.726 Y12.023 
G1 X15.648 Y12.111 
G1 X15.605 Y12.207 
G1 X15.595 Y12.305 
G1 X15.619 Y12.405 
G1 X15.676 Y12.503 
G1 X15.766 Y12.597 
G1 X15.890 Y12.683 
G0   Z1.000
G0 X11.238 Y14.805 
G1   Z-0.110F200.0
G1 X10.735 Y13.594 F700.0
G1 X10.531 Y13.417 
G1 X7.762  
G1 X7.661 Y13.647 
G1 X7.594 Y13.821 
G1 X7.575 Y13.918 
G1 X7.591 Y13.960 
G1 X9.256 Y16.809 
G1 X9.585 Y16.950 
G1 X11.868 Y16.923 
G1 X12.062 Y16.663 
G1 X11.238 Y14.805 
G0   Z1.000
G0 X10.725 Y17.352 
G1   Z-0.110F200.0
G1 X10.427  F700.0
G1 X10.187 Y17.367 
G1 X10.154 Y17.391 
G1 X10.159 Y17.434 
G1 X10.191 Y17.515 
G1 X11.714 Y20.202 
G1 X11.863 Y20.467 
G1 X11.996 Y20.669 
G1 X12.106 Y20.782 
G1 X12.200 Y20.832 
G1 X17.598  
G1 X17.620 Y20.794 
G1 X17.679 Y20.538 
G1 X17.715 Y20.320 
G1 X12.383 Y20.346 
G1 X12.157 Y19.950 
G1 X10.725 Y17.352 
G0   Z1.000
G0 X12.790 Y19.643 
G1   Z-0.110F200.0
G1 X12.741 Y19.688 F700.0
G1 X12.720 Y19.739 
G1 X12.726 Y19.793 
G1 X12.762 Y19.849 
G1 X12.825 Y19.905 
G1 X12.918 Y19.961 
G1 X13.079 Y20.005 
G1 X13.301 Y20.023 
G1 X13.519 Y20.012 
G1 X13.673 Y19.973 
G1 X13.741 Y19.921 
G1 X13.772 Y19.863 
G1 X13.767 Y19.801 
G1 X13.730 Y19.740 
G1 X13.664 Y19.682 
G1 X13.571 Y19.631 
G1 X13.454 Y19.589 
G1 X13.317 Y19.561 
G1 X13.142 Y19.555 
G1 X12.971 Y19.574 
G1 X12.867 Y19.604 
G1 X12.790 Y19.643 
G0   Z1.000
G0 X13.946 Y18.397 
G1   Z-0.110F200.0
G1 X13.995 Y18.437 F700.0
G1 X14.101 Y18.487 
G1 X14.236 Y18.509 
G1 X14.370 Y18.500 
G1 X14.477 Y18.460 
G1 X14.513 Y18.431 
G1 X14.522 Y18.405 
G1 X14.503 Y18.375 
G1 X14.454 Y18.334 
G1 X14.340 Y18.282 
G1 X14.202 Y18.261 
G1 X14.071 Y18.276 
G1 X13.972 Y18.312 
G1 X13.936 Y18.341 
G1 X13.927 Y18.367 
G1 X13.946 Y18.397 
G0   Z1.000
G0 X14.087 Y18.651 
G1   Z-0.110F200.0
G1 X14.073 Y18.683 F700.0
G1 X14.093 Y18.738 
G1 X14.148 Y18.779 
G1 X14.235 Y18.805 
G1 X14.351 Y18.815 
G1 X14.468 Y18.805 
G1 X14.551 Y18.779 
G1 X14.594 Y18.738 
G1 X14.594 Y18.684 
G1 X14.567 Y18.653 
G1 X14.513 Y18.631 
G1 X14.320 Y18.613 
G1 X14.130 Y18.629 
G1 X14.087 Y18.651 
G0   Z1.000
G0 X14.211 Y18.934 
G1   Z-0.110F200.0
G1 X14.178 Y18.986 F700.0
G1 X14.191 Y19.042 
G1 X14.254 Y19.087 
G1 X14.359 Y19.111 
G1 X14.480 Y19.115 
G1 X14.593 Y19.099 
G1 X14.678 Y19.065 
G1 X14.715 Y19.036 
G1 X14.724 Y19.010 
G1 X14.705 Y18.980 
G1 X14.656 Y18.940 
G1 X14.564 Y18.889 
G1 X14.480 Y18.872 
G1 X14.288 Y18.901 
G1 X14.211 Y18.934 
G0   Z1.000
G0 X14.300 Y19.218 
G1   Z-0.110F200.0
G1 X14.284 Y19.284 F700.0
G1 X14.326 Y19.331 
G1 X14.425 Y19.360 
G1 X14.582 Y19.369 
G1 X14.788 Y19.355 
G1 X14.803 Y19.324 
G1 X14.779 Y19.269 
G1 X14.744 Y19.221 
G1 X14.693 Y19.190 
G1 X14.623 Y19.173 
G1 X14.528 Y19.168 
G1 X14.380 Y19.183 
G1 X14.300 Y19.218 
G0   Z1.000
G0 X17.108 Y27.844 
G1   Z-0.110F200.0
G1 X17.051 Y28.121 F700.0
G1 X16.444 Y31.784 
G1  Y31.879 
G1 X23.615  
G1 X23.556 Y31.602 
G1 X23.153 Y29.130 
G1 X22.951 Y27.949 
G1  Y27.844 
G1 X17.108  
G0   Z1.000
G0 X13.633 Y37.717 
G1   Z-0.110F200.0
G1 X13.039 Y37.492 F700.0
G1 X12.208 Y37.140 
G1 X11.395 Y36.745 
G1 X10.601 Y36.311 
G1 X9.829 Y35.839 
G1 X9.080 Y35.330 
G1 X8.356 Y34.785 
G1 X7.658 Y34.208 
G1 X6.988 Y33.598 
G1 X6.349 Y32.959 
G1 X5.740 Y32.290 
G1 X5.165 Y31.595 
G1 X4.625 Y30.874 
G1 X4.121 Y30.129 
G1 X3.655 Y29.362 
G1 X3.229 Y28.575 
G1 X2.845 Y27.768 
G1 X2.591 Y27.172 
G1 X2.358 Y26.574 
G1 X2.146 Y25.974 
G1 X1.955 Y25.371 
G1 X1.785 Y24.765 
G1 X1.636 Y24.157 
G1 X1.508 Y23.545 
G1 X1.401 Y22.931 
G1 X1.314 Y22.313 
G1 X1.249 Y21.691 
G1 X1.204 Y21.066 
G1 X1.180 Y20.437 
G1 X1.177 Y19.805 
G1 X1.195 Y19.168 
G1 X1.233 Y18.527 
G1 X1.292 Y17.881 
G1 X1.397 Y17.070 
G1 X1.536 Y16.269 
G1 X1.708 Y15.479 
G1 X1.913 Y14.701 
G1 X2.152 Y13.934 
G1 X2.423 Y13.181 
G1 X2.726 Y12.440 
G1 X3.062 Y11.714 
G1 X3.429 Y11.002 
G1 X3.828 Y10.306 
G1 X4.258 Y9.625 
G1 X4.719 Y8.961 
G1 X5.211 Y8.314 
G1 X5.733 Y7.684 
G1 X6.285 Y7.073 
G1 X6.866 Y6.480 
G1 X7.642 Y5.723 
G1 X8.197 Y5.279 
G1 X8.722 Y4.873 
G1 X9.259 Y4.487 
G1 X9.808 Y4.121 
G1 X10.368 Y3.776 
G1 X10.938 Y3.450 
G1 X11.518 Y3.145 
G1 X12.107 Y2.861 
G1 X12.706 Y2.598 
G1 X13.313 Y2.355 
G1 X13.929 Y2.134 
G1 X14.553 Y1.935 
G1 X15.184 Y1.757 
G1 X15.822 Y1.600 
G1 X16.466 Y1.466 
G1 X17.117 Y1.354 
G1 X17.774 Y1.264 
G1 X18.588 Y1.167 
G1 X19.294 Y1.116 
G1 X21.463 Y1.155 
G1 X22.144 Y1.237 
G1 X22.755 Y1.319 
G1 X23.367 Y1.422 
G1 X23.977 Y1.543 
G1 X24.582 Y1.683 
G1 X25.178 Y1.840 
G1 X25.763 Y2.013 
G1 X26.333 Y2.203 
G1 X26.885 Y2.407 
G1 X27.513 Y2.667 
G1 X28.139 Y2.954 
G1 X28.760 Y3.268 
G1 X29.376 Y3.607 
G1 X29.985 Y3.971 
G1 X30.585 Y4.359 
G1 X31.175 Y4.770 
G1 X31.753 Y5.204 
G1 X32.358 Y5.674 
G1 X34.233 Y7.541 
G1 X34.744 Y8.183 
G1 X35.306 Y8.925 
G1 X35.830 Y9.690 
G1 X36.314 Y10.475 
G1 X36.759 Y11.281 
G1 X37.163 Y12.107 
G1 X37.526 Y12.950 
G1 X37.848 Y13.811 
G1 X38.128 Y14.689 
G1 X38.327 Y15.436 
G1 X38.497 Y16.209 
G1 X38.637 Y16.998 
G1 X38.745 Y17.797 
G1 X38.821 Y18.597 
G1 X38.863 Y19.391 
G1 X38.872 Y20.170 
G1 X38.845 Y20.927 
G1 X38.789 Y21.878 
G1 X38.714 Y22.446 
G1 X38.560 Y23.450 
G1 X38.481 Y23.884 
G1 X38.259 Y24.741 
G1 X37.984 Y25.707 
G1 X37.665 Y26.642 
G1 X37.299 Y27.550 
G1 X36.884 Y28.435 
G1 X36.420 Y29.299 
G1 X35.905 Y30.147 
G1 X35.336 Y30.980 
G1 X34.713 Y31.803 
G1 X34.232 Y32.409 
G1 X32.459 Y34.182 
G1 X31.828 Y34.683 
G1 X31.292 Y35.095 
G1 X30.748 Y35.485 
G1 X30.197 Y35.853 
G1 X29.637 Y36.200 
G1 X29.070 Y36.525 
G1 X28.493 Y36.829 
G1 X27.908 Y37.111 
G1 X27.313 Y37.372 
G1 X26.708 Y37.613 
G1 X26.093 Y37.832 
G1 X25.468 Y38.031 
G1 X24.831 Y38.210 
G1 X24.183 Y38.368 
G1 X23.524 Y38.505 
G1 X22.853 Y38.623 
G1 X22.169 Y38.721 
G1 X21.463 Y38.811 
G1 X18.638 Y38.812 
G1 X17.932 Y38.721 
G1 X17.250 Y38.625 
G1 X16.603 Y38.517 
G1 X15.984 Y38.394 
G1 X15.384 Y38.254 
G1 X14.798 Y38.096 
G1 X14.216 Y37.918 
G1 X13.633 Y37.717 
G0   Z1.000
G0 X13.149 Y38.566 
G1   Z-0.110F200.0
G1 X13.820 Y38.798 F700.0
G1 X14.502 Y39.007 
G1 X15.197 Y39.192 
G1 X15.904 Y39.355 
G1 X16.625 Y39.494 
G1 X17.360 Y39.611 
G1 X18.108 Y39.705 
G1 X18.689 Y39.769 
G1 X21.463 Y39.769 
G1 X22.194 Y39.679 
G1 X22.936 Y39.577 
G1 X23.665 Y39.451 
G1 X24.383 Y39.302 
G1 X25.089 Y39.130 
G1 X25.784 Y38.934 
G1 X26.466 Y38.716 
G1 X27.136 Y38.475 
G1 X27.794 Y38.210 
G1 X28.440 Y37.923 
G1 X29.074 Y37.613 
G1 X29.695 Y37.280 
G1 X30.304 Y36.925 
G1 X30.901 Y36.546 
G1 X31.484 Y36.145 
G1 X32.055 Y35.721 
G1 X32.614 Y35.274 
G1 X33.334 Y34.648 
G1 X34.019 Y33.996 
G1 X34.669 Y33.317 
G1 X35.282 Y32.613 
G1 X35.859 Y31.885 
G1 X36.399 Y31.133 
G1 X36.902 Y30.359 
G1 X37.367 Y29.562 
G1 X37.794 Y28.745 
G1 X38.182 Y27.906 
G1 X38.532 Y27.049 
G1 X38.841 Y26.172 
G1 X39.111 Y25.277 
G1 X39.340 Y24.365 
G1 X39.529 Y23.437 
G1 X39.676 Y22.492 
G1 X39.760 Y21.866 
G1 X39.810 Y18.890 
G1 X39.752 Y18.260 
G1 X39.690 Y17.658 
G1 X39.614 Y17.072 
G1 X39.524 Y16.501 
G1 X39.419 Y15.942 
G1 X39.299 Y15.392 
G1 X39.163 Y14.848 
G1 X39.011 Y14.309 
G1 X38.842 Y13.770 
G1 X38.601 Y13.085 
G1 X38.338 Y12.412 
G1 X38.051 Y11.752 
G1 X37.743 Y11.106 
G1 X37.412 Y10.474 
G1 X37.060 Y9.856 
G1 X36.688 Y9.254 
G1 X36.296 Y8.666 
G1 X35.883 Y8.095 
G1 X35.452 Y7.540 
G1 X35.002 Y7.001 
G1 X34.534 Y6.479 
G1 X34.049 Y5.975 
G1 X33.546 Y5.489 
G1 X33.027 Y5.021 
G1 X32.492 Y4.571 
G1 X31.942 Y4.141 
G1 X31.377 Y3.731 
G1 X30.797 Y3.340 
G1 X30.203 Y2.970 
G1 X29.596 Y2.621 
G1 X28.976 Y2.293 
G1 X28.344 Y1.987 
G1 X27.700 Y1.703 
G1 X27.045 Y1.441 
G1 X26.379 Y1.202 
G1 X25.703 Y0.987 
G1 X25.017 Y0.796 
G1 X24.322 Y0.629 
G1 X23.618 Y0.486 
G1 X22.906 Y0.369 
G1 X22.186 Y0.277 
G1 X21.463 Y0.198 
G1 X19.142 Y0.158 
G1 X18.588 Y0.204 
G1 X17.960 Y0.265 
G1 X17.339 Y0.344 
G1 X16.725 Y0.439 
G1 X16.118 Y0.552 
G1 X15.519 Y0.682 
G1 X14.926 Y0.830 
G1 X14.341 Y0.994 
G1 X13.762 Y1.176 
G1 X13.190 Y1.376 
G1 X12.626 Y1.592 
G1 X12.068 Y1.826 
G1 X11.517 Y2.077 
G1 X10.973 Y2.346 
G1 X10.436 Y2.632 
G1 X9.906 Y2.935 
G1 X9.382 Y3.256 
G1 X8.699 Y3.710 
G1 X8.035 Y4.194 
G1 X7.391 Y4.707 
G1 X6.768 Y5.247 
G1 X6.167 Y5.813 
G1 X5.589 Y6.405 
G1 X5.036 Y7.019 
G1 X4.509 Y7.656 
G1 X4.008 Y8.312 
G1 X3.534 Y8.988 
G1 X3.090 Y9.682 
G1 X2.675 Y10.392 
G1 X2.292 Y11.117 
G1 X1.941 Y11.855 
G1 X1.623 Y12.606 
G1 X1.339 Y13.367 
G1 X1.001 Y14.431 
G1 X0.723 Y15.495 
G1 X0.608 Y16.028 
G1 X0.507 Y16.562 
G1 X0.422 Y17.097 
G1 X0.352 Y17.636 
G1 X0.297 Y18.177 
G1 X0.257 Y18.721 
G1 X0.232 Y19.269 
G1 X0.222 Y19.821 
G1 X0.247 Y20.940 
G1 X0.330 Y22.082 
G1 X0.412 Y22.782 
G1 X0.519 Y23.476 
G1 X0.651 Y24.165 
G1 X0.808 Y24.847 
G1 X0.990 Y25.523 
G1 X1.198 Y26.192 
G1 X1.430 Y26.854 
G1 X1.687 Y27.509 
G1 X1.968 Y28.157 
G1 X2.274 Y28.796 
G1 X2.605 Y29.428 
G1 X2.960 Y30.052 
G1 X3.339 Y30.667 
G1 X3.742 Y31.273 
G1 X4.170 Y31.871 
G1 X4.621 Y32.459 
G1 X5.061 Y33.014 
G1 X6.936 Y34.885 
G1 X7.566 Y35.389 
G1 X8.152 Y35.841 
G1 X8.745 Y36.268 
G1 X9.347 Y36.669 
G1 X9.956 Y37.046 
G1 X10.575 Y37.399 
G1 X11.203 Y37.727 
G1 X11.841 Y38.030 
G1 X12.490 Y38.310 
G1 X13.149 Y38.566 
G0   Z1.000
M92
;%
