;START

;%

;(VECTRIC POST REVISION)

;(2913AB479EA3000D32B9C42F7F010597)

;O0001

;G17 G90 G21 G40 G80

;G08 P1

;T0

;(TOOL#1)

;T1

;M11

;G0 G43 Z20.000 H1

G1 X103.673 Y191.171 Z-35.7848 E0.0 
G1 X103.673 Y191.171 Z-34.7848 E0.0 
G1 X103.673 Y191.171 Z-35.8848 E0.0 F180.0 
G1 X103.669 Y191.197 Z-35.8854 E0.0 
G1 X103.704 Y191.26 Z-35.8869 E0.0 
G1 X103.779 Y191.423 Z-35.8907 E0.0 
G1 X103.825 Y191.556 Z-35.8939 E0.0 
G1 X103.87 Y191.69 Z-35.8971 E0.0 
G1 X103.922 Y191.83 Z-35.9004 E0.0 
G1 X103.973 Y191.97 Z-35.9037 E0.0 
G1 X104.024 Y192.067 Z-35.906 E0.0 
G1 X104.075 Y192.165 Z-35.9083 E0.0 
G1 X104.16 Y192.261 Z-35.9104 E0.0 
G1 X104.262 Y192.348 Z-35.9123 E0.0 
G1 X104.382 Y192.425 Z-35.9138 E0.0 
G1 X104.52 Y192.493 Z-35.9151 E0.0 
G1 X104.63 Y192.529 Z-35.9157 E0.0 
G1 X104.741 Y192.565 Z-35.9163 E0.0 
G1 X104.851 Y192.601 Z-35.9168 E0.0 
G1 X104.952 Y192.619 Z-35.917 E0.0 
G1 X105.053 Y192.637 Z-35.9171 E0.0 
G1 X105.155 Y192.654 Z-35.9173 E0.0 
G1 X105.256 Y192.672 Z-35.9174 E0.0 
G1 X105.418 Y192.685 Z-35.9172 E0.0 
G1 X105.486 Y192.677 Z-35.9168 E0.0 
G1 X105.486 Y192.654 Z-35.9163 E0.0 
G1 X105.437 Y192.549 Z-35.9138 E0.0 
G1 X105.388 Y192.445 Z-35.9114 E0.0 
G1 X105.339 Y192.34 Z-35.909 E0.0 
G1 X105.29 Y192.236 Z-35.9065 E0.0 
G1 X105.231 Y192.118 Z-35.9038 E0.0 
G1 X105.172 Y192.001 Z-35.900999999999996 E0.0 
G1 X105.113 Y191.904 Z-35.8988 E0.0 
G1 X105.054 Y191.806 Z-35.8966 E0.0 
G1 X104.932 Y191.648 Z-35.893 E0.0 
G1 X104.798 Y191.52 Z-35.8902 E0.0 
G1 X104.647 Y191.419 Z-35.8881 E0.0 
G1 X104.473 Y191.34 Z-35.8867 E0.0 
G1 X104.371 Y191.309 Z-35.8862 E0.0 
G1 X104.27 Y191.278 Z-35.8857 E0.0 
G1 X104.151 Y191.253 Z-35.8855 E0.0 
G1 X104.033 Y191.228 Z-35.8852 E0.0 
G1 X103.924 Y191.209 Z-35.885 E0.0 
G1 X103.815 Y191.19 Z-35.8849 E0.0 
G1 X103.706 Y191.171 Z-35.8847 E0.0 
G1 X103.673 Y191.171 Z-35.8848 E0.0 
G1 X103.673 Y191.171 Z-34.7848 E0.0 
G1 X103.608 Y191.251 Z-34.787 E0.0 
G1 X103.543 Y191.332 Z-34.7892 E0.0 
G1 X103.477 Y191.412 Z-34.7913 E0.0 
G1 X103.412 Y191.493 Z-34.7935 E0.0 
G1 X103.347 Y191.573 Z-34.7957 E0.0 
G1 X103.282 Y191.654 Z-34.7979 E0.0 
G1 X103.216 Y191.734 Z-34.8001 E0.0 
G1 X103.151 Y191.815 Z-34.8023 E0.0 
G1 X103.086 Y191.895 Z-34.8044 E0.0 
G1 X103.086 Y191.895 Z-35.9044 E0.0 F180.0 
G1 X102.914 Y191.934 Z-35.9059 E0.0 
G1 X102.759 Y191.981 Z-35.9075 E0.0 
G1 X102.636 Y192.039 Z-35.9093 E0.0 
G1 X102.549 Y192.106 Z-35.9112 E0.0 
G1 X102.503 Y192.179 Z-35.913199999999996 E0.0 
G1 X102.5 Y192.232 Z-35.9145 E0.0 
G1 X102.522 Y192.288 Z-35.9158 E0.0 
G1 X102.569 Y192.347 Z-35.9172 E0.0 
G1 X102.64 Y192.408 Z-35.9185 E0.0 
G1 X102.745 Y192.472 Z-35.9198 E0.0 
G1 X102.85 Y192.537 Z-35.9211 E0.0 
G1 X102.948 Y192.582 Z-35.9219 E0.0 
G1 X103.047 Y192.627 Z-35.9227 E0.0 
G1 X103.145 Y192.672 Z-35.9236 E0.0 
G1 X103.269 Y192.718 Z-35.9243 E0.0 
G1 X103.394 Y192.763 Z-35.9251 E0.0 
G1 X103.518 Y192.809 Z-35.9259 E0.0 
G1 X103.629 Y192.844 Z-35.9264 E0.0 
G1 X103.74 Y192.878 Z-35.926899999999996 E0.0 
G1 X103.851 Y192.912 Z-35.9275 E0.0 
G1 X103.962 Y192.947 Z-35.928 E0.0 
G1 X104.064 Y192.974 Z-35.928399999999996 E0.0 
G1 X104.165 Y193.001 Z-35.9287 E0.0 
G1 X104.267 Y193.027 Z-35.9291 E0.0 
G1 X104.368 Y193.054 Z-35.9295 E0.0 
G1 X104.47 Y193.081 Z-35.9298 E0.0 
G1 X104.583 Y193.107 Z-35.9301 E0.0 
G1 X104.696 Y193.133 Z-35.9304 E0.0 
G1 X104.809 Y193.158 Z-35.9307 E0.0 
G1 X104.922 Y193.184 Z-35.9311 E0.0 
G1 X105.035 Y193.21 Z-35.9314 E0.0 
G1 X105.149 Y193.234 Z-35.9316 E0.0 
G1 X105.263 Y193.258 Z-35.9319 E0.0 
G1 X105.377 Y193.283 Z-35.9321 E0.0 
G1 X105.491 Y193.307 Z-35.9324 E0.0 
G1 X105.605 Y193.331 Z-35.9327 E0.0 
G1 X105.665 Y193.331 Z-35.9325 E0.0 
G1 X105.703 Y193.313 Z-35.9319 E0.0 
G1 X105.723 Y193.265 Z-35.9307 E0.0 
G1 X105.722 Y193.195 Z-35.929 E0.0 
G1 X105.701 Y193.112 Z-35.927 E0.0 
G1 X105.627 Y193.038 Z-35.925399999999996 E0.0 
G1 X105.486 Y192.951 Z-35.9236 E0.0 
G1 X105.391 Y192.903 Z-35.9227 E0.0 
G1 X105.296 Y192.855 Z-35.9218 E0.0 
G1 X105.195 Y192.827 Z-35.9214 E0.0 
G1 X105.094 Y192.8 Z-35.921 E0.0 
G1 X104.993 Y192.772 Z-35.9206 E0.0 
G1 X104.892 Y192.744 Z-35.9202 E0.0 
G1 X104.79 Y192.717 Z-35.9199 E0.0 
G1 X104.689 Y192.689 Z-35.9195 E0.0 
G1 X104.588 Y192.661 Z-35.9191 E0.0 
G1 X104.487 Y192.633 Z-35.9187 E0.0 
G1 X104.386 Y192.606 Z-35.9183 E0.0 
G1 X104.285 Y192.578 Z-35.9179 E0.0 
G1 X104.184 Y192.55 Z-35.9175 E0.0 
G1 X104.082 Y192.523 Z-35.9171 E0.0 
G1 X103.981 Y192.495 Z-35.9167 E0.0 
G1 X103.88 Y192.467 Z-35.9163 E0.0 
G1 X103.779 Y192.44 Z-35.916 E0.0 
G1 X103.678 Y192.412 Z-35.9156 E0.0 
G1 X103.575 Y192.356 Z-35.9145 E0.0 
G1 X103.472 Y192.301 Z-35.9134 E0.0 
G1 X103.385 Y192.241 Z-35.9122 E0.0 
G1 X103.297 Y192.181 Z-35.9109 E0.0 
G1 X103.234 Y192.114 Z-35.9095 E0.0 
G1 X103.186 Y192.041 Z-35.9078 E0.0 
G1 X103.123 Y191.936 Z-35.9054 E0.0 
G1 X103.086 Y191.895 Z-35.9044 E0.0 
G1 X103.086 Y191.895 Z-34.8044 E0.0 
G1 X103.07 Y191.996 Z-34.807 E0.0 
G1 X103.054 Y192.098 Z-34.809599999999996 E0.0 
G1 X103.039 Y192.199 Z-34.8121 E0.0 
G1 X103.023 Y192.301 Z-34.8147 E0.0 
G1 X103.007 Y192.402 Z-34.8173 E0.0 
G1 X102.991 Y192.504 Z-34.8198 E0.0 
G1 X102.975 Y192.605 Z-34.8224 E0.0 
G1 X102.959 Y192.707 Z-34.825 E0.0 
G1 X102.944 Y192.808 Z-34.8275 E0.0 
G1 X102.928 Y192.91 Z-34.8301 E0.0 
G1 X102.912 Y193.011 Z-34.8327 E0.0 
G1 X102.912 Y193.011 Z-35.9327 E0.0 F180.0 
G1 X102.789 Y193.015 Z-35.9331 E0.0 
G1 X102.666 Y193.019 Z-35.9336 E0.0 
G1 X102.806 Y193.046 Z-35.9339 E0.0 
G1 X102.946 Y193.074 Z-35.9341 E0.0 
G1 X103.062 Y193.101 Z-35.9344 E0.0 
G1 X103.179 Y193.127 Z-35.9348 E0.0 
G1 X103.295 Y193.154 Z-35.9351 E0.0 
G1 X103.412 Y193.18 Z-35.9354 E0.0 
G1 X103.528 Y193.207 Z-35.9357 E0.0 
G1 X103.646 Y193.243 Z-35.9363 E0.0 
G1 X103.764 Y193.279 Z-35.9368 E0.0 
G1 X103.868 Y193.32 Z-35.9375 E0.0 
G1 X103.973 Y193.36 Z-35.9382 E0.0 
G1 X104.068 Y193.406 Z-35.939099999999996 E0.0 
G1 X104.163 Y193.452 Z-35.9399 E0.0 
G1 X104.254 Y193.506 Z-35.941 E0.0 
G1 X104.344 Y193.56 Z-35.942099999999996 E0.0 
G1 X104.433 Y193.623 Z-35.9434 E0.0 
G1 X104.522 Y193.687 Z-35.9447 E0.0 
G1 X104.614 Y193.762 Z-35.9463 E0.0 
G1 X104.706 Y193.837 Z-35.9479 E0.0 
G1 X104.784 Y193.901 Z-35.9492 E0.0 
G1 X104.863 Y193.964 Z-35.9505 E0.0 
G1 X104.941 Y194.028 Z-35.9519 E0.0 
G1 X105.019 Y194.092 Z-35.9532 E0.0 
G1 X105.101 Y194.152 Z-35.9545 E0.0 
G1 X105.184 Y194.213 Z-35.9557 E0.0 
G1 X105.266 Y194.273 Z-35.957 E0.0 
G1 X105.383 Y194.337 Z-35.9582 E0.0 
G1 X105.501 Y194.4 Z-35.9594 E0.0 
G1 X105.639 Y194.455 Z-35.9604 E0.0 
G1 X105.778 Y194.51 Z-35.9613 E0.0 
G1 X105.878 Y194.539 Z-35.9617 E0.0 
G1 X105.977 Y194.567 Z-35.9621 E0.0 
G1 X106.077 Y194.596 Z-35.9625 E0.0 
G1 X106.179 Y194.615 Z-35.9627 E0.0 
G1 X106.28 Y194.634 Z-35.9629 E0.0 
G1 X106.382 Y194.653 Z-35.963 E0.0 
G1 X106.496 Y194.668 Z-35.9631 E0.0 
G1 X106.61 Y194.684 Z-35.9631 E0.0 
G1 X106.724 Y194.699 Z-35.9631 E0.0 
G1 X106.758 Y194.685 Z-35.9627 E0.0 
G1 X106.776 Y194.666 Z-35.9622 E0.0 
G1 X106.779 Y194.629 Z-35.9612 E0.0 
G1 X106.746 Y194.52 Z-35.9587 E0.0 
G1 X106.671 Y194.381 Z-35.9554 E0.0 
G1 X106.564 Y194.239 Z-35.9523 E0.0 
G1 X106.489 Y194.169 Z-35.9508 E0.0 
G1 X106.415 Y194.1 Z-35.9493 E0.0 
G1 X106.34 Y194.03 Z-35.9478 E0.0 
G1 X106.243 Y193.964 Z-35.9464 E0.0 
G1 X106.147 Y193.899 Z-35.9451 E0.0 
G1 X106.05 Y193.833 Z-35.9438 E0.0 
G1 X105.934 Y193.772 Z-35.9426 E0.0 
G1 X105.817 Y193.711 Z-35.9414 E0.0 
G1 X105.701 Y193.65 Z-35.9403 E0.0 
G1 X105.601 Y193.609 Z-35.9395 E0.0 
G1 X105.501 Y193.567 Z-35.9388 E0.0 
G1 X105.401 Y193.526 Z-35.9381 E0.0 
G1 X105.301 Y193.485 Z-35.9374 E0.0 
G1 X105.19 Y193.449 Z-35.9368 E0.0 
G1 X105.079 Y193.412 Z-35.9362 E0.0 
G1 X104.968 Y193.376 Z-35.9357 E0.0 
G1 X104.857 Y193.34 Z-35.9351 E0.0 
G1 X104.737 Y193.309 Z-35.9347 E0.0 
G1 X104.618 Y193.279 Z-35.9343 E0.0 
G1 X104.499 Y193.248 Z-35.9339 E0.0 
G1 X104.379 Y193.217 Z-35.9335 E0.0 
G1 X104.278 Y193.198 Z-35.9333 E0.0 
G1 X104.177 Y193.179 Z-35.9331 E0.0 
G1 X104.076 Y193.159 Z-35.9329 E0.0 
G1 X103.975 Y193.14 Z-35.9327 E0.0 
G1 X103.874 Y193.121 Z-35.9326 E0.0 
G1 X103.769 Y193.108 Z-35.9325 E0.0 
G1 X103.664 Y193.094 Z-35.9325 E0.0 
G1 X103.559 Y193.081 Z-35.9325 E0.0 
G1 X103.454 Y193.067 Z-35.9325 E0.0 
G1 X103.349 Y193.054 Z-35.9324 E0.0 
G1 X103.24 Y193.043 Z-35.9325 E0.0 
G1 X103.131 Y193.032 Z-35.9326 E0.0 
G1 X103.021 Y193.022 Z-35.9326 E0.0 
G1 X102.912 Y193.011 Z-35.9327 E0.0 
G1 X102.912 Y193.011 Z-34.8327 E0.0 
G1 X102.981 Y193.093 Z-34.8345 E0.0 
G1 X103.05 Y193.176 Z-34.8364 E0.0 
G1 X103.119 Y193.258 Z-34.8382 E0.0 
G1 X103.188 Y193.341 Z-34.839999999999996 E0.0 
G1 X103.257 Y193.423 Z-34.8419 E0.0 
G1 X103.327 Y193.506 Z-34.8437 E0.0 
G1 X103.396 Y193.588 Z-34.8456 E0.0 
G1 X103.465 Y193.671 Z-34.8474 E0.0 
G1 X103.534 Y193.753 Z-34.849199999999996 E0.0 
G1 X103.603 Y193.836 Z-34.8511 E0.0 
G1 X103.672 Y193.918 Z-34.8529 E0.0 
G1 X103.672 Y193.918 Z-35.9529 E0.0 F180.0 
G1 X103.653 Y193.981 Z-35.9545 E0.0 
G1 X103.646 Y194.095 Z-35.9574 E0.0 
G1 X103.652 Y194.178 Z-35.9594 E0.0 
G1 X103.678 Y194.246 Z-35.961 E0.0 
G1 X103.733 Y194.316 Z-35.9626 E0.0 
G1 X103.827 Y194.404 Z-35.9645 E0.0 
G1 X103.931 Y194.477 Z-35.966 E0.0 
G1 X104.035 Y194.55 Z-35.9675 E0.0 
G1 X104.142 Y194.604 Z-35.9685 E0.0 
G1 X104.25 Y194.659 Z-35.9696 E0.0 
G1 X104.357 Y194.713 Z-35.9706 E0.0 
G1 X104.471 Y194.76 Z-35.9714 E0.0 
G1 X104.584 Y194.808 Z-35.9723 E0.0 
G1 X104.698 Y194.856 Z-35.9731 E0.0 
G1 X104.811 Y194.903 Z-35.9739 E0.0 
G1 X104.912 Y194.941 Z-35.9746 E0.0 
G1 X105.012 Y194.978 Z-35.9752 E0.0 
G1 X105.113 Y195.016 Z-35.9758 E0.0 
G1 X105.214 Y195.054 Z-35.9764 E0.0 
G1 X105.314 Y195.091 Z-35.9771 E0.0 
G1 X105.415 Y195.129 Z-35.9777 E0.0 
G1 X105.516 Y195.167 Z-35.9783 E0.0 
G1 X105.616 Y195.206 Z-35.979 E0.0 
G1 X105.717 Y195.244 Z-35.9796 E0.0 
G1 X105.817 Y195.282 Z-35.9803 E0.0 
G1 X105.918 Y195.32 Z-35.9809 E0.0 
G1 X106.018 Y195.359 Z-35.9816 E0.0 
G1 X106.119 Y195.397 Z-35.9822 E0.0 
G1 X106.219 Y195.435 Z-35.9828 E0.0 
G1 X106.32 Y195.473 Z-35.9835 E0.0 
G1 X106.42 Y195.512 Z-35.9841 E0.0 
G1 X106.521 Y195.55 Z-35.9848 E0.0 
G1 X106.635 Y195.597 Z-35.9856 E0.0 
G1 X106.749 Y195.644 Z-35.986399999999996 E0.0 
G1 X106.862 Y195.691 Z-35.9872 E0.0 
G1 X106.976 Y195.738 Z-35.988 E0.0 
G1 X107.02 Y195.694 Z-35.9868 E0.0 
G1 X107.054 Y195.613 Z-35.9847 E0.0 
G1 X107.062 Y195.49 Z-35.9816 E0.0 
G1 X107.046 Y195.365 Z-35.9786 E0.0 
G1 X107.007 Y195.274 Z-35.9765 E0.0 
G1 X106.899 Y195.191 Z-35.9748 E0.0 
G1 X106.808 Y195.139 Z-35.9737 E0.0 
G1 X106.717 Y195.087 Z-35.972699999999996 E0.0 
G1 X106.6 Y195.029 Z-35.9716 E0.0 
G1 X106.484 Y194.97 Z-35.9705 E0.0 
G1 X106.384 Y194.941 Z-35.9701 E0.0 
G1 X106.284 Y194.912 Z-35.9697 E0.0 
G1 X106.184 Y194.883 Z-35.9693 E0.0 
G1 X106.085 Y194.854 Z-35.9689 E0.0 
G1 X105.985 Y194.825 Z-35.9685 E0.0 
G1 X105.885 Y194.796 Z-35.967999999999996 E0.0 
G1 X105.785 Y194.767 Z-35.9676 E0.0 
G1 X105.685 Y194.737 Z-35.9672 E0.0 
G1 X105.585 Y194.708 Z-35.9668 E0.0 
G1 X105.485 Y194.679 Z-35.9664 E0.0 
G1 X105.385 Y194.65 Z-35.966 E0.0 
G1 X105.286 Y194.621 Z-35.9655 E0.0 
G1 X105.186 Y194.592 Z-35.9651 E0.0 
G1 X105.086 Y194.563 Z-35.9647 E0.0 
G1 X104.986 Y194.534 Z-35.9643 E0.0 
G1 X104.892 Y194.497 Z-35.9636 E0.0 
G1 X104.799 Y194.46 Z-35.963 E0.0 
G1 X104.705 Y194.424 Z-35.9624 E0.0 
G1 X104.611 Y194.387 Z-35.9618 E0.0 
G1 X104.497 Y194.336 Z-35.9608 E0.0 
G1 X104.384 Y194.284 Z-35.9599 E0.0 
G1 X104.27 Y194.233 Z-35.959 E0.0 
G1 X104.172 Y194.177 Z-35.9579 E0.0 
G1 X104.074 Y194.122 Z-35.9568 E0.0 
G1 X103.976 Y194.066 Z-35.9557 E0.0 
G1 X103.889 Y194.008 Z-35.9545 E0.0 
G1 X103.802 Y193.949 Z-35.9533 E0.0 
G1 X103.715 Y193.891 Z-35.9521 E0.0 
G1 X103.707 Y193.891 Z-35.9522 E0.0 
G1 X103.672 Y193.918 Z-35.9529 E0.0 
G1 X103.672 Y193.918 Z-34.8529 E0.0 
G1 X103.752 Y193.853 Z-34.8511 E0.0 
G1 X103.832 Y193.789 Z-34.849199999999996 E0.0 
G1 X103.912 Y193.724 Z-34.8474 E0.0 
G1 X103.992 Y193.659 Z-34.8456 E0.0 
G1 X104.072 Y193.594 Z-34.8437 E0.0 
G1 X104.152 Y193.53 Z-34.8419 E0.0 
G1 X104.232 Y193.465 Z-34.839999999999996 E0.0 
G1 X104.312 Y193.4 Z-34.8382 E0.0 
G1 X104.392 Y193.335 Z-34.8364 E0.0 
G1 X104.472 Y193.271 Z-34.8345 E0.0 
G1 X104.552 Y193.206 Z-34.8327 E0.0 
G1 X104.632 Y193.141 Z-34.830799999999996 E0.0 
G1 X104.712 Y193.076 Z-34.829 E0.0 
G1 X104.791 Y193.012 Z-34.8272 E0.0 
G1 X104.871 Y192.947 Z-34.8253 E0.0 
G1 X104.951 Y192.882 Z-34.8235 E0.0 
G1 X105.031 Y192.817 Z-34.8217 E0.0 
G1 X105.111 Y192.753 Z-34.8198 E0.0 
G1 X105.191 Y192.688 Z-34.818 E0.0 
G1 X105.271 Y192.623 Z-34.8161 E0.0 
G1 X105.351 Y192.558 Z-34.8143 E0.0 
G1 X105.431 Y192.494 Z-34.8125 E0.0 
G1 X105.511 Y192.429 Z-34.8106 E0.0 
G1 X105.591 Y192.364 Z-34.8088 E0.0 
G1 X105.671 Y192.299 Z-34.807 E0.0 
G1 X105.751 Y192.235 Z-34.8051 E0.0 
G1 X105.831 Y192.17 Z-34.8033 E0.0 
G1 X105.831 Y192.17 Z-35.9033 E0.0 F180.0 
G1 X105.899 Y192.227 Z-35.9045 E0.0 
G1 X105.985 Y192.248 Z-35.9048 E0.0 
G1 X106.125 Y192.251 Z-35.9045 E0.0 
G1 X106.225 Y192.243 Z-35.903999999999996 E0.0 
G1 X106.326 Y192.235 Z-35.9035 E0.0 
G1 X106.489 Y192.185 Z-35.9018 E0.0 
G1 X106.625 Y192.095 Z-35.8991 E0.0 
G1 X106.743 Y191.961 Z-35.8955 E0.0 
G1 X106.791 Y191.871 Z-35.8932 E0.0 
G1 X106.839 Y191.782 Z-35.8908 E0.0 
G1 X106.859 Y191.684 Z-35.8883 E0.0 
G1 X106.879 Y191.586 Z-35.8859 E0.0 
G1 X106.87 Y191.477 Z-35.8832 E0.0 
G1 X106.862 Y191.368 Z-35.8805 E0.0 
G1 X106.826 Y191.244 Z-35.8776 E0.0 
G1 X106.789 Y191.12 Z-35.8746 E0.0 
G1 X106.755 Y191.02 Z-35.8722 E0.0 
G1 X106.721 Y190.92 Z-35.8699 E0.0 
G1 X106.691 Y190.771 Z-35.8663 E0.0 
G1 X106.699 Y190.651 Z-35.8633 E0.0 
G1 X106.742 Y190.538 Z-35.8604 E0.0 
G1 X106.81 Y190.44 Z-35.8578 E0.0 
G1 X106.914 Y190.326 Z-35.8547 E0.0 
G1 X106.998 Y190.256 Z-35.8527 E0.0 
G1 X107.081 Y190.186 Z-35.850699999999996 E0.0 
G1 X107.165 Y190.116 Z-35.8488 E0.0 
G1 X107.231 Y190.059 Z-35.8472 E0.0 
G1 X107.105 Y190.053 Z-35.8474 E0.0 
G1 X106.946 Y190.055 Z-35.8479 E0.0 
G1 X106.832 Y190.079 Z-35.8488 E0.0 
G1 X106.718 Y190.103 Z-35.8497 E0.0 
G1 X106.604 Y190.126 Z-35.8506 E0.0 
G1 X106.49 Y190.15 Z-35.8515 E0.0 
G1 X106.388 Y190.174 Z-35.8524 E0.0 
G1 X106.287 Y190.197 Z-35.8533 E0.0 
G1 X106.186 Y190.221 Z-35.8541 E0.0 
G1 X106.084 Y190.245 Z-35.855 E0.0 
G1 X105.983 Y190.278 Z-35.8561 E0.0 
G1 X105.881 Y190.311 Z-35.8572 E0.0 
G1 X105.78 Y190.344 Z-35.8583 E0.0 
G1 X105.666 Y190.4 Z-35.86 E0.0 
G1 X105.553 Y190.456 Z-35.8617 E0.0 
G1 X105.465 Y190.524 Z-35.8636 E0.0 
G1 X105.378 Y190.591 Z-35.8656 E0.0 
G1 X105.307 Y190.673 Z-35.8678 E0.0 
G1 X105.236 Y190.756 Z-35.87 E0.0 
G1 X105.212 Y190.829 Z-35.8719 E0.0 
G1 X105.206 Y190.92 Z-35.8742 E0.0 
G1 X105.219 Y191.009 Z-35.8764 E0.0 
G1 X105.256 Y191.13 Z-35.8792 E0.0 
G1 X105.299 Y191.232 Z-35.8817 E0.0 
G1 X105.342 Y191.335 Z-35.8841 E0.0 
G1 X105.385 Y191.437 Z-35.8865 E0.0 
G1 X105.443 Y191.548 Z-35.8891 E0.0 
G1 X105.501 Y191.66 Z-35.8916 E0.0 
G1 X105.559 Y191.771 Z-35.8942 E0.0 
G1 X105.621 Y191.868 Z-35.8964 E0.0 
G1 X105.684 Y191.964 Z-35.8986 E0.0 
G1 X105.746 Y192.061 Z-35.9009 E0.0 
G1 X105.831 Y192.17 Z-35.9033 E0.0 
G1 X105.831 Y192.17 Z-34.8033 E0.0 
G1 X105.911 Y192.107 Z-34.8015 E0.0 
G1 X105.991 Y192.044 Z-34.7997 E0.0 
G1 X106.071 Y191.981 Z-34.7979 E0.0 
G1 X106.151 Y191.918 Z-34.7961 E0.0 
G1 X106.23 Y191.855 Z-34.7944 E0.0 
G1 X106.31 Y191.792 Z-34.7926 E0.0 
G1 X106.39 Y191.729 Z-34.7908 E0.0 
G1 X106.47 Y191.666 Z-34.789 E0.0 
G1 X106.55 Y191.603 Z-34.7872 E0.0 
G1 X106.63 Y191.539 Z-34.7854 E0.0 
G1 X106.71 Y191.476 Z-34.7836 E0.0 
G1 X106.79 Y191.413 Z-34.7818 E0.0 
G1 X106.87 Y191.35 Z-34.7801 E0.0 
G1 X106.95 Y191.287 Z-34.7783 E0.0 
G1 X107.029 Y191.224 Z-34.7765 E0.0 
G1 X107.109 Y191.161 Z-34.7747 E0.0 
G1 X107.189 Y191.098 Z-34.7729 E0.0 
G1 X107.269 Y191.035 Z-34.7711 E0.0 
G1 X107.349 Y190.972 Z-34.7694 E0.0 
G1 X107.349 Y190.972 Z-35.8694 E0.0 F180.0 
G1 X107.438 Y191.056 Z-35.8712 E0.0 
G1 X107.514 Y191.09 Z-35.8718 E0.0 
G1 X107.686 Y191.046 Z-35.8702 E0.0 
G1 X107.782 Y191.007 Z-35.869 E0.0 
G1 X107.878 Y190.967 Z-35.8677 E0.0 
G1 X107.974 Y190.928 Z-35.8665 E0.0 
G1 X108.091 Y190.872 Z-35.8648 E0.0 
G1 X108.208 Y190.816 Z-35.8631 E0.0 
G1 X108.325 Y190.76 Z-35.861399999999996 E0.0 
G1 X108.415 Y190.712 Z-35.859899999999996 E0.0 
G1 X108.506 Y190.664 Z-35.8585 E0.0 
G1 X108.596 Y190.616 Z-35.857 E0.0 
G1 X108.686 Y190.568 Z-35.8556 E0.0 
G1 X108.786 Y190.511 Z-35.8539 E0.0 
G1 X108.886 Y190.454 Z-35.852199999999996 E0.0 
G1 X108.986 Y190.398 Z-35.8506 E0.0 
G1 X109.086 Y190.341 Z-35.8489 E0.0 
G1 X109.186 Y190.284 Z-35.8472 E0.0 
G1 X109.3 Y190.226 Z-35.8454 E0.0 
G1 X109.414 Y190.167 Z-35.8437 E0.0 
G1 X109.502 Y190.108 Z-35.842 E0.0 
G1 X109.59 Y190.049 Z-35.8403 E0.0 
G1 X109.674 Y189.969 Z-35.8381 E0.0 
G1 X109.759 Y189.888 Z-35.8358 E0.0 
G1 X109.828 Y189.799 Z-35.8335 E0.0 
G1 X109.898 Y189.71 Z-35.8311 E0.0 
G1 X109.982 Y189.541 Z-35.8267 E0.0 
G1 X109.99 Y189.482 Z-35.8252 E0.0 
G1 X109.978 Y189.417 Z-35.8237 E0.0 
G1 X109.903 Y189.276 Z-35.8204 E0.0 
G1 X109.834 Y189.203 Z-35.8188 E0.0 
G1 X109.765 Y189.131 Z-35.8172 E0.0 
G1 X109.671 Y189.063 Z-35.8158 E0.0 
G1 X109.576 Y188.995 Z-35.8144 E0.0 
G1 X109.552 Y188.99 Z-35.8144 E0.0 
G1 X109.537 Y189.012 Z-35.8149 E0.0 
G1 X109.526 Y189.145 Z-35.8182 E0.0 
G1 X109.52 Y189.241 Z-35.8206 E0.0 
G1 X109.5 Y189.317 Z-35.8225 E0.0 
G1 X109.459 Y189.388 Z-35.8244 E0.0 
G1 X109.39 Y189.468 Z-35.8266 E0.0 
G1 X109.255 Y189.611 Z-35.8305 E0.0 
G1 X109.16 Y189.656 Z-35.8318 E0.0 
G1 X109.065 Y189.7 Z-35.8332 E0.0 
G1 X108.97 Y189.745 Z-35.8345 E0.0 
G1 X108.875 Y189.789 Z-35.8359 E0.0 
G1 X108.78 Y189.834 Z-35.8373 E0.0 
G1 X108.687 Y189.879 Z-35.8386 E0.0 
G1 X108.594 Y189.924 Z-35.839999999999996 E0.0 
G1 X108.501 Y189.969 Z-35.8414 E0.0 
G1 X108.408 Y190.014 Z-35.8427 E0.0 
G1 X108.315 Y190.059 Z-35.8441 E0.0 
G1 X108.222 Y190.103 Z-35.8455 E0.0 
G1 X108.129 Y190.148 Z-35.8468 E0.0 
G1 X108.036 Y190.193 Z-35.8482 E0.0 
G1 X107.943 Y190.238 Z-35.8496 E0.0 
G1 X107.85 Y190.283 Z-35.851 E0.0 
G1 X107.757 Y190.328 Z-35.8523 E0.0 
G1 X107.647 Y190.392 Z-35.8542 E0.0 
G1 X107.536 Y190.455 Z-35.8561 E0.0 
G1 X107.404 Y190.557 Z-35.859 E0.0 
G1 X107.292 Y190.682 Z-35.8624 E0.0 
G1 X107.246 Y190.783 Z-35.865 E0.0 
G1 X107.276 Y190.871 Z-35.8671 E0.0 
G1 X107.349 Y190.972 Z-35.8694 E0.0 
G1 X107.349 Y190.972 Z-34.7694 E0.0 
G1 X107.299 Y190.882 Z-34.7673 E0.0 
G1 X107.249 Y190.792 Z-34.7652 E0.0 
G1 X107.198 Y190.701 Z-34.7631 E0.0 
G1 X107.148 Y190.611 Z-34.761 E0.0 
G1 X107.098 Y190.521 Z-34.7589 E0.0 
G1 X107.048 Y190.431 Z-34.7569 E0.0 
G1 X106.998 Y190.341 Z-34.7548 E0.0 
G1 X106.947 Y190.25 Z-34.7527 E0.0 
G1 X106.897 Y190.16 Z-34.7506 E0.0 
G1 X106.847 Y190.07 Z-34.7485 E0.0 
G1 X106.797 Y189.98 Z-34.7464 E0.0 
G1 X106.747 Y189.89 Z-34.7444 E0.0 
G1 X106.696 Y189.799 Z-34.7423 E0.0 
G1 X106.646 Y189.709 Z-34.7402 E0.0 
G1 X106.596 Y189.619 Z-34.7381 E0.0 
G1 X106.596 Y189.619 Z-35.8381 E0.0 F180.0 
G1 X106.702 Y189.577 Z-35.8368 E0.0 
G1 X106.808 Y189.535 Z-35.8354 E0.0 
G1 X106.914 Y189.493 Z-35.8341 E0.0 
G1 X107.02 Y189.451 Z-35.8328 E0.0 
G1 X107.126 Y189.409 Z-35.8314 E0.0 
G1 X107.223 Y189.374 Z-35.8303 E0.0 
G1 X107.319 Y189.339 Z-35.8292 E0.0 
G1 X107.416 Y189.304 Z-35.828 E0.0 
G1 X107.513 Y189.269 Z-35.8269 E0.0 
G1 X107.609 Y189.234 Z-35.8258 E0.0 
G1 X107.706 Y189.199 Z-35.8246 E0.0 
G1 X107.881 Y189.117 Z-35.8221 E0.0 
G1 X108.052 Y189.018 Z-35.8192 E0.0 
G1 X108.194 Y188.893 Z-35.8157 E0.0 
G1 X108.308 Y188.739 Z-35.8116 E0.0 
G1 X108.352 Y188.647 Z-35.8093 E0.0 
G1 X108.397 Y188.555 Z-35.8069 E0.0 
G1 X108.445 Y188.448 Z-35.8041 E0.0 
G1 X108.493 Y188.342 Z-35.8014 E0.0 
G1 X108.554 Y188.241 Z-35.7987 E0.0 
G1 X108.615 Y188.14 Z-35.7961 E0.0 
G1 X108.689 Y188.044 Z-35.7935 E0.0 
G1 X108.763 Y187.949 Z-35.7909 E0.0 
G1 X108.852 Y187.858 Z-35.7885 E0.0 
G1 X108.941 Y187.768 Z-35.786 E0.0 
G1 X109.044 Y187.68 Z-35.7836 E0.0 
G1 X109.148 Y187.593 Z-35.7811 E0.0 
G1 X109.267 Y187.509 Z-35.7787 E0.0 
G1 X109.387 Y187.425 Z-35.7764 E0.0 
G1 X109.478 Y187.371 Z-35.7748 E0.0 
G1 X109.568 Y187.316 Z-35.7732 E0.0 
G1 X109.659 Y187.262 Z-35.7716 E0.0 
G1 X109.761 Y187.209 Z-35.77 E0.0 
G1 X109.864 Y187.155 Z-35.7684 E0.0 
G1 X109.966 Y187.102 Z-35.7669 E0.0 
G1 X110.058 Y187.061 Z-35.7656 E0.0 
G1 X110.15 Y187.02 Z-35.7643 E0.0 
G1 X110.242 Y186.979 Z-35.7631 E0.0 
G1 X110.334 Y186.938 Z-35.7618 E0.0 
G1 X110.451 Y186.893 Z-35.7604 E0.0 
G1 X110.569 Y186.849 Z-35.759 E0.0 
G1 X110.686 Y186.804 Z-35.7576 E0.0 
G1 X110.799 Y186.767 Z-35.7564 E0.0 
G1 X110.913 Y186.729 Z-35.7552 E0.0 
G1 X111.026 Y186.692 Z-35.7539 E0.0 
G1 X110.846 Y186.694 Z-35.7545 E0.0 
G1 X110.719 Y186.708 Z-35.7552 E0.0 
G1 X110.592 Y186.723 Z-35.7559 E0.0 
G1 X110.473 Y186.745 Z-35.7567 E0.0 
G1 X110.353 Y186.768 Z-35.7576 E0.0 
G1 X110.234 Y186.79 Z-35.7585 E0.0 
G1 X110.121 Y186.818 Z-35.7595 E0.0 
G1 X110.009 Y186.847 Z-35.7605 E0.0 
G1 X109.897 Y186.875 Z-35.7615 E0.0 
G1 X109.784 Y186.903 Z-35.7625 E0.0 
G1 X109.671 Y186.932 Z-35.7635 E0.0 
G1 X109.559 Y186.96 Z-35.7645 E0.0 
G1 X109.454 Y186.994 Z-35.7656 E0.0 
G1 X109.349 Y187.027 Z-35.7667 E0.0 
G1 X109.244 Y187.06 Z-35.7678 E0.0 
G1 X109.139 Y187.094 Z-35.7689 E0.0 
G1 X109.034 Y187.127 Z-35.77 E0.0 
G1 X108.929 Y187.161 Z-35.7711 E0.0 
G1 X108.82 Y187.204 Z-35.7725 E0.0 
G1 X108.712 Y187.247 Z-35.7738 E0.0 
G1 X108.603 Y187.291 Z-35.7752 E0.0 
G1 X108.495 Y187.334 Z-35.7765 E0.0 
G1 X108.386 Y187.377 Z-35.7779 E0.0 
G1 X108.273 Y187.432 Z-35.7796 E0.0 
G1 X108.161 Y187.487 Z-35.7812 E0.0 
G1 X108.067 Y187.541 Z-35.7828 E0.0 
G1 X107.974 Y187.595 Z-35.7844 E0.0 
G1 X107.893 Y187.659 Z-35.7862 E0.0 
G1 X107.812 Y187.723 Z-35.788 E0.0 
G1 X107.731 Y187.787 Z-35.7898 E0.0 
G1 X107.643 Y187.873 Z-35.7921 E0.0 
G1 X107.555 Y187.959 Z-35.7945 E0.0 
G1 X107.467 Y188.045 Z-35.7969 E0.0 
G1 X107.387 Y188.13 Z-35.7992 E0.0 
G1 X107.306 Y188.215 Z-35.8015 E0.0 
G1 X107.226 Y188.301 Z-35.8038 E0.0 
G1 X107.145 Y188.386 Z-35.8061 E0.0 
G1 X107.065 Y188.471 Z-35.8085 E0.0 
G1 X106.988 Y188.545 Z-35.8105 E0.0 
G1 X106.911 Y188.62 Z-35.812599999999996 E0.0 
G1 X106.835 Y188.694 Z-35.8146 E0.0 
G1 X106.758 Y188.768 Z-35.8166 E0.0 
G1 X106.675 Y188.835 Z-35.8185 E0.0 
G1 X106.592 Y188.903 Z-35.8204 E0.0 
G1 X106.509 Y188.97 Z-35.8223 E0.0 
G1 X106.395 Y189.039 Z-35.8243 E0.0 
G1 X106.282 Y189.108 Z-35.8264 E0.0 
G1 X106.19 Y189.15 Z-35.8277 E0.0 
G1 X106.098 Y189.192 Z-35.829 E0.0 
G1 X106.006 Y189.234 Z-35.8302 E0.0 
G1 X105.94 Y189.229 Z-35.8303 E0.0 
G1 X105.872 Y189.19 Z-35.8295 E0.0 
G1 X105.777 Y189.106 Z-35.8277 E0.0 
G1 X105.703 Y189.004 Z-35.8254 E0.0 
G1 X105.664 Y188.888 Z-35.8226 E0.0 
G1 X105.699 Y188.758 Z-35.8193 E0.0 
G1 X105.755 Y188.626 Z-35.8159 E0.0 
G1 X105.832 Y188.555 Z-35.8139 E0.0 
G1 X105.909 Y188.484 Z-35.812 E0.0 
G1 X105.986 Y188.413 Z-35.81 E0.0 
G1 X106.063 Y188.342 Z-35.8081 E0.0 
G1 X106.141 Y188.272 Z-35.8061 E0.0 
G1 X106.218 Y188.201 Z-35.8041 E0.0 
G1 X106.295 Y188.13 Z-35.8022 E0.0 
G1 X106.372 Y188.059 Z-35.8002 E0.0 
G1 X106.449 Y187.988 Z-35.7982 E0.0 
G1 X106.526 Y187.917 Z-35.7963 E0.0 
G1 X106.494 Y187.885 Z-35.7956 E0.0 
G1 X106.383 Y187.94 Z-35.7972 E0.0 
G1 X106.273 Y187.996 Z-35.798899999999996 E0.0 
G1 X106.162 Y188.052 Z-35.8006 E0.0 
G1 X106.051 Y188.107 Z-35.8023 E0.0 
G1 X105.959 Y188.155 Z-35.8037 E0.0 
G1 X105.867 Y188.203 Z-35.8051 E0.0 
G1 X105.775 Y188.251 Z-35.8066 E0.0 
G1 X105.683 Y188.299 Z-35.808 E0.0 
G1 X105.588 Y188.355 Z-35.8097 E0.0 
G1 X105.494 Y188.41 Z-35.8113 E0.0 
G1 X105.399 Y188.466 Z-35.8129 E0.0 
G1 X105.282 Y188.548 Z-35.8153 E0.0 
G1 X105.166 Y188.63 Z-35.8176 E0.0 
G1 X105.06 Y188.719 Z-35.8201 E0.0 
G1 X104.954 Y188.809 Z-35.8227 E0.0 
G1 X104.857 Y188.912 Z-35.8255 E0.0 
G1 X104.76 Y189.016 Z-35.8283 E0.0 
G1 X104.692 Y189.122 Z-35.8311 E0.0 
G1 X104.624 Y189.228 Z-35.8339 E0.0 
G1 X104.585 Y189.334 Z-35.8367 E0.0 
G1 X104.547 Y189.44 Z-35.8394 E0.0 
G1 X104.533 Y189.543 Z-35.842 E0.0 
G1 X104.534 Y189.645 Z-35.8445 E0.0 
G1 X104.569 Y189.822 Z-35.8488 E0.0 
G1 X104.638 Y190.003 Z-35.8531 E0.0 
G1 X104.688 Y190.091 Z-35.8551 E0.0 
G1 X104.738 Y190.179 Z-35.8572 E0.0 
G1 X104.802 Y190.262 Z-35.8591 E0.0 
G1 X104.865 Y190.345 Z-35.8609 E0.0 
G1 X104.977 Y190.449 Z-35.8632 E0.0 
G1 X105.029 Y190.472 Z-35.8636 E0.0 
G1 X105.083 Y190.475 Z-35.8635 E0.0 
G1 X105.144 Y190.456 Z-35.862899999999996 E0.0 
G1 X105.215 Y190.416 Z-35.8617 E0.0 
G1 X105.311 Y190.343 Z-35.8596 E0.0 
G1 X105.406 Y190.269 Z-35.8575 E0.0 
G1 X105.503 Y190.202 Z-35.8556 E0.0 
G1 X105.599 Y190.135 Z-35.853699999999996 E0.0 
G1 X105.696 Y190.068 Z-35.8517 E0.0 
G1 X105.798 Y190.012 Z-35.8501 E0.0 
G1 X105.901 Y189.957 Z-35.8484 E0.0 
G1 X106.004 Y189.901 Z-35.8467 E0.0 
G1 X106.106 Y189.845 Z-35.8451 E0.0 
G1 X106.204 Y189.8 Z-35.8437 E0.0 
G1 X106.302 Y189.755 Z-35.8423 E0.0 
G1 X106.4 Y189.709 Z-35.8409 E0.0 
G1 X106.498 Y189.664 Z-35.8395 E0.0 
G1 X106.596 Y189.619 Z-35.8381 E0.0 
G1 X106.596 Y189.619 Z-34.7381 E0.0 
G1 X106.681 Y189.563 Z-34.7365 E0.0 
G1 X106.766 Y189.506 Z-34.7348 E0.0 
G1 X106.85 Y189.45 Z-34.7332 E0.0 
G1 X106.935 Y189.394 Z-34.7316 E0.0 
G1 X107.02 Y189.337 Z-34.73 E0.0 
G1 X107.105 Y189.281 Z-34.7283 E0.0 
G1 X107.19 Y189.225 Z-34.7267 E0.0 
G1 X107.274 Y189.168 Z-34.7251 E0.0 
G1 X107.359 Y189.112 Z-34.7235 E0.0 
G1 X107.444 Y189.056 Z-34.7218 E0.0 
G1 X107.529 Y188.999 Z-34.7202 E0.0 
G1 X107.614 Y188.943 Z-34.7186 E0.0 
G1 X107.698 Y188.887 Z-34.717 E0.0 
G1 X107.783 Y188.83 Z-34.7153 E0.0 
G1 X107.868 Y188.774 Z-34.7137 E0.0 
G1 X107.953 Y188.717 Z-34.7121 E0.0 
G1 X108.038 Y188.661 Z-34.710499999999996 E0.0 
G1 X108.123 Y188.605 Z-34.7088 E0.0 
G1 X108.207 Y188.548 Z-34.7072 E0.0 
G1 X108.292 Y188.492 Z-34.7056 E0.0 
G1 X108.377 Y188.436 Z-34.704 E0.0 
G1 X108.462 Y188.379 Z-34.7024 E0.0 
G1 X108.547 Y188.323 Z-34.7007 E0.0 
G1 X108.631 Y188.267 Z-34.6991 E0.0 
G1 X108.716 Y188.21 Z-34.6975 E0.0 
G1 X108.801 Y188.154 Z-34.6959 E0.0 
G1 X108.886 Y188.098 Z-34.6943 E0.0 
G1 X108.971 Y188.041 Z-34.6926 E0.0 
G1 X109.055 Y187.985 Z-34.691 E0.0 
G1 X109.14 Y187.929 Z-34.6894 E0.0 
G1 X109.225 Y187.872 Z-34.6878 E0.0 
G1 X109.31 Y187.816 Z-34.6862 E0.0 
G1 X109.395 Y187.76 Z-34.684599999999996 E0.0 
G1 X109.479 Y187.703 Z-34.6829 E0.0 
G1 X109.564 Y187.647 Z-34.6813 E0.0 
G1 X109.649 Y187.591 Z-34.6797 E0.0 
G1 X109.734 Y187.534 Z-34.6781 E0.0 
G1 X109.819 Y187.478 Z-34.6765 E0.0 
G1 X109.904 Y187.421 Z-34.6749 E0.0 
G1 X109.988 Y187.365 Z-34.6733 E0.0 
G1 X110.073 Y187.309 Z-34.6716 E0.0 
G1 X110.158 Y187.252 Z-34.67 E0.0 
G1 X110.243 Y187.196 Z-34.6684 E0.0 
G1 X110.328 Y187.14 Z-34.6668 E0.0 
G1 X110.412 Y187.083 Z-34.6652 E0.0 
G1 X110.497 Y187.027 Z-34.6636 E0.0 
G1 X110.582 Y186.971 Z-34.662 E0.0 
G1 X110.667 Y186.914 Z-34.6604 E0.0 
G1 X110.752 Y186.858 Z-34.6587 E0.0 
G1 X110.836 Y186.802 Z-34.6571 E0.0 
G1 X110.921 Y186.745 Z-34.655499999999996 E0.0 
G1 X111.006 Y186.689 Z-34.6539 E0.0 
G1 X111.006 Y186.689 Z-35.7539 E0.0 F180.0 
G1 X111.086 Y186.689 Z-35.7537 E0.0 
G1 X111.166 Y186.689 Z-35.7535 E0.0 
G1 X111.166 Y186.649 Z-35.7525 E0.0 
G1 X111.086 Y186.649 Z-35.7527 E0.0 
G1 X111.006 Y186.649 Z-35.7529 E0.0 
G1 X111.006 Y186.689 Z-35.7539 E0.0 
G1 X111.006 Y186.689 Z-34.6539 E0.0 
G1 X111.031 Y186.789 Z-34.6563 E0.0 
G1 X111.055 Y186.89 Z-34.6587 E0.0 
G1 X111.08 Y186.99 Z-34.6611 E0.0 
G1 X111.104 Y187.091 Z-34.6635 E0.0 
G1 X111.129 Y187.191 Z-34.6659 E0.0 
G1 X111.153 Y187.291 Z-34.6683 E0.0 
G1 X111.178 Y187.392 Z-34.6707 E0.0 
G1 X111.202 Y187.492 Z-34.6731 E0.0 
G1 X111.227 Y187.593 Z-34.6755 E0.0 
G1 X111.251 Y187.693 Z-34.6779 E0.0 
G1 X111.276 Y187.793 Z-34.6803 E0.0 
G1 X111.3 Y187.894 Z-34.6826 E0.0 
G1 X111.325 Y187.994 Z-34.685 E0.0 
G1 X111.349 Y188.094 Z-34.6874 E0.0 
G1 X111.374 Y188.195 Z-34.6898 E0.0 
G1 X111.398 Y188.295 Z-34.6922 E0.0 
G1 X111.423 Y188.396 Z-34.6946 E0.0 
G1 X111.447 Y188.496 Z-34.697 E0.0 
G1 X111.472 Y188.596 Z-34.6994 E0.0 
G1 X111.496 Y188.697 Z-34.7018 E0.0 
G1 X111.521 Y188.797 Z-34.7042 E0.0 
G1 X111.545 Y188.898 Z-34.7066 E0.0 
G1 X111.57 Y188.998 Z-34.709 E0.0 
G1 X111.57 Y188.998 Z-35.809 E0.0 F180.0 
G1 X111.434 Y189.055 Z-35.8107 E0.0 
G1 X111.298 Y189.112 Z-35.8125 E0.0 
G1 X111.178 Y189.171 Z-35.8143 E0.0 
G1 X111.059 Y189.23 Z-35.8161 E0.0 
G1 X110.957 Y189.29 Z-35.8178 E0.0 
G1 X110.856 Y189.35 Z-35.8196 E0.0 
G1 X110.776 Y189.41 Z-35.8213 E0.0 
G1 X110.696 Y189.47 Z-35.823 E0.0 
G1 X110.603 Y189.555 Z-35.8253 E0.0 
G1 X110.552 Y189.624 Z-35.8271 E0.0 
G1 X110.53 Y189.702 Z-35.8291 E0.0 
G1 X110.526 Y189.814 Z-35.8319 E0.0 
G1 X110.528 Y189.927 Z-35.8346 E0.0 
G1 X110.547 Y189.983 Z-35.836 E0.0 
G1 X110.597 Y189.998 Z-35.8362 E0.0 
G1 X110.696 Y189.986 Z-35.8356 E0.0 
G1 X110.799 Y189.969 Z-35.8349 E0.0 
G1 X110.903 Y189.951 Z-35.8342 E0.0 
G1 X111.006 Y189.934 Z-35.8335 E0.0 
G1 X111.141 Y189.902 Z-35.8323 E0.0 
G1 X111.276 Y189.871 Z-35.8312 E0.0 
G1 X111.398 Y189.832 Z-35.8299 E0.0 
G1 X111.521 Y189.792 Z-35.8285 E0.0 
G1 X111.64 Y189.743 Z-35.827 E0.0 
G1 X111.759 Y189.694 Z-35.8255 E0.0 
G1 X111.871 Y189.648 Z-35.824 E0.0 
G1 X111.983 Y189.602 Z-35.8226 E0.0 
G1 X112.094 Y189.556 Z-35.8212 E0.0 
G1 X112.206 Y189.51 Z-35.8197 E0.0 
G1 X112.295 Y189.457 Z-35.8182 E0.0 
G1 X112.366 Y189.358 Z-35.8155 E0.0 
G1 X112.467 Y189.22 Z-35.8119 E0.0 
G1 X112.554 Y189.144 Z-35.8098 E0.0 
G1 X112.642 Y189.068 Z-35.8077 E0.0 
G1 X112.762 Y188.989 Z-35.8054 E0.0 
G1 X112.882 Y188.91 Z-35.8032 E0.0 
G1 X112.98 Y188.858 Z-35.8016 E0.0 
G1 X113.078 Y188.805 Z-35.8001 E0.0 
G1 X113.176 Y188.753 Z-35.7985 E0.0 
G1 X113.293 Y188.696 Z-35.7968 E0.0 
G1 X113.409 Y188.64 Z-35.7951 E0.0 
G1 X113.526 Y188.583 Z-35.7934 E0.0 
G1 X113.499 Y188.556 Z-35.7928 E0.0 
G1 X113.45 Y188.538 Z-35.7925 E0.0 
G1 X113.369 Y188.533 Z-35.7926 E0.0 
G1 X113.266 Y188.535 Z-35.7929 E0.0 
G1 X113.139 Y188.562 Z-35.7939 E0.0 
G1 X113.013 Y188.588 Z-35.7949 E0.0 
G1 X112.886 Y188.615 Z-35.7959 E0.0 
G1 X112.787 Y188.64 Z-35.7968 E0.0 
G1 X112.687 Y188.664 Z-35.7977 E0.0 
G1 X112.588 Y188.689 Z-35.7986 E0.0 
G1 X112.489 Y188.714 Z-35.7995 E0.0 
G1 X112.39 Y188.739 Z-35.8003 E0.0 
G1 X112.29 Y188.763 Z-35.8012 E0.0 
G1 X112.191 Y188.788 Z-35.8021 E0.0 
G1 X112.088 Y188.823 Z-35.8032 E0.0 
G1 X111.984 Y188.858 Z-35.8044 E0.0 
G1 X111.88 Y188.893 Z-35.8055 E0.0 
G1 X111.777 Y188.928 Z-35.8067 E0.0 
G1 X111.673 Y188.963 Z-35.8078 E0.0 
G1 X111.57 Y188.998 Z-35.809 E0.0 
G1 X111.57 Y188.998 Z-34.709 E0.0 
G1 X111.674 Y189.003 Z-34.7088 E0.0 
G1 X111.779 Y189.008 Z-34.7086 E0.0 
G1 X111.883 Y189.012 Z-34.7084 E0.0 
G1 X111.987 Y189.017 Z-34.7083 E0.0 
G1 X112.092 Y189.022 Z-34.7081 E0.0 
G1 X112.196 Y189.027 Z-34.7079 E0.0 
G1 X112.301 Y189.031 Z-34.7077 E0.0 
G1 X112.405 Y189.036 Z-34.7076 E0.0 
G1 X112.509 Y189.041 Z-34.7074 E0.0 
G1 X112.614 Y189.046 Z-34.7072 E0.0 
G1 X112.718 Y189.05 Z-34.707 E0.0 
G1 X112.822 Y189.055 Z-34.7069 E0.0 
G1 X112.927 Y189.06 Z-34.7067 E0.0 
G1 X113.031 Y189.065 Z-34.7065 E0.0 
G1 X113.135 Y189.07 Z-34.7064 E0.0 
G1 X113.24 Y189.074 Z-34.7062 E0.0 
G1 X113.344 Y189.079 Z-34.706 E0.0 
G1 X113.449 Y189.084 Z-34.705799999999996 E0.0 
G1 X113.553 Y189.089 Z-34.7057 E0.0 
G1 X113.657 Y189.093 Z-34.7055 E0.0 
G1 X113.762 Y189.098 Z-34.7053 E0.0 
G1 X113.866 Y189.103 Z-34.7051 E0.0 
G1 X113.866 Y189.103 Z-35.8051 E0.0 F180.0 
G1 X113.993 Y189.093 Z-35.8046 E0.0 
G1 X114.119 Y189.084 Z-35.804 E0.0 
G1 X114.246 Y189.074 Z-35.803399999999996 E0.0 
G1 X114.352 Y189.062 Z-35.8028 E0.0 
G1 X114.458 Y189.049 Z-35.8022 E0.0 
G1 X114.565 Y189.037 Z-35.8016 E0.0 
G1 X114.671 Y189.025 Z-35.801 E0.0 
G1 X114.792 Y188.999 Z-35.8 E0.0 
G1 X114.913 Y188.974 Z-35.7991 E0.0 
G1 X115.034 Y188.948 Z-35.7981 E0.0 
G1 X115.132 Y188.914 Z-35.797 E0.0 
G1 X115.231 Y188.881 Z-35.7959 E0.0 
G1 X115.329 Y188.847 Z-35.7948 E0.0 
G1 X115.44 Y188.786 Z-35.7931 E0.0 
G1 X115.55 Y188.726 Z-35.7913 E0.0 
G1 X115.632 Y188.66 Z-35.7894 E0.0 
G1 X115.693 Y188.589 Z-35.7876 E0.0 
G1 X115.733 Y188.516 Z-35.7857 E0.0 
G1 X115.751 Y188.439 Z-35.7837 E0.0 
G1 X115.747 Y188.361 Z-35.7819 E0.0 
G1 X115.72 Y188.281 Z-35.78 E0.0 
G1 X115.669 Y188.2 Z-35.7782 E0.0 
G1 X115.593 Y188.118 Z-35.7764 E0.0 
G1 X115.497 Y188.042 Z-35.7748 E0.0 
G1 X115.374 Y187.97 Z-35.7734 E0.0 
G1 X115.27 Y187.927 Z-35.7726 E0.0 
G1 X115.167 Y187.883 Z-35.7718 E0.0 
G1 X115.063 Y187.84 Z-35.771 E0.0 
G1 X114.939 Y187.806 Z-35.7706 E0.0 
G1 X114.815 Y187.772 Z-35.7701 E0.0 
G1 X114.691 Y187.738 Z-35.7696 E0.0 
G1 X114.59 Y187.722 Z-35.7695 E0.0 
G1 X114.489 Y187.706 Z-35.7694 E0.0 
G1 X114.387 Y187.69 Z-35.7692 E0.0 
G1 X114.286 Y187.674 Z-35.7691 E0.0 
G1 X114.156 Y187.661 Z-35.7692 E0.0 
G1 X114.026 Y187.647 Z-35.7692 E0.0 
G1 X114.119 Y187.702 Z-35.7703 E0.0 
G1 X114.213 Y187.757 Z-35.7713 E0.0 
G1 X114.306 Y187.812 Z-35.7724 E0.0 
G1 X114.418 Y187.882 Z-35.7738 E0.0 
G1 X114.53 Y187.953 Z-35.7753 E0.0 
G1 X114.676 Y188.06 Z-35.777499999999996 E0.0 
G1 X114.733 Y188.127 Z-35.7789 E0.0 
G1 X114.762 Y188.195 Z-35.780499999999996 E0.0 
G1 X114.762 Y188.268 Z-35.7823 E0.0 
G1 X114.731 Y188.346 Z-35.7843 E0.0 
G1 X114.669 Y188.432 Z-35.7866 E0.0 
G1 X114.575 Y188.527 Z-35.7891 E0.0 
G1 X114.479 Y188.602 Z-35.791199999999996 E0.0 
G1 X114.382 Y188.677 Z-35.7933 E0.0 
G1 X114.286 Y188.752 Z-35.7954 E0.0 
G1 X114.183 Y188.824 Z-35.7975 E0.0 
G1 X114.079 Y188.897 Z-35.7995 E0.0 
G1 X113.976 Y188.969 Z-35.8016 E0.0 
G1 X113.866 Y189.103 Z-35.8051 E0.0 
G1 X113.866 Y189.103 Z-34.7051 E0.0 
G1 X113.843 Y189.004 Z-34.702799999999996 E0.0 
G1 X113.821 Y188.905 Z-34.7004 E0.0 
G1 X113.798 Y188.806 Z-34.6981 E0.0 
G1 X113.776 Y188.707 Z-34.6957 E0.0 
G1 X113.753 Y188.608 Z-34.6934 E0.0 
G1 X113.731 Y188.508 Z-34.691 E0.0 
G1 X113.708 Y188.409 Z-34.6886 E0.0 
G1 X113.686 Y188.31 Z-34.6863 E0.0 
G1 X113.663 Y188.211 Z-34.6839 E0.0 
G1 X113.641 Y188.112 Z-34.6816 E0.0 
G1 X113.618 Y188.013 Z-34.6792 E0.0 
G1 X113.595 Y187.914 Z-34.676899999999996 E0.0 
G1 X113.573 Y187.815 Z-34.6745 E0.0 
G1 X113.55 Y187.716 Z-34.6721 E0.0 
G1 X113.528 Y187.617 Z-34.6698 E0.0 
G1 X113.505 Y187.518 Z-34.6674 E0.0 
G1 X113.483 Y187.418 Z-34.6651 E0.0 
G1 X113.46 Y187.319 Z-34.6627 E0.0 
G1 X113.438 Y187.22 Z-34.6604 E0.0 
G1 X113.415 Y187.121 Z-34.658 E0.0 
G1 X113.393 Y187.022 Z-34.6556 E0.0 
G1 X113.37 Y186.923 Z-34.6533 E0.0 
G1 X113.37 Y186.923 Z-35.7533 E0.0 F180.0 
G1 X113.476 Y186.886 Z-35.7521 E0.0 
G1 X113.581 Y186.849 Z-35.7509 E0.0 
G1 X113.686 Y186.812 Z-35.7497 E0.0 
G1 X113.792 Y186.775 Z-35.7485 E0.0 
G1 X113.894 Y186.734 Z-35.7473 E0.0 
G1 X113.995 Y186.694 Z-35.746 E0.0 
G1 X114.097 Y186.654 Z-35.7448 E0.0 
G1 X114.198 Y186.613 Z-35.7435 E0.0 
G1 X114.289 Y186.567 Z-35.7421 E0.0 
G1 X114.379 Y186.521 Z-35.7408 E0.0 
G1 X114.47 Y186.475 Z-35.739399999999996 E0.0 
G1 X114.561 Y186.429 Z-35.738 E0.0 
G1 X114.652 Y186.383 Z-35.7367 E0.0 
G1 X114.742 Y186.337 Z-35.7353 E0.0 
G1 X114.833 Y186.29 Z-35.7339 E0.0 
G1 X114.924 Y186.244 Z-35.7326 E0.0 
G1 X115.014 Y186.198 Z-35.7312 E0.0 
G1 X115.105 Y186.152 Z-35.7298 E0.0 
G1 X115.196 Y186.106 Z-35.7285 E0.0 
G1 X115.286 Y186.06 Z-35.7271 E0.0 
G1 X115.377 Y186.014 Z-35.725699999999996 E0.0 
G1 X115.468 Y185.968 Z-35.7244 E0.0 
G1 X115.559 Y185.922 Z-35.723 E0.0 
G1 X115.649 Y185.876 Z-35.7217 E0.0 
G1 X115.74 Y185.83 Z-35.7203 E0.0 
G1 X115.831 Y185.784 Z-35.7189 E0.0 
G1 X115.921 Y185.738 Z-35.7176 E0.0 
G1 X116.012 Y185.692 Z-35.7162 E0.0 
G1 X116.103 Y185.645 Z-35.7149 E0.0 
G1 X116.193 Y185.599 Z-35.713499999999996 E0.0 
G1 X116.284 Y185.553 Z-35.7121 E0.0 
G1 X116.375 Y185.507 Z-35.7108 E0.0 
G1 X116.466 Y185.461 Z-35.7094 E0.0 
G1 X116.556 Y185.415 Z-35.7081 E0.0 
G1 X116.647 Y185.369 Z-35.7067 E0.0 
G1 X116.537 Y185.372 Z-35.7071 E0.0 
G1 X116.426 Y185.375 Z-35.7074 E0.0 
G1 X116.317 Y185.394 Z-35.7082 E0.0 
G1 X116.209 Y185.413 Z-35.7089 E0.0 
G1 X116.101 Y185.433 Z-35.7097 E0.0 
G1 X115.992 Y185.452 Z-35.7104 E0.0 
G1 X115.878 Y185.474 Z-35.7113 E0.0 
G1 X115.764 Y185.497 Z-35.7121 E0.0 
G1 X115.649 Y185.519 Z-35.713 E0.0 
G1 X115.535 Y185.542 Z-35.7138 E0.0 
G1 X115.421 Y185.564 Z-35.7147 E0.0 
G1 X115.306 Y185.591 Z-35.7156 E0.0 
G1 X115.192 Y185.618 Z-35.7166 E0.0 
G1 X115.077 Y185.645 Z-35.7176 E0.0 
G1 X114.963 Y185.672 Z-35.7185 E0.0 
G1 X114.848 Y185.699 Z-35.7195 E0.0 
G1 X114.735 Y185.73 Z-35.7205 E0.0 
G1 X114.622 Y185.761 Z-35.7216 E0.0 
G1 X114.51 Y185.792 Z-35.7226 E0.0 
G1 X114.397 Y185.823 Z-35.7237 E0.0 
G1 X114.284 Y185.854 Z-35.7248 E0.0 
G1 X114.175 Y185.888 Z-35.7259 E0.0 
G1 X114.066 Y185.922 Z-35.727 E0.0 
G1 X113.956 Y185.957 Z-35.7281 E0.0 
G1 X113.847 Y185.991 Z-35.7292 E0.0 
G1 X113.738 Y186.025 Z-35.7304 E0.0 
G1 X113.635 Y186.062 Z-35.7315 E0.0 
G1 X113.532 Y186.098 Z-35.7327 E0.0 
G1 X113.428 Y186.135 Z-35.7339 E0.0 
G1 X113.325 Y186.171 Z-35.735 E0.0 
G1 X113.222 Y186.208 Z-35.7362 E0.0 
G1 X113.127 Y186.246 Z-35.7374 E0.0 
G1 X113.032 Y186.285 Z-35.7386 E0.0 
G1 X112.936 Y186.323 Z-35.7398 E0.0 
G1 X112.841 Y186.362 Z-35.741 E0.0 
G1 X112.746 Y186.4 Z-35.7422 E0.0 
G1 X112.639 Y186.45 Z-35.7437 E0.0 
G1 X112.533 Y186.499 Z-35.7452 E0.0 
G1 X112.426 Y186.548 Z-35.7467 E0.0 
G1 X112.32 Y186.598 Z-35.7482 E0.0 
G1 X112.228 Y186.648 Z-35.7496 E0.0 
G1 X112.137 Y186.698 Z-35.7511 E0.0 
G1 X112.046 Y186.748 Z-35.7526 E0.0 
G1 X111.954 Y186.798 Z-35.754 E0.0 
G1 X111.84 Y186.876 Z-35.7563 E0.0 
G1 X111.726 Y186.954 Z-35.7585 E0.0 
G1 X111.629 Y187.036 Z-35.760799999999996 E0.0 
G1 X111.532 Y187.119 Z-35.763 E0.0 
G1 X111.411 Y187.254 Z-35.7667 E0.0 
G1 X111.39 Y187.299 Z-35.7678 E0.0 
G1 X111.403 Y187.322 Z-35.7684 E0.0 
G1 X111.445 Y187.336 Z-35.7686 E0.0 
G1 X111.557 Y187.319 Z-35.7679 E0.0 
G1 X111.669 Y187.303 Z-35.7672 E0.0 
G1 X111.782 Y187.286 Z-35.7665 E0.0 
G1 X111.894 Y187.27 Z-35.7658 E0.0 
G1 X112.014 Y187.248 Z-35.7649 E0.0 
G1 X112.134 Y187.226 Z-35.764 E0.0 
G1 X112.254 Y187.205 Z-35.7632 E0.0 
G1 X112.374 Y187.183 Z-35.762299999999996 E0.0 
G1 X112.475 Y187.159 Z-35.7615 E0.0 
G1 X112.577 Y187.135 Z-35.7606 E0.0 
G1 X112.678 Y187.112 Z-35.7598 E0.0 
G1 X112.78 Y187.088 Z-35.7589 E0.0 
G1 X112.881 Y187.064 Z-35.758 E0.0 
G1 X112.979 Y187.036 Z-35.7571 E0.0 
G1 X113.077 Y187.008 Z-35.756099999999996 E0.0 
G1 X113.174 Y186.979 Z-35.7552 E0.0 
G1 X113.272 Y186.951 Z-35.7542 E0.0 
G1 X113.37 Y186.923 Z-35.7533 E0.0 
G1 X113.37 Y186.923 Z-34.6533 E0.0 
G1 X113.468 Y186.899 Z-34.6524 E0.0 
G1 X113.567 Y186.874 Z-34.6516 E0.0 
G1 X113.665 Y186.85 Z-34.6507 E0.0 
G1 X113.764 Y186.826 Z-34.6498 E0.0 
G1 X113.862 Y186.801 Z-34.649 E0.0 
G1 X113.961 Y186.777 Z-34.6481 E0.0 
G1 X114.059 Y186.753 Z-34.6473 E0.0 
G1 X114.157 Y186.728 Z-34.6464 E0.0 
G1 X114.256 Y186.704 Z-34.6456 E0.0 
G1 X114.354 Y186.68 Z-34.6447 E0.0 
G1 X114.453 Y186.656 Z-34.6438 E0.0 
G1 X114.551 Y186.631 Z-34.643 E0.0 
G1 X114.65 Y186.607 Z-34.6421 E0.0 
G1 X114.748 Y186.583 Z-34.6413 E0.0 
G1 X114.846 Y186.558 Z-34.6404 E0.0 
G1 X114.945 Y186.534 Z-34.6396 E0.0 
G1 X115.043 Y186.51 Z-34.6387 E0.0 
G1 X115.142 Y186.485 Z-34.6378 E0.0 
G1 X115.24 Y186.461 Z-34.637 E0.0 
G1 X115.339 Y186.437 Z-34.6361 E0.0 
G1 X115.437 Y186.412 Z-34.6353 E0.0 
G1 X115.535 Y186.388 Z-34.6344 E0.0 
G1 X115.634 Y186.364 Z-34.6336 E0.0 
G1 X115.732 Y186.339 Z-34.6327 E0.0 
G1 X115.831 Y186.315 Z-34.6319 E0.0 
G1 X115.929 Y186.291 Z-34.631 E0.0 
G1 X116.028 Y186.267 Z-34.6302 E0.0 
G1 X116.126 Y186.242 Z-34.6293 E0.0 
G1 X116.224 Y186.218 Z-34.6284 E0.0 
G1 X116.323 Y186.194 Z-34.6276 E0.0 
G1 X116.421 Y186.169 Z-34.6267 E0.0 
G1 X116.52 Y186.145 Z-34.6259 E0.0 
G1 X116.618 Y186.121 Z-34.625 E0.0 
G1 X116.717 Y186.096 Z-34.6242 E0.0 
G1 X116.815 Y186.072 Z-34.6233 E0.0 
G1 X116.815 Y186.072 Z-35.7233 E0.0 F180.0 
G1 X116.839 Y186.095 Z-35.7238 E0.0 
G1 X116.97 Y186.08 Z-35.7231 E0.0 
G1 X117.101 Y186.066 Z-35.7224 E0.0 
G1 X117.232 Y186.051 Z-35.7217 E0.0 
G1 X117.337 Y186.035 Z-35.7211 E0.0 
G1 X117.442 Y186.02 Z-35.7204 E0.0 
G1 X117.547 Y186.004 Z-35.7197 E0.0 
G1 X117.653 Y185.989 Z-35.7191 E0.0 
G1 X117.758 Y185.973 Z-35.7184 E0.0 
G1 X117.863 Y185.958 Z-35.7178 E0.0 
G1 X117.968 Y185.942 Z-35.7171 E0.0 
G1 X118.082 Y185.918 Z-35.7162 E0.0 
G1 X118.197 Y185.894 Z-35.7153 E0.0 
G1 X118.311 Y185.87 Z-35.7145 E0.0 
G1 X118.423 Y185.841 Z-35.713499999999996 E0.0 
G1 X118.535 Y185.813 Z-35.7125 E0.0 
G1 X118.647 Y185.784 Z-35.7115 E0.0 
G1 X118.758 Y185.75 Z-35.7104 E0.0 
G1 X118.87 Y185.716 Z-35.7092 E0.0 
G1 X118.981 Y185.682 Z-35.7081 E0.0 
G1 X119.095 Y185.642 Z-35.7068 E0.0 
G1 X119.208 Y185.601 Z-35.7056 E0.0 
G1 X119.322 Y185.561 Z-35.704299999999996 E0.0 
G1 X119.426 Y185.518 Z-35.703 E0.0 
G1 X119.529 Y185.474 Z-35.7017 E0.0 
G1 X119.633 Y185.431 Z-35.7003 E0.0 
G1 X119.737 Y185.388 Z-35.699 E0.0 
G1 X119.841 Y185.345 Z-35.6977 E0.0 
G1 X119.944 Y185.301 Z-35.6964 E0.0 
G1 X120.048 Y185.258 Z-35.6951 E0.0 
G1 X120.151 Y185.211 Z-35.6937 E0.0 
G1 X120.254 Y185.165 Z-35.6923 E0.0 
G1 X120.357 Y185.118 Z-35.6909 E0.0 
G1 X120.46 Y185.072 Z-35.6895 E0.0 
G1 X120.563 Y185.025 Z-35.6881 E0.0 
G1 X120.666 Y184.979 Z-35.6867 E0.0 
G1 X120.766 Y184.937 Z-35.6854 E0.0 
G1 X120.866 Y184.895 Z-35.6841 E0.0 
G1 X120.966 Y184.853 Z-35.6829 E0.0 
G1 X121.081 Y184.801 Z-35.6813 E0.0 
G1 X121.196 Y184.749 Z-35.6798 E0.0 
G1 X121.311 Y184.697 Z-35.6782 E0.0 
G1 X121.358 Y184.662 Z-35.6772 E0.0 
G1 X121.326 Y184.653 Z-35.6771 E0.0 
G1 X121.266 Y184.657 Z-35.6774 E0.0 
G1 X121.161 Y184.671 Z-35.678 E0.0 
G1 X121.056 Y184.685 Z-35.6786 E0.0 
G1 X120.951 Y184.699 Z-35.6792 E0.0 
G1 X120.846 Y184.713 Z-35.6798 E0.0 
G1 X120.737 Y184.729 Z-35.6805 E0.0 
G1 X120.629 Y184.745 Z-35.6811 E0.0 
G1 X120.52 Y184.76 Z-35.6818 E0.0 
G1 X120.412 Y184.776 Z-35.6825 E0.0 
G1 X120.303 Y184.792 Z-35.6831 E0.0 
G1 X120.199 Y184.81 Z-35.6839 E0.0 
G1 X120.094 Y184.829 Z-35.684599999999996 E0.0 
G1 X119.99 Y184.847 Z-35.6853 E0.0 
G1 X119.885 Y184.866 Z-35.686 E0.0 
G1 X119.781 Y184.884 Z-35.6867 E0.0 
G1 X119.682 Y184.904 Z-35.6875 E0.0 
G1 X119.583 Y184.925 Z-35.6882 E0.0 
G1 X119.484 Y184.945 Z-35.689 E0.0 
G1 X119.385 Y184.966 Z-35.6897 E0.0 
G1 X119.286 Y184.986 Z-35.6905 E0.0 
G1 X119.17 Y185.013 Z-35.6915 E0.0 
G1 X119.054 Y185.041 Z-35.6924 E0.0 
G1 X118.938 Y185.069 Z-35.6934 E0.0 
G1 X118.822 Y185.096 Z-35.6944 E0.0 
G1 X118.716 Y185.125 Z-35.6954 E0.0 
G1 X118.609 Y185.155 Z-35.6963 E0.0 
G1 X118.502 Y185.185 Z-35.6973 E0.0 
G1 X118.396 Y185.214 Z-35.698299999999996 E0.0 
G1 X118.3 Y185.245 Z-35.6993 E0.0 
G1 X118.203 Y185.276 Z-35.7004 E0.0 
G1 X118.107 Y185.308 Z-35.7014 E0.0 
G1 X118.011 Y185.339 Z-35.7024 E0.0 
G1 X117.898 Y185.382 Z-35.7037 E0.0 
G1 X117.786 Y185.426 Z-35.7051 E0.0 
G1 X117.673 Y185.469 Z-35.7064 E0.0 
G1 X117.578 Y185.513 Z-35.7077 E0.0 
G1 X117.483 Y185.558 Z-35.7091 E0.0 
G1 X117.388 Y185.602 Z-35.7104 E0.0 
G1 X117.282 Y185.666 Z-35.7122 E0.0 
G1 X117.177 Y185.729 Z-35.714 E0.0 
G1 X117.079 Y185.801 Z-35.7161 E0.0 
G1 X116.982 Y185.874 Z-35.7181 E0.0 
G1 X116.847 Y186.0 Z-35.7215 E0.0 
G1 X116.816 Y186.045 Z-35.722699999999996 E0.0 
G1 X116.815 Y186.072 Z-35.7233 E0.0 
G1 X116.815 Y186.072 Z-34.6233 E0.0 
G1 X116.85 Y186.168 Z-34.6256 E0.0 
G1 X116.885 Y186.264 Z-34.6278 E0.0 
G1 X116.919 Y186.361 Z-34.6301 E0.0 
G1 X116.954 Y186.457 Z-34.6323 E0.0 
G1 X116.989 Y186.553 Z-34.6345 E0.0 
G1 X117.024 Y186.649 Z-34.6368 E0.0 
G1 X117.058 Y186.745 Z-34.639 E0.0 
G1 X117.093 Y186.842 Z-34.6413 E0.0 
G1 X117.128 Y186.938 Z-34.6435 E0.0 
G1 X117.163 Y187.034 Z-34.6458 E0.0 
G1 X117.198 Y187.13 Z-34.647999999999996 E0.0 
G1 X117.232 Y187.227 Z-34.6502 E0.0 
G1 X117.267 Y187.323 Z-34.652499999999996 E0.0 
G1 X117.302 Y187.419 Z-34.6547 E0.0 
G1 X117.302 Y187.419 Z-35.7547 E0.0 F180.0 
G1 X117.21 Y187.462 Z-35.756 E0.0 
G1 X117.118 Y187.505 Z-35.7573 E0.0 
G1 X117.026 Y187.547 Z-35.7586 E0.0 
G1 X116.934 Y187.59 Z-35.7599 E0.0 
G1 X116.834 Y187.648 Z-35.7615 E0.0 
G1 X116.734 Y187.705 Z-35.7632 E0.0 
G1 X116.634 Y187.763 Z-35.7649 E0.0 
G1 X116.541 Y187.839 Z-35.767 E0.0 
G1 X116.447 Y187.914 Z-35.7691 E0.0 
G1 X116.367 Y188.024 Z-35.772 E0.0 
G1 X116.332 Y188.126 Z-35.774499999999996 E0.0 
G1 X116.339 Y188.224 Z-35.7769 E0.0 
G1 X116.389 Y188.323 Z-35.7792 E0.0 
G1 X116.432 Y188.372 Z-35.7802 E0.0 
G1 X116.486 Y188.396 Z-35.7807 E0.0 
G1 X116.58 Y188.399 Z-35.780499999999996 E0.0 
G1 X116.739 Y188.386 Z-35.7797 E0.0 
G1 X116.882 Y188.366 Z-35.7789 E0.0 
G1 X117.024 Y188.346 Z-35.778 E0.0 
G1 X117.166 Y188.317 Z-35.7769 E0.0 
G1 X117.308 Y188.288 Z-35.7758 E0.0 
G1 X117.448 Y188.252 Z-35.774499999999996 E0.0 
G1 X117.589 Y188.217 Z-35.7733 E0.0 
G1 X117.693 Y188.165 Z-35.7717 E0.0 
G1 X117.797 Y188.113 Z-35.7702 E0.0 
G1 X117.9 Y188.061 Z-35.7687 E0.0 
G1 X118.004 Y188.009 Z-35.7671 E0.0 
G1 X118.108 Y187.957 Z-35.7656 E0.0 
G1 X118.203 Y187.914 Z-35.7643 E0.0 
G1 X118.298 Y187.871 Z-35.763 E0.0 
G1 X118.394 Y187.828 Z-35.7617 E0.0 
G1 X118.489 Y187.786 Z-35.7604 E0.0 
G1 X118.584 Y187.743 Z-35.7591 E0.0 
G1 X118.679 Y187.7 Z-35.7578 E0.0 
G1 X118.787 Y187.658 Z-35.7565 E0.0 
G1 X118.895 Y187.616 Z-35.7552 E0.0 
G1 X119.002 Y187.574 Z-35.7538 E0.0 
G1 X119.11 Y187.532 Z-35.7525 E0.0 
G1 X119.218 Y187.49 Z-35.7512 E0.0 
G1 X119.326 Y187.448 Z-35.7499 E0.0 
G1 X119.426 Y187.412 Z-35.7488 E0.0 
G1 X119.526 Y187.377 Z-35.7477 E0.0 
G1 X119.626 Y187.341 Z-35.7465 E0.0 
G1 X119.726 Y187.306 Z-35.7454 E0.0 
G1 X119.826 Y187.27 Z-35.7443 E0.0 
G1 X119.926 Y187.235 Z-35.7431 E0.0 
G1 X120.026 Y187.199 Z-35.742 E0.0 
G1 X120.126 Y187.159 Z-35.7408 E0.0 
G1 X120.226 Y187.12 Z-35.7396 E0.0 
G1 X120.326 Y187.081 Z-35.7383 E0.0 
G1 X120.426 Y187.041 Z-35.7371 E0.0 
G1 X120.525 Y186.999 Z-35.7358 E0.0 
G1 X120.625 Y186.957 Z-35.7345 E0.0 
G1 X120.725 Y186.914 Z-35.7332 E0.0 
G1 X120.824 Y186.872 Z-35.732 E0.0 
G1 X120.917 Y186.828 Z-35.7306 E0.0 
G1 X121.01 Y186.784 Z-35.7293 E0.0 
G1 X121.103 Y186.739 Z-35.728 E0.0 
G1 X121.196 Y186.695 Z-35.7267 E0.0 
G1 X121.301 Y186.638 Z-35.725 E0.0 
G1 X121.407 Y186.58 Z-35.7234 E0.0 
G1 X121.512 Y186.523 Z-35.7217 E0.0 
G1 X121.629 Y186.447 Z-35.7195 E0.0 
G1 X121.746 Y186.37 Z-35.7174 E0.0 
G1 X121.893 Y186.241 Z-35.7139 E0.0 
G1 X122.007 Y186.11 Z-35.7104 E0.0 
G1 X122.063 Y186.01 Z-35.7079 E0.0 
G1 X122.062 Y185.981 Z-35.7072 E0.0 
G1 X122.038 Y185.972 Z-35.707 E0.0 
G1 X121.941 Y186.01 Z-35.7082 E0.0 
G1 X121.843 Y186.049 Z-35.7094 E0.0 
G1 X121.746 Y186.087 Z-35.7106 E0.0 
G1 X121.643 Y186.131 Z-35.7119 E0.0 
G1 X121.539 Y186.176 Z-35.7132 E0.0 
G1 X121.436 Y186.22 Z-35.7146 E0.0 
G1 X121.314 Y186.267 Z-35.716 E0.0 
G1 X121.192 Y186.313 Z-35.7175 E0.0 
G1 X121.07 Y186.36 Z-35.7189 E0.0 
G1 X120.969 Y186.393 Z-35.72 E0.0 
G1 X120.869 Y186.425 Z-35.7211 E0.0 
G1 X120.769 Y186.458 Z-35.7221 E0.0 
G1 X120.668 Y186.491 Z-35.7232 E0.0 
G1 X120.567 Y186.524 Z-35.724199999999996 E0.0 
G1 X120.467 Y186.556 Z-35.7253 E0.0 
G1 X120.367 Y186.589 Z-35.7264 E0.0 
G1 X120.266 Y186.622 Z-35.7274 E0.0 
G1 X120.146 Y186.657 Z-35.7286 E0.0 
G1 X120.026 Y186.691 Z-35.7297 E0.0 
G1 X119.906 Y186.726 Z-35.7309 E0.0 
G1 X119.786 Y186.761 Z-35.7321 E0.0 
G1 X119.687 Y186.783 Z-35.7329 E0.0 
G1 X119.588 Y186.805 Z-35.7337 E0.0 
G1 X119.49 Y186.828 Z-35.7345 E0.0 
G1 X119.391 Y186.85 Z-35.7353 E0.0 
G1 X119.292 Y186.872 Z-35.7361 E0.0 
G1 X119.193 Y186.894 Z-35.7369 E0.0 
G1 X119.094 Y186.916 Z-35.7377 E0.0 
G1 X118.995 Y186.938 Z-35.7385 E0.0 
G1 X118.897 Y186.961 Z-35.7393 E0.0 
G1 X118.798 Y186.983 Z-35.7401 E0.0 
G1 X118.699 Y187.005 Z-35.740899999999996 E0.0 
G1 X118.6 Y187.027 Z-35.7417 E0.0 
G1 X118.501 Y187.049 Z-35.7425 E0.0 
G1 X118.402 Y187.071 Z-35.7433 E0.0 
G1 X118.304 Y187.094 Z-35.7441 E0.0 
G1 X118.205 Y187.116 Z-35.7449 E0.0 
G1 X118.106 Y187.138 Z-35.7457 E0.0 
G1 X118.003 Y187.172 Z-35.7468 E0.0 
G1 X117.9 Y187.205 Z-35.7479 E0.0 
G1 X117.797 Y187.238 Z-35.749 E0.0 
G1 X117.694 Y187.272 Z-35.750099999999996 E0.0 
G1 X117.596 Y187.309 Z-35.7512 E0.0 
G1 X117.498 Y187.345 Z-35.7524 E0.0 
G1 X117.4 Y187.382 Z-35.7536 E0.0 
G1 X117.302 Y187.419 Z-35.7547 E0.0 
G1 X117.302 Y187.419 Z-34.6547 E0.0 
G1 X117.401 Y187.397 Z-34.6539 E0.0 
G1 X117.5 Y187.376 Z-34.6531 E0.0 
G1 X117.599 Y187.354 Z-34.6523 E0.0 
G1 X117.698 Y187.333 Z-34.6515 E0.0 
G1 X117.796 Y187.311 Z-34.6508 E0.0 
G1 X117.895 Y187.289 Z-34.65 E0.0 
G1 X117.994 Y187.268 Z-34.6492 E0.0 
G1 X118.093 Y187.246 Z-34.6484 E0.0 
G1 X118.192 Y187.225 Z-34.6476 E0.0 
G1 X118.291 Y187.203 Z-34.6468 E0.0 
G1 X118.39 Y187.181 Z-34.646 E0.0 
G1 X118.489 Y187.16 Z-34.6452 E0.0 
G1 X118.588 Y187.138 Z-34.6444 E0.0 
G1 X118.687 Y187.117 Z-34.6436 E0.0 
G1 X118.785 Y187.095 Z-34.6428 E0.0 
G1 X118.884 Y187.073 Z-34.6421 E0.0 
G1 X118.983 Y187.052 Z-34.6413 E0.0 
G1 X119.082 Y187.03 Z-34.6405 E0.0 
G1 X119.181 Y187.009 Z-34.6397 E0.0 
G1 X119.28 Y186.987 Z-34.6389 E0.0 
G1 X119.379 Y186.966 Z-34.6381 E0.0 
G1 X119.478 Y186.944 Z-34.637299999999996 E0.0 
G1 X119.577 Y186.922 Z-34.6365 E0.0 
G1 X119.676 Y186.901 Z-34.6357 E0.0 
G1 X119.774 Y186.879 Z-34.635 E0.0 
G1 X119.873 Y186.858 Z-34.6342 E0.0 
G1 X119.972 Y186.836 Z-34.6334 E0.0 
G1 X120.071 Y186.814 Z-34.6326 E0.0 
G1 X120.17 Y186.793 Z-34.6318 E0.0 
G1 X120.269 Y186.771 Z-34.631 E0.0 
G1 X120.368 Y186.75 Z-34.6302 E0.0 
G1 X120.467 Y186.728 Z-34.6294 E0.0 
G1 X120.566 Y186.706 Z-34.6287 E0.0 
G1 X120.665 Y186.685 Z-34.6279 E0.0 
G1 X120.763 Y186.663 Z-34.6271 E0.0 
G1 X120.862 Y186.642 Z-34.6263 E0.0 
G1 X120.961 Y186.62 Z-34.6255 E0.0 
G1 X121.06 Y186.598 Z-34.6247 E0.0 
G1 X121.159 Y186.577 Z-34.6239 E0.0 
G1 X121.258 Y186.555 Z-34.6231 E0.0 
G1 X121.357 Y186.534 Z-34.6224 E0.0 
G1 X121.456 Y186.512 Z-34.6216 E0.0 
G1 X121.555 Y186.49 Z-34.6208 E0.0 
G1 X121.654 Y186.469 Z-34.62 E0.0 
G1 X121.752 Y186.447 Z-34.6192 E0.0 
G1 X121.851 Y186.426 Z-34.6184 E0.0 
G1 X121.95 Y186.404 Z-34.6177 E0.0 
G1 X122.049 Y186.382 Z-34.6169 E0.0 
G1 X122.148 Y186.361 Z-34.6161 E0.0 
G1 X122.247 Y186.339 Z-34.6153 E0.0 
G1 X122.346 Y186.318 Z-34.6145 E0.0 
G1 X122.445 Y186.296 Z-34.6137 E0.0 
G1 X122.544 Y186.275 Z-34.612899999999996 E0.0 
G1 X122.643 Y186.253 Z-34.6122 E0.0 
G1 X122.741 Y186.231 Z-34.611399999999996 E0.0 
G1 X122.84 Y186.21 Z-34.6106 E0.0 
G1 X122.939 Y186.188 Z-34.6098 E0.0 
G1 X123.038 Y186.167 Z-34.609 E0.0 
G1 X123.137 Y186.145 Z-34.6082 E0.0 
G1 X123.236 Y186.123 Z-34.6075 E0.0 
G1 X123.335 Y186.102 Z-34.6067 E0.0 
G1 X123.434 Y186.08 Z-34.6059 E0.0 
G1 X123.533 Y186.059 Z-34.6051 E0.0 
G1 X123.632 Y186.037 Z-34.6043 E0.0 
G1 X123.73 Y186.015 Z-34.6036 E0.0 
G1 X123.829 Y185.994 Z-34.6028 E0.0 
G1 X123.928 Y185.972 Z-34.602 E0.0 
G1 X124.027 Y185.951 Z-34.6012 E0.0 
G1 X124.126 Y185.929 Z-34.6004 E0.0 
G1 X124.126 Y185.929 Z-35.7004 E0.0 F180.0 
G1 X124.206 Y185.929 Z-35.7002 E0.0 
G1 X124.206 Y185.889 Z-35.6993 E0.0 
G1 X124.126 Y185.889 Z-35.6995 E0.0 
G1 X124.126 Y185.929 Z-35.7004 E0.0 
G1 X124.126 Y185.929 Z-34.6004 E0.0 
G1 X124.106 Y185.826 Z-34.598 E0.0 
G1 X124.087 Y185.723 Z-34.5956 E0.0 
G1 X124.067 Y185.62 Z-34.5932 E0.0 
G1 X124.048 Y185.517 Z-34.5908 E0.0 
G1 X124.028 Y185.414 Z-34.5883 E0.0 
G1 X124.008 Y185.311 Z-34.5859 E0.0 
G1 X123.989 Y185.208 Z-34.5835 E0.0 
G1 X123.969 Y185.105 Z-34.5811 E0.0 
G1 X123.949 Y185.002 Z-34.5786 E0.0 
G1 X123.93 Y184.899 Z-34.5762 E0.0 
G1 X123.91 Y184.796 Z-34.5738 E0.0 
G1 X123.891 Y184.693 Z-34.5714 E0.0 
G1 X123.871 Y184.59 Z-34.569 E0.0 
G1 X123.871 Y184.59 Z-35.669 E0.0 F180.0 
G1 X123.966 Y184.545 Z-35.6676 E0.0 
G1 X124.061 Y184.501 Z-35.6663 E0.0 
G1 X124.156 Y184.456 Z-35.665 E0.0 
G1 X124.251 Y184.412 Z-35.6637 E0.0 
G1 X124.346 Y184.367 Z-35.6624 E0.0 
G1 X124.439 Y184.311 Z-35.6608 E0.0 
G1 X124.532 Y184.256 Z-35.6592 E0.0 
G1 X124.678 Y184.147 Z-35.6562 E0.0 
G1 X124.771 Y184.062 Z-35.653999999999996 E0.0 
G1 X124.821 Y183.996 Z-35.6523 E0.0 
G1 X124.839 Y183.927 Z-35.6506 E0.0 
G1 X124.838 Y183.834 Z-35.6483 E0.0 
G1 X124.826 Y183.745 Z-35.6462 E0.0 
G1 X124.801 Y183.683 Z-35.6448 E0.0 
G1 X124.751 Y183.633 Z-35.6437 E0.0 
G1 X124.666 Y183.58 Z-35.6427 E0.0 
G1 X124.526 Y183.516 Z-35.6415 E0.0 
G1 X124.416 Y183.489 Z-35.6411 E0.0 
G1 X124.352 Y183.499 Z-35.6415 E0.0 
G1 X124.326 Y183.524 Z-35.6422 E0.0 
G1 X124.311 Y183.564 Z-35.6432 E0.0 
G1 X124.27 Y183.616 Z-35.6446 E0.0 
G1 X124.125 Y183.746 Z-35.6481 E0.0 
G1 X124.025 Y183.816 Z-35.65 E0.0 
G1 X123.925 Y183.886 Z-35.6519 E0.0 
G1 X123.815 Y183.948 Z-35.6537 E0.0 
G1 X123.704 Y184.01 Z-35.655499999999996 E0.0 
G1 X123.597 Y184.062 Z-35.657 E0.0 
G1 X123.49 Y184.115 Z-35.6585 E0.0 
G1 X123.383 Y184.167 Z-35.6601 E0.0 
G1 X123.284 Y184.2 Z-35.6611 E0.0 
G1 X123.185 Y184.232 Z-35.6621 E0.0 
G1 X123.086 Y184.265 Z-35.663199999999996 E0.0 
G1 X122.987 Y184.297 Z-35.6642 E0.0 
G1 X122.887 Y184.33 Z-35.6653 E0.0 
G1 X122.788 Y184.362 Z-35.6663 E0.0 
G1 X122.689 Y184.395 Z-35.6673 E0.0 
G1 X122.59 Y184.427 Z-35.6684 E0.0 
G1 X122.491 Y184.46 Z-35.6694 E0.0 
G1 X122.392 Y184.492 Z-35.6705 E0.0 
G1 X122.293 Y184.525 Z-35.6715 E0.0 
G1 X122.194 Y184.557 Z-35.6725 E0.0 
G1 X122.094 Y184.59 Z-35.6736 E0.0 
G1 X121.995 Y184.622 Z-35.6746 E0.0 
G1 X121.896 Y184.655 Z-35.6757 E0.0 
G1 X121.797 Y184.687 Z-35.6767 E0.0 
G1 X121.698 Y184.72 Z-35.6778 E0.0 
G1 X121.583 Y184.774 Z-35.6794 E0.0 
G1 X121.468 Y184.829 Z-35.681 E0.0 
G1 X121.379 Y184.878 Z-35.6824 E0.0 
G1 X121.289 Y184.927 Z-35.6838 E0.0 
G1 X121.128 Y185.039 Z-35.6869 E0.0 
G1 X121.011 Y185.143 Z-35.6897 E0.0 
G1 X120.966 Y185.217 Z-35.6917 E0.0 
G1 X121.007 Y185.237 Z-35.692 E0.0 
G1 X121.124 Y185.239 Z-35.6918 E0.0 
G1 X121.224 Y185.228 Z-35.6913 E0.0 
G1 X121.325 Y185.218 Z-35.6907 E0.0 
G1 X121.425 Y185.208 Z-35.6902 E0.0 
G1 X121.526 Y185.197 Z-35.6897 E0.0 
G1 X121.634 Y185.179 Z-35.689 E0.0 
G1 X121.743 Y185.161 Z-35.6883 E0.0 
G1 X121.851 Y185.142 Z-35.6875 E0.0 
G1 X121.96 Y185.124 Z-35.6868 E0.0 
G1 X122.068 Y185.106 Z-35.686099999999996 E0.0 
G1 X122.183 Y185.081 Z-35.6852 E0.0 
G1 X122.298 Y185.056 Z-35.6843 E0.0 
G1 X122.414 Y185.032 Z-35.6834 E0.0 
G1 X122.529 Y185.007 Z-35.6825 E0.0 
G1 X122.644 Y184.982 Z-35.6816 E0.0 
G1 X122.752 Y184.952 Z-35.6806 E0.0 
G1 X122.86 Y184.921 Z-35.6796 E0.0 
G1 X122.968 Y184.891 Z-35.6786 E0.0 
G1 X123.075 Y184.861 Z-35.6775 E0.0 
G1 X123.183 Y184.83 Z-35.6765 E0.0 
G1 X123.291 Y184.8 Z-35.6755 E0.0 
G1 X123.388 Y184.765 Z-35.6744 E0.0 
G1 X123.484 Y184.73 Z-35.6733 E0.0 
G1 X123.581 Y184.695 Z-35.6722 E0.0 
G1 X123.678 Y184.66 Z-35.6711 E0.0 
G1 X123.774 Y184.625 Z-35.6701 E0.0 
G1 X123.871 Y184.59 Z-35.669 E0.0 
G1 X123.871 Y184.59 Z-34.569 E0.0 
G1 X123.966 Y184.556 Z-34.5679 E0.0 
G1 X124.061 Y184.521 Z-34.5668 E0.0 
G1 X124.156 Y184.487 Z-34.5657 E0.0 
G1 X124.251 Y184.452 Z-34.5647 E0.0 
G1 X124.346 Y184.418 Z-34.5636 E0.0 
G1 X124.441 Y184.383 Z-34.5625 E0.0 
G1 X124.536 Y184.349 Z-34.5615 E0.0 
G1 X124.631 Y184.315 Z-34.5604 E0.0 
G1 X124.726 Y184.28 Z-34.5593 E0.0 
G1 X124.821 Y184.246 Z-34.5582 E0.0 
G1 X124.916 Y184.211 Z-34.5572 E0.0 
G1 X125.011 Y184.177 Z-34.5561 E0.0 
G1 X125.106 Y184.142 Z-34.555 E0.0 
G1 X125.201 Y184.108 Z-34.554 E0.0 
G1 X125.296 Y184.073 Z-34.5529 E0.0 
G1 X125.391 Y184.039 Z-34.5518 E0.0 
G1 X125.391 Y184.039 Z-35.6518 E0.0 F180.0 
G1 X125.445 Y184.161 Z-35.6546 E0.0 
G1 X125.51 Y184.24 Z-35.6563 E0.0 
G1 X125.602 Y184.313 Z-35.6578 E0.0 
G1 X125.722 Y184.381 Z-35.6591 E0.0 
G1 X125.869 Y184.442 Z-35.660199999999996 E0.0 
G1 X125.993 Y184.477 Z-35.6607 E0.0 
G1 X126.117 Y184.513 Z-35.6613 E0.0 
G1 X126.241 Y184.548 Z-35.6618 E0.0 
G1 X126.36 Y184.568 Z-35.662 E0.0 
G1 X126.478 Y184.589 Z-35.6621 E0.0 
G1 X126.597 Y184.609 Z-35.6623 E0.0 
G1 X126.716 Y184.629 Z-35.6625 E0.0 
G1 X126.885 Y184.639 Z-35.6623 E0.0 
G1 X126.917 Y184.625 Z-35.6619 E0.0 
G1 X126.926 Y184.595 Z-35.6611 E0.0 
G1 X126.908 Y184.545 Z-35.66 E0.0 
G1 X126.857 Y184.47 Z-35.6583 E0.0 
G1 X126.764 Y184.366 Z-35.6561 E0.0 
G1 X126.671 Y184.262 Z-35.6538 E0.0 
G1 X126.58 Y184.176 Z-35.652 E0.0 
G1 X126.489 Y184.089 Z-35.6502 E0.0 
G1 X126.398 Y184.003 Z-35.6484 E0.0 
G1 X126.315 Y183.933 Z-35.6469 E0.0 
G1 X126.232 Y183.862 Z-35.6454 E0.0 
G1 X126.149 Y183.791 Z-35.6439 E0.0 
G1 X126.066 Y183.721 Z-35.6425 E0.0 
G1 X125.978 Y183.65 Z-35.641 E0.0 
G1 X125.89 Y183.58 Z-35.6395 E0.0 
G1 X125.802 Y183.509 Z-35.6381 E0.0 
G1 X125.714 Y183.439 Z-35.6366 E0.0 
G1 X125.626 Y183.368 Z-35.6351 E0.0 
G1 X125.594 Y183.368 Z-35.6352 E0.0 
G1 X125.547 Y183.423 Z-35.6367 E0.0 
G1 X125.479 Y183.554 Z-35.64 E0.0 
G1 X125.444 Y183.649 Z-35.6423 E0.0 
G1 X125.408 Y183.744 Z-35.6447 E0.0 
G1 X125.379 Y183.903 Z-35.6486 E0.0 
G1 X125.391 Y184.039 Z-35.6518 E0.0 
G1 X125.391 Y184.039 Z-34.5518 E0.0 
G1 X125.491 Y184.026 Z-34.5512 E0.0 
G1 X125.591 Y184.013 Z-34.5507 E0.0 
G1 X125.691 Y183.999 Z-34.5501 E0.0 
G1 X125.79 Y183.986 Z-34.5495 E0.0 
G1 X125.89 Y183.973 Z-34.548899999999996 E0.0 
G1 X125.99 Y183.96 Z-34.5484 E0.0 
G1 X126.09 Y183.947 Z-34.5478 E0.0 
G1 X126.19 Y183.933 Z-34.5472 E0.0 
G1 X126.29 Y183.92 Z-34.5467 E0.0 
G1 X126.39 Y183.907 Z-34.5461 E0.0 
G1 X126.49 Y183.894 Z-34.5455 E0.0 
G1 X126.589 Y183.881 Z-34.5449 E0.0 
G1 X126.689 Y183.867 Z-34.5444 E0.0 
G1 X126.789 Y183.854 Z-34.5438 E0.0 
G1 X126.889 Y183.841 Z-34.5432 E0.0 
G1 X126.889 Y183.841 Z-35.6432 E0.0 F180.0 
G1 X126.91 Y183.96 Z-35.646 E0.0 
G1 X126.951 Y184.074 Z-35.6486 E0.0 
G1 X127.042 Y184.213 Z-35.6517 E0.0 
G1 X127.114 Y184.286 Z-35.6533 E0.0 
G1 X127.185 Y184.359 Z-35.6548 E0.0 
G1 X127.281 Y184.435 Z-35.6564 E0.0 
G1 X127.376 Y184.51 Z-35.6579 E0.0 
G1 X127.493 Y184.586 Z-35.6594 E0.0 
G1 X127.609 Y184.662 Z-35.6609 E0.0 
G1 X127.7 Y184.713 Z-35.6619 E0.0 
G1 X127.79 Y184.764 Z-35.6629 E0.0 
G1 X127.881 Y184.815 Z-35.6639 E0.0 
G1 X127.983 Y184.865 Z-35.6648 E0.0 
G1 X128.086 Y184.914 Z-35.6657 E0.0 
G1 X128.188 Y184.964 Z-35.6666 E0.0 
G1 X128.3 Y185.011 Z-35.6675 E0.0 
G1 X128.412 Y185.059 Z-35.6683 E0.0 
G1 X128.524 Y185.106 Z-35.6691 E0.0 
G1 X128.645 Y185.151 Z-35.6699 E0.0 
G1 X128.765 Y185.196 Z-35.6706 E0.0 
G1 X128.886 Y185.241 Z-35.6714 E0.0 
G1 X129.001 Y185.281 Z-35.672 E0.0 
G1 X129.116 Y185.32 Z-35.6727 E0.0 
G1 X129.231 Y185.36 Z-35.6733 E0.0 
G1 X129.346 Y185.4 Z-35.674 E0.0 
G1 X129.453 Y185.43 Z-35.6744 E0.0 
G1 X129.559 Y185.46 Z-35.6748 E0.0 
G1 X129.666 Y185.489 Z-35.6753 E0.0 
G1 X129.773 Y185.519 Z-35.6757 E0.0 
G1 X129.879 Y185.549 Z-35.6761 E0.0 
G1 X129.986 Y185.579 Z-35.6765 E0.0 
G1 X130.093 Y185.608 Z-35.677 E0.0 
G1 X130.199 Y185.638 Z-35.6774 E0.0 
G1 X130.306 Y185.668 Z-35.6778 E0.0 
G1 X130.407 Y185.695 Z-35.6782 E0.0 
G1 X130.508 Y185.721 Z-35.6785 E0.0 
G1 X130.609 Y185.748 Z-35.6789 E0.0 
G1 X130.71 Y185.775 Z-35.6793 E0.0 
G1 X130.811 Y185.802 Z-35.6796 E0.0 
G1 X130.912 Y185.828 Z-35.68 E0.0 
G1 X131.013 Y185.855 Z-35.6804 E0.0 
G1 X131.114 Y185.882 Z-35.6807 E0.0 
G1 X131.215 Y185.908 Z-35.6811 E0.0 
G1 X131.316 Y185.935 Z-35.6815 E0.0 
G1 X131.416 Y185.962 Z-35.6818 E0.0 
G1 X131.517 Y185.989 Z-35.6822 E0.0 
G1 X131.618 Y186.015 Z-35.6826 E0.0 
G1 X131.719 Y186.042 Z-35.6829 E0.0 
G1 X131.82 Y186.069 Z-35.6833 E0.0 
G1 X131.921 Y186.095 Z-35.6837 E0.0 
G1 X132.022 Y186.122 Z-35.684 E0.0 
G1 X132.123 Y186.149 Z-35.6844 E0.0 
G1 X132.224 Y186.176 Z-35.6848 E0.0 
G1 X132.325 Y186.202 Z-35.6851 E0.0 
G1 X132.426 Y186.229 Z-35.6855 E0.0 
G1 X132.531 Y186.256 Z-35.6858 E0.0 
G1 X132.637 Y186.282 Z-35.6862 E0.0 
G1 X132.742 Y186.309 Z-35.6865 E0.0 
G1 X132.848 Y186.336 Z-35.6869 E0.0 
G1 X132.953 Y186.362 Z-35.6872 E0.0 
G1 X133.059 Y186.389 Z-35.687599999999996 E0.0 
G1 X133.164 Y186.415 Z-35.6879 E0.0 
G1 X133.27 Y186.442 Z-35.6883 E0.0 
G1 X133.375 Y186.469 Z-35.6886 E0.0 
G1 X133.481 Y186.495 Z-35.689 E0.0 
G1 X133.586 Y186.522 Z-35.6893 E0.0 
G1 X133.776 Y186.55 Z-35.6895 E0.0 
G1 X133.936 Y186.561 Z-35.6893 E0.0 
G1 X133.961 Y186.54 Z-35.6887 E0.0 
G1 X133.966 Y186.495 Z-35.687599999999996 E0.0 
G1 X133.946 Y186.408 Z-35.6856 E0.0 
G1 X133.888 Y186.317 Z-35.6837 E0.0 
G1 X133.793 Y186.223 Z-35.6817 E0.0 
G1 X133.661 Y186.127 Z-35.6798 E0.0 
G1 X133.494 Y186.029 Z-35.6779 E0.0 
G1 X133.393 Y185.98 Z-35.677 E0.0 
G1 X133.292 Y185.93 Z-35.6761 E0.0 
G1 X133.192 Y185.89 Z-35.675399999999996 E0.0 
G1 X133.092 Y185.851 Z-35.6748 E0.0 
G1 X132.991 Y185.811 Z-35.6741 E0.0 
G1 X132.891 Y185.772 Z-35.6734 E0.0 
G1 X132.791 Y185.732 Z-35.6727 E0.0 
G1 X132.673 Y185.691 Z-35.6721 E0.0 
G1 X132.554 Y185.649 Z-35.6714 E0.0 
G1 X132.436 Y185.608 Z-35.6708 E0.0 
G1 X132.336 Y185.581 Z-35.6704 E0.0 
G1 X132.237 Y185.554 Z-35.67 E0.0 
G1 X132.137 Y185.527 Z-35.6696 E0.0 
G1 X132.038 Y185.5 Z-35.6693 E0.0 
G1 X131.938 Y185.473 Z-35.6689 E0.0 
G1 X131.839 Y185.447 Z-35.6685 E0.0 
G1 X131.739 Y185.42 Z-35.6681 E0.0 
G1 X131.64 Y185.393 Z-35.6678 E0.0 
G1 X131.54 Y185.366 Z-35.6674 E0.0 
G1 X131.441 Y185.339 Z-35.667 E0.0 
G1 X131.341 Y185.312 Z-35.6666 E0.0 
G1 X131.242 Y185.285 Z-35.6663 E0.0 
G1 X131.142 Y185.258 Z-35.6659 E0.0 
G1 X131.043 Y185.231 Z-35.6655 E0.0 
G1 X130.943 Y185.204 Z-35.6651 E0.0 
G1 X130.844 Y185.178 Z-35.664699999999996 E0.0 
G1 X130.744 Y185.151 Z-35.6644 E0.0 
G1 X130.645 Y185.124 Z-35.664 E0.0 
G1 X130.545 Y185.097 Z-35.6636 E0.0 
G1 X130.446 Y185.07 Z-35.663199999999996 E0.0 
G1 X130.346 Y185.043 Z-35.6629 E0.0 
G1 X130.243 Y185.013 Z-35.6624 E0.0 
G1 X130.139 Y184.983 Z-35.662 E0.0 
G1 X130.036 Y184.952 Z-35.6615 E0.0 
G1 X129.933 Y184.922 Z-35.6611 E0.0 
G1 X129.829 Y184.892 Z-35.6606 E0.0 
G1 X129.726 Y184.862 Z-35.660199999999996 E0.0 
G1 X129.618 Y184.827 Z-35.6596 E0.0 
G1 X129.511 Y184.792 Z-35.6591 E0.0 
G1 X129.403 Y184.757 Z-35.6585 E0.0 
G1 X129.295 Y184.723 Z-35.658 E0.0 
G1 X129.188 Y184.688 Z-35.6574 E0.0 
G1 X129.08 Y184.653 Z-35.6569 E0.0 
G1 X128.983 Y184.617 Z-35.6563 E0.0 
G1 X128.885 Y184.582 Z-35.6557 E0.0 
G1 X128.788 Y184.546 Z-35.6551 E0.0 
G1 X128.69 Y184.51 Z-35.6545 E0.0 
G1 X128.593 Y184.474 Z-35.6539 E0.0 
G1 X128.495 Y184.439 Z-35.6533 E0.0 
G1 X128.398 Y184.403 Z-35.6527 E0.0 
G1 X128.297 Y184.363 Z-35.652 E0.0 
G1 X128.195 Y184.323 Z-35.6513 E0.0 
G1 X128.094 Y184.283 Z-35.6507 E0.0 
G1 X127.993 Y184.244 Z-35.65 E0.0 
G1 X127.892 Y184.204 Z-35.6493 E0.0 
G1 X127.79 Y184.164 Z-35.6486 E0.0 
G1 X127.689 Y184.124 Z-35.6479 E0.0 
G1 X127.59 Y184.059 Z-35.6466 E0.0 
G1 X127.492 Y183.995 Z-35.6453 E0.0 
G1 X127.393 Y183.93 Z-35.644 E0.0 
G1 X127.299 Y183.871 Z-35.6429 E0.0 
G1 X127.204 Y183.812 Z-35.6417 E0.0 
G1 X127.11 Y183.753 Z-35.6405 E0.0 
G1 X127.016 Y183.694 Z-35.6394 E0.0 
G1 X126.952 Y183.671 Z-35.639 E0.0 
G1 X126.911 Y183.676 Z-35.6392 E0.0 
G1 X126.888 Y183.739 Z-35.6408 E0.0 
G1 X126.889 Y183.841 Z-35.6432 E0.0 
G1 X126.889 Y183.841 Z-34.5432 E0.0 
G1 X126.86 Y183.938 Z-34.5456 E0.0 
G1 X126.832 Y184.035 Z-34.548 E0.0 
G1 X126.803 Y184.132 Z-34.550399999999996 E0.0 
G1 X126.774 Y184.23 Z-34.5528 E0.0 
G1 X126.745 Y184.327 Z-34.5552 E0.0 
G1 X126.717 Y184.424 Z-34.5576 E0.0 
G1 X126.688 Y184.521 Z-34.56 E0.0 
G1 X126.659 Y184.618 Z-34.5624 E0.0 
G1 X126.631 Y184.715 Z-34.5648 E0.0 
G1 X126.602 Y184.812 Z-34.5672 E0.0 
G1 X126.573 Y184.91 Z-34.5696 E0.0 
G1 X126.545 Y185.007 Z-34.572 E0.0 
G1 X126.516 Y185.104 Z-34.5744 E0.0 
G1 X126.487 Y185.201 Z-34.5768 E0.0 
G1 X126.458 Y185.298 Z-34.5792 E0.0 
G1 X126.43 Y185.395 Z-34.5816 E0.0 
G1 X126.401 Y185.493 Z-34.584 E0.0 
G1 X126.372 Y185.59 Z-34.5863 E0.0 
G1 X126.344 Y185.687 Z-34.5887 E0.0 
G1 X126.315 Y185.784 Z-34.5911 E0.0 
G1 X126.286 Y185.881 Z-34.5935 E0.0 
G1 X126.258 Y185.978 Z-34.5959 E0.0 
G1 X126.229 Y186.075 Z-34.5983 E0.0 
G1 X126.2 Y186.173 Z-34.600699999999996 E0.0 
G1 X126.171 Y186.27 Z-34.6031 E0.0 
G1 X126.143 Y186.367 Z-34.6055 E0.0 
G1 X126.114 Y186.464 Z-34.6079 E0.0 
G1 X126.114 Y186.464 Z-35.7079 E0.0 F180.0 
G1 X126.005 Y186.423 Z-35.7073 E0.0 
G1 X125.896 Y186.382 Z-35.7066 E0.0 
G1 X125.787 Y186.342 Z-35.7059 E0.0 
G1 X125.678 Y186.301 Z-35.7052 E0.0 
G1 X125.563 Y186.264 Z-35.7046 E0.0 
G1 X125.448 Y186.227 Z-35.7041 E0.0 
G1 X125.333 Y186.191 Z-35.7035 E0.0 
G1 X125.218 Y186.154 Z-35.7029 E0.0 
G1 X125.1 Y186.122 Z-35.7025 E0.0 
G1 X124.982 Y186.09 Z-35.702 E0.0 
G1 X124.864 Y186.058 Z-35.7016 E0.0 
G1 X124.746 Y186.026 Z-35.7011 E0.0 
G1 X124.646 Y186.002 Z-35.7008 E0.0 
G1 X124.546 Y185.977 Z-35.7005 E0.0 
G1 X124.446 Y185.953 Z-35.7002 E0.0 
G1 X124.346 Y185.929 Z-35.699799999999996 E0.0 
G1 X124.186 Y185.93 Z-35.7003 E0.0 
G1 X124.286 Y185.973 Z-35.7011 E0.0 
G1 X124.385 Y186.016 Z-35.7018 E0.0 
G1 X124.485 Y186.059 Z-35.7026 E0.0 
G1 X124.585 Y186.102 Z-35.7034 E0.0 
G1 X124.685 Y186.145 Z-35.7041 E0.0 
G1 X124.784 Y186.188 Z-35.7049 E0.0 
G1 X124.884 Y186.231 Z-35.7057 E0.0 
G1 X124.984 Y186.274 Z-35.7064 E0.0 
G1 X125.084 Y186.317 Z-35.7072 E0.0 
G1 X125.183 Y186.36 Z-35.7079 E0.0 
G1 X125.283 Y186.403 Z-35.7087 E0.0 
G1 X125.371 Y186.464 Z-35.7099 E0.0 
G1 X125.46 Y186.525 Z-35.7112 E0.0 
G1 X125.541 Y186.588 Z-35.7124 E0.0 
G1 X125.621 Y186.651 Z-35.7137 E0.0 
G1 X125.747 Y186.783 Z-35.7166 E0.0 
G1 X125.837 Y186.922 Z-35.7196 E0.0 
G1 X125.894 Y187.07 Z-35.723 E0.0 
G1 X125.924 Y187.167 Z-35.7253 E0.0 
G1 X125.962 Y187.223 Z-35.7265 E0.0 
G1 X126.028 Y187.256 Z-35.7271 E0.0 
G1 X126.143 Y187.283 Z-35.7275 E0.0 
G1 X126.245 Y187.304 Z-35.7277 E0.0 
G1 X126.346 Y187.326 Z-35.7279 E0.0 
G1 X126.45 Y187.349 Z-35.7282 E0.0 
G1 X126.554 Y187.373 Z-35.7285 E0.0 
G1 X126.658 Y187.396 Z-35.7288 E0.0 
G1 X126.762 Y187.42 Z-35.729 E0.0 
G1 X126.866 Y187.443 Z-35.7293 E0.0 
G1 X126.97 Y187.466 Z-35.7296 E0.0 
G1 X127.074 Y187.49 Z-35.7299 E0.0 
G1 X127.178 Y187.513 Z-35.7301 E0.0 
G1 X127.282 Y187.537 Z-35.7304 E0.0 
G1 X127.386 Y187.56 Z-35.7307 E0.0 
G1 X127.536 Y187.587 Z-35.7309 E0.0 
G1 X127.643 Y187.594 Z-35.7308 E0.0 
G1 X127.672 Y187.582 Z-35.7304 E0.0 
G1 X127.683 Y187.559 Z-35.7299 E0.0 
G1 X127.657 Y187.475 Z-35.7279 E0.0 
G1 X127.564 Y187.333 Z-35.7248 E0.0 
G1 X127.486 Y187.251 Z-35.7231 E0.0 
G1 X127.407 Y187.169 Z-35.7213 E0.0 
G1 X127.29 Y187.082 Z-35.7195 E0.0 
G1 X127.173 Y186.995 Z-35.7178 E0.0 
G1 X127.073 Y186.935 Z-35.7166 E0.0 
G1 X126.973 Y186.876 Z-35.7155 E0.0 
G1 X126.873 Y186.816 Z-35.7143 E0.0 
G1 X126.754 Y186.756 Z-35.7132 E0.0 
G1 X126.635 Y186.697 Z-35.7121 E0.0 
G1 X126.516 Y186.637 Z-35.711 E0.0 
G1 X126.416 Y186.594 Z-35.7102 E0.0 
G1 X126.315 Y186.55 Z-35.7095 E0.0 
G1 X126.215 Y186.507 Z-35.7087 E0.0 
G1 X126.114 Y186.464 Z-35.7079 E0.0 
G1 X126.114 Y186.464 Z-34.6079 E0.0 
G1 X126.07 Y186.557 Z-34.6103 E0.0 
G1 X126.025 Y186.65 Z-34.6126 E0.0 
G1 X125.981 Y186.743 Z-34.615 E0.0 
G1 X125.937 Y186.836 Z-34.6173 E0.0 
G1 X125.892 Y186.93 Z-34.6197 E0.0 
G1 X125.848 Y187.023 Z-34.622 E0.0 
G1 X125.804 Y187.116 Z-34.6244 E0.0 
G1 X125.759 Y187.209 Z-34.6267 E0.0 
G1 X125.715 Y187.302 Z-34.6291 E0.0 
G1 X125.715 Y187.302 Z-35.7291 E0.0 F180.0 
G1 X125.609 Y187.265 Z-35.7285 E0.0 
G1 X125.503 Y187.227 Z-35.7279 E0.0 
G1 X125.397 Y187.19 Z-35.7273 E0.0 
G1 X125.291 Y187.153 Z-35.7266 E0.0 
G1 X125.186 Y187.116 Z-35.726 E0.0 
G1 X125.08 Y187.078 Z-35.7254 E0.0 
G1 X124.974 Y187.041 Z-35.7248 E0.0 
G1 X124.868 Y187.004 Z-35.724199999999996 E0.0 
G1 X124.768 Y186.965 Z-35.7236 E0.0 
G1 X124.669 Y186.926 Z-35.7229 E0.0 
G1 X124.57 Y186.888 Z-35.7222 E0.0 
G1 X124.47 Y186.849 Z-35.7216 E0.0 
G1 X124.439 Y186.849 Z-35.7217 E0.0 
G1 X124.424 Y186.87 Z-35.7222 E0.0 
G1 X124.433 Y186.919 Z-35.7234 E0.0 
G1 X124.484 Y187.025 Z-35.7258 E0.0 
G1 X124.562 Y187.132 Z-35.7281 E0.0 
G1 X124.665 Y187.239 Z-35.7304 E0.0 
G1 X124.793 Y187.345 Z-35.7326 E0.0 
G1 X124.901 Y187.415 Z-35.734 E0.0 
G1 X125.01 Y187.485 Z-35.7354 E0.0 
G1 X125.118 Y187.555 Z-35.7367 E0.0 
G1 X125.22 Y187.606 Z-35.7377 E0.0 
G1 X125.323 Y187.656 Z-35.7386 E0.0 
G1 X125.425 Y187.707 Z-35.7395 E0.0 
G1 X125.528 Y187.757 Z-35.7405 E0.0 
G1 X125.625 Y187.795 Z-35.7411 E0.0 
G1 X125.722 Y187.833 Z-35.7418 E0.0 
G1 X125.819 Y187.871 Z-35.742399999999996 E0.0 
G1 X125.916 Y187.909 Z-35.743 E0.0 
G1 X126.013 Y187.947 Z-35.7437 E0.0 
G1 X126.123 Y187.982 Z-35.7442 E0.0 
G1 X126.233 Y188.017 Z-35.7448 E0.0 
G1 X126.343 Y188.051 Z-35.7453 E0.0 
G1 X126.453 Y188.086 Z-35.7458 E0.0 
G1 X126.563 Y188.121 Z-35.7463 E0.0 
G1 X126.664 Y188.147 Z-35.7467 E0.0 
G1 X126.766 Y188.173 Z-35.747 E0.0 
G1 X126.867 Y188.198 Z-35.7474 E0.0 
G1 X126.968 Y188.224 Z-35.7477 E0.0 
G1 X127.07 Y188.25 Z-35.748 E0.0 
G1 X127.171 Y188.276 Z-35.7484 E0.0 
G1 X127.28 Y188.298 Z-35.748599999999996 E0.0 
G1 X127.389 Y188.32 Z-35.7488 E0.0 
G1 X127.498 Y188.341 Z-35.749 E0.0 
G1 X127.608 Y188.363 Z-35.7493 E0.0 
G1 X127.717 Y188.385 Z-35.7495 E0.0 
G1 X127.826 Y188.407 Z-35.7497 E0.0 
G1 X127.931 Y188.423 Z-35.7498 E0.0 
G1 X128.037 Y188.438 Z-35.7499 E0.0 
G1 X128.142 Y188.454 Z-35.75 E0.0 
G1 X128.248 Y188.47 Z-35.75 E0.0 
G1 X128.353 Y188.486 Z-35.750099999999996 E0.0 
G1 X128.459 Y188.501 Z-35.7502 E0.0 
G1 X128.564 Y188.517 Z-35.7503 E0.0 
G1 X128.72 Y188.517 Z-35.7499 E0.0 
G1 X128.755 Y188.504 Z-35.7494 E0.0 
G1 X128.766 Y188.482 Z-35.7489 E0.0 
G1 X128.75 Y188.421 Z-35.7475 E0.0 
G1 X128.703 Y188.357 Z-35.7461 E0.0 
G1 X128.626 Y188.289 Z-35.7447 E0.0 
G1 X128.521 Y188.219 Z-35.7433 E0.0 
G1 X128.425 Y188.172 Z-35.742399999999996 E0.0 
G1 X128.328 Y188.124 Z-35.7416 E0.0 
G1 X128.232 Y188.077 Z-35.7407 E0.0 
G1 X128.135 Y188.041 Z-35.7401 E0.0 
G1 X128.038 Y188.006 Z-35.7396 E0.0 
G1 X127.941 Y187.971 Z-35.739 E0.0 
G1 X127.844 Y187.935 Z-35.7384 E0.0 
G1 X127.718 Y187.894 Z-35.7378 E0.0 
G1 X127.592 Y187.854 Z-35.7371 E0.0 
G1 X127.466 Y187.813 Z-35.7365 E0.0 
G1 X127.356 Y187.782 Z-35.7361 E0.0 
G1 X127.246 Y187.751 Z-35.7356 E0.0 
G1 X127.136 Y187.72 Z-35.7352 E0.0 
G1 X127.026 Y187.69 Z-35.7348 E0.0 
G1 X126.916 Y187.659 Z-35.7343 E0.0 
G1 X126.806 Y187.628 Z-35.7339 E0.0 
G1 X126.707 Y187.598 Z-35.7335 E0.0 
G1 X126.608 Y187.569 Z-35.733 E0.0 
G1 X126.508 Y187.539 Z-35.7326 E0.0 
G1 X126.409 Y187.509 Z-35.7321 E0.0 
G1 X126.31 Y187.48 Z-35.7317 E0.0 
G1 X126.211 Y187.45 Z-35.7313 E0.0 
G1 X126.112 Y187.421 Z-35.7308 E0.0 
G1 X126.013 Y187.391 Z-35.7304 E0.0 
G1 X125.913 Y187.361 Z-35.7299 E0.0 
G1 X125.814 Y187.332 Z-35.7295 E0.0 
G1 X125.715 Y187.302 Z-35.7291 E0.0 
G1 X125.715 Y187.302 Z-34.6291 E0.0 
G1 X125.785 Y187.378 Z-34.6307 E0.0 
G1 X125.855 Y187.454 Z-34.6323 E0.0 
G1 X125.925 Y187.531 Z-34.634 E0.0 
G1 X125.995 Y187.607 Z-34.6356 E0.0 
G1 X126.065 Y187.683 Z-34.6372 E0.0 
G1 X126.135 Y187.759 Z-34.6389 E0.0 
G1 X126.205 Y187.835 Z-34.6405 E0.0 
G1 X126.276 Y187.912 Z-34.6421 E0.0 
G1 X126.346 Y187.988 Z-34.6438 E0.0 
G1 X126.416 Y188.064 Z-34.6454 E0.0 
G1 X126.486 Y188.14 Z-34.647 E0.0 
G1 X126.556 Y188.216 Z-34.6486 E0.0 
G1 X126.626 Y188.293 Z-34.6503 E0.0 
G1 X126.696 Y188.369 Z-34.6519 E0.0 
G1 X126.766 Y188.445 Z-34.6535 E0.0 
G1 X126.766 Y188.445 Z-35.7535 E0.0 F180.0 
G1 X126.813 Y188.511 Z-35.755 E0.0 
G1 X126.936 Y188.606 Z-35.7569 E0.0 
G1 X127.023 Y188.659 Z-35.7579 E0.0 
G1 X127.11 Y188.713 Z-35.759 E0.0 
G1 X127.209 Y188.763 Z-35.7599 E0.0 
G1 X127.309 Y188.814 Z-35.760799999999996 E0.0 
G1 X127.411 Y188.852 Z-35.7615 E0.0 
G1 X127.513 Y188.891 Z-35.7621 E0.0 
G1 X127.615 Y188.929 Z-35.7627 E0.0 
G1 X127.715 Y188.958 Z-35.7631 E0.0 
G1 X127.814 Y188.987 Z-35.7636 E0.0 
G1 X127.913 Y189.016 Z-35.764 E0.0 
G1 X128.013 Y189.045 Z-35.7644 E0.0 
G1 X128.124 Y189.071 Z-35.7647 E0.0 
G1 X128.234 Y189.096 Z-35.765 E0.0 
G1 X128.345 Y189.122 Z-35.765299999999996 E0.0 
G1 X128.455 Y189.148 Z-35.7656 E0.0 
G1 X128.564 Y189.168 Z-35.7658 E0.0 
G1 X128.673 Y189.188 Z-35.766 E0.0 
G1 X128.783 Y189.207 Z-35.7661 E0.0 
G1 X128.892 Y189.227 Z-35.7663 E0.0 
G1 X128.998 Y189.243 Z-35.7664 E0.0 
G1 X129.104 Y189.258 Z-35.7664 E0.0 
G1 X129.21 Y189.274 Z-35.7665 E0.0 
G1 X129.316 Y189.29 Z-35.7666 E0.0 
G1 X129.431 Y189.289 Z-35.7663 E0.0 
G1 X129.488 Y189.285 Z-35.766 E0.0 
G1 X129.495 Y189.267 Z-35.7656 E0.0 
G1 X129.411 Y189.207 Z-35.7644 E0.0 
G1 X129.327 Y189.148 Z-35.7632 E0.0 
G1 X129.213 Y189.085 Z-35.762 E0.0 
G1 X129.098 Y189.022 Z-35.760799999999996 E0.0 
G1 X129.002 Y188.98 Z-35.7601 E0.0 
G1 X128.905 Y188.937 Z-35.7594 E0.0 
G1 X128.809 Y188.895 Z-35.7586 E0.0 
G1 X128.699 Y188.854 Z-35.7579 E0.0 
G1 X128.59 Y188.812 Z-35.7572 E0.0 
G1 X128.48 Y188.771 Z-35.7566 E0.0 
G1 X128.363 Y188.733 Z-35.756 E0.0 
G1 X128.247 Y188.694 Z-35.7554 E0.0 
G1 X128.13 Y188.656 Z-35.7548 E0.0 
G1 X128.013 Y188.623 Z-35.7543 E0.0 
G1 X127.895 Y188.59 Z-35.7539 E0.0 
G1 X127.778 Y188.557 Z-35.7534 E0.0 
G1 X127.666 Y188.531 Z-35.753099999999996 E0.0 
G1 X127.554 Y188.505 Z-35.7528 E0.0 
G1 X127.442 Y188.479 Z-35.7525 E0.0 
G1 X127.342 Y188.462 Z-35.7523 E0.0 
G1 X127.241 Y188.445 Z-35.7522 E0.0 
G1 X127.141 Y188.428 Z-35.7521 E0.0 
G1 X127.019 Y188.419 Z-35.7522 E0.0 
G1 X126.896 Y188.41 Z-35.7523 E0.0 
G1 X126.804 Y188.42 Z-35.7528 E0.0 
G1 X126.766 Y188.445 Z-35.7535 E0.0 
G1 X126.766 Y188.445 Z-34.6535 E0.0 
G1 X126.866 Y188.414 Z-34.652499999999996 E0.0 
G1 X126.965 Y188.383 Z-34.6515 E0.0 
G1 X127.065 Y188.352 Z-34.6505 E0.0 
G1 X127.164 Y188.32 Z-34.649499999999996 E0.0 
G1 X127.264 Y188.289 Z-34.6484 E0.0 
G1 X127.364 Y188.258 Z-34.6474 E0.0 
G1 X127.463 Y188.227 Z-34.6464 E0.0 
G1 X127.563 Y188.196 Z-34.6454 E0.0 
G1 X127.662 Y188.165 Z-34.6444 E0.0 
G1 X127.762 Y188.133 Z-34.6434 E0.0 
G1 X127.862 Y188.102 Z-34.6423 E0.0 
G1 X127.961 Y188.071 Z-34.6413 E0.0 
G1 X128.061 Y188.04 Z-34.640299999999996 E0.0 
G1 X128.16 Y188.009 Z-34.6393 E0.0 
G1 X128.26 Y187.978 Z-34.6383 E0.0 
G1 X128.36 Y187.947 Z-34.637299999999996 E0.0 
G1 X128.459 Y187.915 Z-34.6362 E0.0 
G1 X128.559 Y187.884 Z-34.6352 E0.0 
G1 X128.658 Y187.853 Z-34.6342 E0.0 
G1 X128.758 Y187.822 Z-34.6332 E0.0 
G1 X128.758 Y187.822 Z-35.7332 E0.0 F180.0 
G1 X128.839 Y187.933 Z-35.7356 E0.0 
G1 X128.963 Y188.045 Z-35.737899999999996 E0.0 
G1 X129.046 Y188.101 Z-35.7391 E0.0 
G1 X129.13 Y188.157 Z-35.7402 E0.0 
G1 X129.236 Y188.213 Z-35.7412 E0.0 
G1 X129.342 Y188.269 Z-35.7422 E0.0 
G1 X129.459 Y188.32 Z-35.7431 E0.0 
G1 X129.577 Y188.372 Z-35.744 E0.0 
G1 X129.716 Y188.423 Z-35.7449 E0.0 
G1 X129.855 Y188.474 Z-35.7457 E0.0 
G1 X129.961 Y188.506 Z-35.7462 E0.0 
G1 X130.067 Y188.538 Z-35.7466 E0.0 
G1 X130.173 Y188.57 Z-35.747099999999996 E0.0 
G1 X130.279 Y188.601 Z-35.7476 E0.0 
G1 X130.385 Y188.633 Z-35.748 E0.0 
G1 X130.491 Y188.665 Z-35.7485 E0.0 
G1 X130.602 Y188.691 Z-35.7488 E0.0 
G1 X130.714 Y188.716 Z-35.7491 E0.0 
G1 X130.825 Y188.742 Z-35.7494 E0.0 
G1 X130.936 Y188.768 Z-35.7497 E0.0 
G1 X131.048 Y188.793 Z-35.75 E0.0 
G1 X131.159 Y188.819 Z-35.7503 E0.0 
G1 X131.26 Y188.834 Z-35.7504 E0.0 
G1 X131.361 Y188.85 Z-35.7505 E0.0 
G1 X131.462 Y188.865 Z-35.7505 E0.0 
G1 X131.564 Y188.88 Z-35.7506 E0.0 
G1 X131.665 Y188.896 Z-35.7507 E0.0 
G1 X131.766 Y188.911 Z-35.7508 E0.0 
G1 X131.872 Y188.916 Z-35.7506 E0.0 
G1 X131.978 Y188.922 Z-35.7505 E0.0 
G1 X131.97 Y188.901 Z-35.75 E0.0 
G1 X131.903 Y188.853 Z-35.749 E0.0 
G1 X131.78 Y188.771 Z-35.7474 E0.0 
G1 X131.684 Y188.73 Z-35.7467 E0.0 
G1 X131.588 Y188.69 Z-35.746 E0.0 
G1 X131.493 Y188.649 Z-35.7453 E0.0 
G1 X131.397 Y188.609 Z-35.7447 E0.0 
G1 X131.301 Y188.569 Z-35.744 E0.0 
G1 X131.205 Y188.528 Z-35.7433 E0.0 
G1 X131.105 Y188.484 Z-35.7425 E0.0 
G1 X131.006 Y188.44 Z-35.7417 E0.0 
G1 X130.906 Y188.396 Z-35.741 E0.0 
G1 X130.807 Y188.353 Z-35.7402 E0.0 
G1 X130.707 Y188.309 Z-35.739399999999996 E0.0 
G1 X130.608 Y188.265 Z-35.7387 E0.0 
G1 X130.508 Y188.221 Z-35.737899999999996 E0.0 
G1 X130.408 Y188.17 Z-35.737 E0.0 
G1 X130.308 Y188.119 Z-35.736 E0.0 
G1 X130.207 Y188.068 Z-35.7351 E0.0 
G1 X130.107 Y188.017 Z-35.7341 E0.0 
G1 X130.007 Y187.966 Z-35.7332 E0.0 
G1 X129.914 Y187.906 Z-35.732 E0.0 
G1 X129.822 Y187.846 Z-35.7309 E0.0 
G1 X129.729 Y187.785 Z-35.7297 E0.0 
G1 X129.636 Y187.725 Z-35.7285 E0.0 
G1 X129.559 Y187.659 Z-35.7271 E0.0 
G1 X129.482 Y187.593 Z-35.7258 E0.0 
G1 X129.405 Y187.527 Z-35.7244 E0.0 
G1 X129.328 Y187.461 Z-35.7231 E0.0 
G1 X129.245 Y187.386 Z-35.7215 E0.0 
G1 X129.161 Y187.311 Z-35.7199 E0.0 
G1 X129.065 Y187.249 Z-35.7187 E0.0 
G1 X128.991 Y187.289 Z-35.7199 E0.0 
G1 X128.873 Y187.385 Z-35.7225 E0.0 
G1 X128.779 Y187.492 Z-35.7253 E0.0 
G1 X128.728 Y187.601 Z-35.728 E0.0 
G1 X128.721 Y187.711 Z-35.7307 E0.0 
G1 X128.758 Y187.822 Z-35.7332 E0.0 
G1 X128.758 Y187.822 Z-34.6332 E0.0 
G1 X128.802 Y187.732 Z-34.6309 E0.0 
G1 X128.847 Y187.641 Z-34.6287 E0.0 
G1 X128.891 Y187.551 Z-34.6264 E0.0 
G1 X128.935 Y187.461 Z-34.6241 E0.0 
G1 X128.98 Y187.37 Z-34.6218 E0.0 
G1 X129.024 Y187.28 Z-34.6196 E0.0 
G1 X129.068 Y187.19 Z-34.6173 E0.0 
G1 X129.113 Y187.099 Z-34.615 E0.0 
G1 X129.157 Y187.009 Z-34.6128 E0.0 
G1 X129.201 Y186.919 Z-34.6105 E0.0 
G1 X129.246 Y186.828 Z-34.6082 E0.0 
G1 X129.29 Y186.738 Z-34.606 E0.0 
G1 X129.334 Y186.648 Z-34.603699999999996 E0.0 
G1 X129.379 Y186.557 Z-34.6014 E0.0 
G1 X129.423 Y186.467 Z-34.599199999999996 E0.0 
G1 X129.467 Y186.377 Z-34.5969 E0.0 
G1 X129.512 Y186.286 Z-34.5946 E0.0 
G1 X129.556 Y186.196 Z-34.5924 E0.0 
G1 X129.6 Y186.106 Z-34.5901 E0.0 
G1 X129.644 Y186.016 Z-34.5878 E0.0 
G1 X129.689 Y185.925 Z-34.5856 E0.0 
G1 X129.733 Y185.835 Z-34.5833 E0.0 
G1 X129.777 Y185.745 Z-34.581 E0.0 
G1 X129.822 Y185.654 Z-34.5788 E0.0 
G1 X129.866 Y185.564 Z-34.5765 E0.0 
G1 X129.91 Y185.474 Z-34.5742 E0.0 
G1 X129.955 Y185.383 Z-34.572 E0.0 
G1 X129.999 Y185.293 Z-34.5697 E0.0 
G1 X130.043 Y185.203 Z-34.5674 E0.0 
G1 X130.088 Y185.112 Z-34.5652 E0.0 
G1 X130.132 Y185.022 Z-34.5629 E0.0 
G1 X130.176 Y184.932 Z-34.5607 E0.0 
G1 X130.221 Y184.841 Z-34.5584 E0.0 
G1 X130.265 Y184.751 Z-34.5561 E0.0 
G1 X130.309 Y184.661 Z-34.5539 E0.0 
G1 X130.354 Y184.57 Z-34.5516 E0.0 
G1 X130.398 Y184.48 Z-34.5494 E0.0 
G1 X130.398 Y184.48 Z-35.6494 E0.0 F180.0 
G1 X130.506 Y184.536 Z-35.6504 E0.0 
G1 X130.614 Y184.592 Z-35.6515 E0.0 
G1 X130.752 Y184.65 Z-35.652499999999996 E0.0 
G1 X130.889 Y184.709 Z-35.6535 E0.0 
G1 X130.998 Y184.749 Z-35.6542 E0.0 
G1 X131.108 Y184.789 Z-35.6548 E0.0 
G1 X131.217 Y184.829 Z-35.655499999999996 E0.0 
G1 X131.316 Y184.859 Z-35.656 E0.0 
G1 X131.415 Y184.889 Z-35.6564 E0.0 
G1 X131.514 Y184.92 Z-35.6569 E0.0 
G1 X131.613 Y184.95 Z-35.6573 E0.0 
G1 X131.713 Y184.98 Z-35.6578 E0.0 
G1 X131.812 Y185.011 Z-35.6582 E0.0 
G1 X131.911 Y185.041 Z-35.6587 E0.0 
G1 X132.01 Y185.071 Z-35.6592 E0.0 
G1 X132.114 Y185.097 Z-35.6595 E0.0 
G1 X132.218 Y185.123 Z-35.6598 E0.0 
G1 X132.322 Y185.148 Z-35.660199999999996 E0.0 
G1 X132.426 Y185.174 Z-35.6605 E0.0 
G1 X132.53 Y185.2 Z-35.6608 E0.0 
G1 X132.634 Y185.226 Z-35.6612 E0.0 
G1 X132.738 Y185.251 Z-35.6615 E0.0 
G1 X132.842 Y185.277 Z-35.6619 E0.0 
G1 X132.946 Y185.303 Z-35.6622 E0.0 
G1 X133.053 Y185.327 Z-35.6625 E0.0 
G1 X133.159 Y185.351 Z-35.6628 E0.0 
G1 X133.266 Y185.375 Z-35.663 E0.0 
G1 X133.373 Y185.398 Z-35.6633 E0.0 
G1 X133.479 Y185.422 Z-35.6636 E0.0 
G1 X133.586 Y185.446 Z-35.6639 E0.0 
G1 X133.687 Y185.467 Z-35.6641 E0.0 
G1 X133.788 Y185.487 Z-35.6643 E0.0 
G1 X133.888 Y185.508 Z-35.6646 E0.0 
G1 X133.989 Y185.529 Z-35.6648 E0.0 
G1 X134.09 Y185.549 Z-35.665 E0.0 
G1 X134.191 Y185.57 Z-35.6652 E0.0 
G1 X134.292 Y185.591 Z-35.6654 E0.0 
G1 X134.392 Y185.611 Z-35.6657 E0.0 
G1 X134.493 Y185.632 Z-35.6659 E0.0 
G1 X134.594 Y185.653 Z-35.6661 E0.0 
G1 X134.695 Y185.673 Z-35.6663 E0.0 
G1 X134.796 Y185.694 Z-35.6665 E0.0 
G1 X134.896 Y185.715 Z-35.6668 E0.0 
G1 X134.997 Y185.736 Z-35.667 E0.0 
G1 X135.098 Y185.756 Z-35.6672 E0.0 
G1 X135.199 Y185.777 Z-35.6674 E0.0 
G1 X135.3 Y185.798 Z-35.6676 E0.0 
G1 X135.4 Y185.818 Z-35.6679 E0.0 
G1 X135.501 Y185.839 Z-35.6681 E0.0 
G1 X135.602 Y185.86 Z-35.6683 E0.0 
G1 X135.703 Y185.88 Z-35.6685 E0.0 
G1 X135.804 Y185.901 Z-35.6687 E0.0 
G1 X135.904 Y185.922 Z-35.669 E0.0 
G1 X136.005 Y185.942 Z-35.6692 E0.0 
G1 X136.106 Y185.963 Z-35.6694 E0.0 
G1 X136.221 Y185.989 Z-35.6697 E0.0 
G1 X136.336 Y186.015 Z-35.67 E0.0 
G1 X136.451 Y186.042 Z-35.6703 E0.0 
G1 X136.566 Y186.068 Z-35.6706 E0.0 
G1 X136.667 Y186.094 Z-35.671 E0.0 
G1 X136.768 Y186.12 Z-35.6713 E0.0 
G1 X136.868 Y186.146 Z-35.6717 E0.0 
G1 X136.969 Y186.171 Z-35.672 E0.0 
G1 X137.07 Y186.197 Z-35.6723 E0.0 
G1 X137.171 Y186.223 Z-35.6727 E0.0 
G1 X137.271 Y186.249 Z-35.673 E0.0 
G1 X137.372 Y186.275 Z-35.6734 E0.0 
G1 X137.478 Y186.31 Z-35.673899999999996 E0.0 
G1 X137.584 Y186.345 Z-35.6744 E0.0 
G1 X137.691 Y186.38 Z-35.675 E0.0 
G1 X137.797 Y186.414 Z-35.6755 E0.0 
G1 X137.903 Y186.449 Z-35.676 E0.0 
G1 X138.009 Y186.484 Z-35.6766 E0.0 
G1 X138.136 Y186.529 Z-35.6773 E0.0 
G1 X138.263 Y186.573 Z-35.678 E0.0 
G1 X138.456 Y186.625 Z-35.6787 E0.0 
G1 X138.584 Y186.634 Z-35.6785 E0.0 
G1 X138.602 Y186.606 Z-35.6778 E0.0 
G1 X138.606 Y186.549 Z-35.6765 E0.0 
G1 X138.597 Y186.465 Z-35.6745 E0.0 
G1 X138.572 Y186.382 Z-35.6727 E0.0 
G1 X138.529 Y186.303 Z-35.6709 E0.0 
G1 X138.469 Y186.225 Z-35.6693 E0.0 
G1 X138.383 Y186.15 Z-35.667699999999996 E0.0 
G1 X138.297 Y186.075 Z-35.666199999999996 E0.0 
G1 X138.176 Y186.003 Z-35.6648 E0.0 
G1 X138.055 Y185.932 Z-35.6635 E0.0 
G1 X137.883 Y185.846 Z-35.6619 E0.0 
G1 X137.773 Y185.815 Z-35.6615 E0.0 
G1 X137.664 Y185.784 Z-35.6611 E0.0 
G1 X137.554 Y185.752 Z-35.6606 E0.0 
G1 X137.445 Y185.721 Z-35.660199999999996 E0.0 
G1 X137.335 Y185.69 Z-35.6597 E0.0 
G1 X137.227 Y185.662 Z-35.6594 E0.0 
G1 X137.119 Y185.634 Z-35.659 E0.0 
G1 X137.01 Y185.606 Z-35.6586 E0.0 
G1 X136.902 Y185.578 Z-35.6582 E0.0 
G1 X136.794 Y185.55 Z-35.6579 E0.0 
G1 X136.688 Y185.526 Z-35.6576 E0.0 
G1 X136.583 Y185.503 Z-35.6573 E0.0 
G1 X136.477 Y185.479 Z-35.657 E0.0 
G1 X136.372 Y185.456 Z-35.6568 E0.0 
G1 X136.266 Y185.432 Z-35.6565 E0.0 
G1 X136.162 Y185.411 Z-35.6563 E0.0 
G1 X136.058 Y185.391 Z-35.6561 E0.0 
G1 X135.954 Y185.37 Z-35.6559 E0.0 
G1 X135.85 Y185.35 Z-35.6556 E0.0 
G1 X135.746 Y185.329 Z-35.6554 E0.0 
G1 X135.645 Y185.313 Z-35.6553 E0.0 
G1 X135.543 Y185.296 Z-35.6552 E0.0 
G1 X135.442 Y185.28 Z-35.6551 E0.0 
G1 X135.341 Y185.264 Z-35.655 E0.0 
G1 X135.24 Y185.248 Z-35.6549 E0.0 
G1 X135.139 Y185.231 Z-35.6547 E0.0 
G1 X135.037 Y185.215 Z-35.6546 E0.0 
G1 X134.936 Y185.199 Z-35.6545 E0.0 
G1 X134.835 Y185.182 Z-35.6544 E0.0 
G1 X134.733 Y185.166 Z-35.6543 E0.0 
G1 X134.632 Y185.15 Z-35.6541 E0.0 
G1 X134.531 Y185.134 Z-35.653999999999996 E0.0 
G1 X134.43 Y185.117 Z-35.6539 E0.0 
G1 X134.329 Y185.101 Z-35.6538 E0.0 
G1 X134.227 Y185.085 Z-35.6537 E0.0 
G1 X134.126 Y185.069 Z-35.6536 E0.0 
G1 X134.025 Y185.052 Z-35.6534 E0.0 
G1 X133.923 Y185.036 Z-35.6533 E0.0 
G1 X133.822 Y185.02 Z-35.6532 E0.0 
G1 X133.721 Y185.003 Z-35.6531 E0.0 
G1 X133.62 Y184.987 Z-35.653 E0.0 
G1 X133.519 Y184.971 Z-35.6528 E0.0 
G1 X133.417 Y184.955 Z-35.6527 E0.0 
G1 X133.316 Y184.938 Z-35.6526 E0.0 
G1 X133.215 Y184.922 Z-35.652499999999996 E0.0 
G1 X133.113 Y184.906 Z-35.6524 E0.0 
G1 X133.012 Y184.889 Z-35.6522 E0.0 
G1 X132.911 Y184.873 Z-35.6521 E0.0 
G1 X132.81 Y184.857 Z-35.652 E0.0 
G1 X132.709 Y184.841 Z-35.6519 E0.0 
G1 X132.607 Y184.824 Z-35.6518 E0.0 
G1 X132.506 Y184.808 Z-35.6516 E0.0 
G1 X132.401 Y184.787 Z-35.6514 E0.0 
G1 X132.296 Y184.767 Z-35.6512 E0.0 
G1 X132.191 Y184.746 Z-35.650999999999996 E0.0 
G1 X132.086 Y184.725 Z-35.6508 E0.0 
G1 X131.981 Y184.704 Z-35.6506 E0.0 
G1 X131.876 Y184.683 Z-35.6503 E0.0 
G1 X131.771 Y184.663 Z-35.6501 E0.0 
G1 X131.666 Y184.642 Z-35.6499 E0.0 
G1 X131.565 Y184.617 Z-35.6496 E0.0 
G1 X131.464 Y184.591 Z-35.6492 E0.0 
G1 X131.362 Y184.566 Z-35.6489 E0.0 
G1 X131.261 Y184.541 Z-35.6486 E0.0 
G1 X131.16 Y184.516 Z-35.6482 E0.0 
G1 X131.059 Y184.49 Z-35.6479 E0.0 
G1 X130.957 Y184.465 Z-35.6475 E0.0 
G1 X130.856 Y184.44 Z-35.6472 E0.0 
G1 X130.755 Y184.414 Z-35.6469 E0.0 
G1 X130.654 Y184.389 Z-35.6465 E0.0 
G1 X130.553 Y184.364 Z-35.6462 E0.0 
G1 X130.451 Y184.339 Z-35.6459 E0.0 
G1 X130.35 Y184.313 Z-35.6455 E0.0 
G1 X130.249 Y184.288 Z-35.6452 E0.0 
G1 X130.197 Y184.29 Z-35.6454 E0.0 
G1 X130.185 Y184.297 Z-35.6456 E0.0 
G1 X130.19 Y184.316 Z-35.646 E0.0 
G1 X130.246 Y184.376 Z-35.6473 E0.0 
G1 X130.398 Y184.48 Z-35.6494 E0.0 
G1 X130.398 Y184.48 Z-34.5494 E0.0 
G1 X130.436 Y184.573 Z-34.5515 E0.0 
G1 X130.475 Y184.666 Z-34.5536 E0.0 
G1 X130.513 Y184.759 Z-34.5557 E0.0 
G1 X130.552 Y184.852 Z-34.5578 E0.0 
G1 X130.59 Y184.945 Z-34.5599 E0.0 
G1 X130.629 Y185.038 Z-34.562 E0.0 
G1 X130.667 Y185.131 Z-34.564099999999996 E0.0 
G1 X130.706 Y185.224 Z-34.5662 E0.0 
G1 X130.744 Y185.317 Z-34.5683 E0.0 
G1 X130.783 Y185.41 Z-34.5704 E0.0 
G1 X130.821 Y185.504 Z-34.5725 E0.0 
G1 X130.86 Y185.597 Z-34.5747 E0.0 
G1 X130.898 Y185.69 Z-34.5768 E0.0 
G1 X130.937 Y185.783 Z-34.5789 E0.0 
G1 X130.975 Y185.876 Z-34.581 E0.0 
G1 X131.014 Y185.969 Z-34.5831 E0.0 
G1 X131.052 Y186.062 Z-34.5852 E0.0 
G1 X131.091 Y186.155 Z-34.5873 E0.0 
G1 X131.129 Y186.248 Z-34.5894 E0.0 
G1 X131.168 Y186.341 Z-34.591499999999996 E0.0 
G1 X131.207 Y186.434 Z-34.5936 E0.0 
G1 X131.245 Y186.527 Z-34.5957 E0.0 
G1 X131.284 Y186.62 Z-34.5978 E0.0 
G1 X131.322 Y186.713 Z-34.5999 E0.0 
G1 X131.361 Y186.806 Z-34.602 E0.0 
G1 X131.399 Y186.899 Z-34.6041 E0.0 
G1 X131.438 Y186.992 Z-34.6062 E0.0 
G1 X131.476 Y187.085 Z-34.6083 E0.0 
G1 X131.514 Y187.178 Z-34.6104 E0.0 
G1 X131.553 Y187.272 Z-34.6125 E0.0 
G1 X131.591 Y187.365 Z-34.6146 E0.0 
G1 X131.63 Y187.458 Z-34.6167 E0.0 
G1 X131.668 Y187.551 Z-34.6188 E0.0 
G1 X131.707 Y187.644 Z-34.6209 E0.0 
G1 X131.745 Y187.737 Z-34.623 E0.0 
G1 X131.784 Y187.83 Z-34.625099999999996 E0.0 
G1 X131.822 Y187.923 Z-34.6272 E0.0 
G1 X131.861 Y188.016 Z-34.6293 E0.0 
G1 X131.899 Y188.109 Z-34.6314 E0.0 
G1 X131.938 Y188.202 Z-34.6335 E0.0 
G1 X131.938 Y188.202 Z-35.7335 E0.0 F180.0 
G1 X131.926 Y188.213 Z-35.7338 E0.0 
G1 X131.936 Y188.271 Z-35.7352 E0.0 
G1 X131.994 Y188.371 Z-35.7374 E0.0 
G1 X132.095 Y188.489 Z-35.7399 E0.0 
G1 X132.236 Y188.604 Z-35.7422 E0.0 
G1 X132.326 Y188.66 Z-35.7433 E0.0 
G1 X132.416 Y188.716 Z-35.7444 E0.0 
G1 X132.525 Y188.771 Z-35.7454 E0.0 
G1 X132.635 Y188.826 Z-35.7464 E0.0 
G1 X132.766 Y188.88 Z-35.7473 E0.0 
G1 X132.896 Y188.935 Z-35.7482 E0.0 
G1 X132.996 Y188.97 Z-35.7488 E0.0 
G1 X133.097 Y189.006 Z-35.7493 E0.0 
G1 X133.197 Y189.041 Z-35.7499 E0.0 
G1 X133.301 Y189.071 Z-35.7503 E0.0 
G1 X133.405 Y189.1 Z-35.7507 E0.0 
G1 X133.509 Y189.13 Z-35.7511 E0.0 
G1 X133.614 Y189.16 Z-35.7515 E0.0 
G1 X133.718 Y189.19 Z-35.7519 E0.0 
G1 X133.822 Y189.219 Z-35.7524 E0.0 
G1 X133.926 Y189.249 Z-35.7528 E0.0 
G1 X134.048 Y189.278 Z-35.753099999999996 E0.0 
G1 X134.17 Y189.306 Z-35.7534 E0.0 
G1 X134.292 Y189.335 Z-35.7538 E0.0 
G1 X134.408 Y189.357 Z-35.754 E0.0 
G1 X134.525 Y189.38 Z-35.7542 E0.0 
G1 X134.641 Y189.402 Z-35.7544 E0.0 
G1 X134.751 Y189.416 Z-35.7544 E0.0 
G1 X134.861 Y189.429 Z-35.7544 E0.0 
G1 X134.971 Y189.443 Z-35.7544 E0.0 
G1 X135.082 Y189.457 Z-35.7545 E0.0 
G1 X135.192 Y189.471 Z-35.7545 E0.0 
G1 X135.302 Y189.484 Z-35.7545 E0.0 
G1 X135.412 Y189.498 Z-35.7545 E0.0 
G1 X135.522 Y189.512 Z-35.7545 E0.0 
G1 X135.626 Y189.523 Z-35.7545 E0.0 
G1 X135.73 Y189.534 Z-35.7544 E0.0 
G1 X135.834 Y189.544 Z-35.7544 E0.0 
G1 X135.938 Y189.555 Z-35.7544 E0.0 
G1 X136.042 Y189.566 Z-35.7543 E0.0 
G1 X136.146 Y189.577 Z-35.7543 E0.0 
G1 X136.25 Y189.587 Z-35.7543 E0.0 
G1 X136.354 Y189.598 Z-35.7542 E0.0 
G1 X136.458 Y189.609 Z-35.7542 E0.0 
G1 X136.561 Y189.617 Z-35.7541 E0.0 
G1 X136.663 Y189.626 Z-35.754 E0.0 
G1 X136.766 Y189.634 Z-35.7539 E0.0 
G1 X136.868 Y189.642 Z-35.7538 E0.0 
G1 X136.971 Y189.65 Z-35.7537 E0.0 
G1 X137.074 Y189.659 Z-35.7536 E0.0 
G1 X137.176 Y189.667 Z-35.7535 E0.0 
G1 X137.279 Y189.675 Z-35.7534 E0.0 
G1 X137.381 Y189.684 Z-35.7533 E0.0 
G1 X137.484 Y189.692 Z-35.7532 E0.0 
G1 X137.56 Y189.645 Z-35.7519 E0.0 
G1 X137.601 Y189.615 Z-35.7511 E0.0 
G1 X137.615 Y189.586 Z-35.7504 E0.0 
G1 X137.556 Y189.462 Z-35.7476 E0.0 
G1 X137.45 Y189.326 Z-35.7448 E0.0 
G1 X137.306 Y189.188 Z-35.7419 E0.0 
G1 X137.221 Y189.118 Z-35.7405 E0.0 
G1 X137.136 Y189.049 Z-35.7391 E0.0 
G1 X137.046 Y189.006 Z-35.7384 E0.0 
G1 X136.955 Y188.962 Z-35.7376 E0.0 
G1 X136.865 Y188.919 Z-35.7368 E0.0 
G1 X136.774 Y188.876 Z-35.7361 E0.0 
G1 X136.684 Y188.832 Z-35.7353 E0.0 
G1 X136.594 Y188.789 Z-35.7345 E0.0 
G1 X136.503 Y188.746 Z-35.7338 E0.0 
G1 X136.413 Y188.703 Z-35.733 E0.0 
G1 X136.323 Y188.659 Z-35.7322 E0.0 
G1 X136.232 Y188.616 Z-35.7315 E0.0 
G1 X136.142 Y188.573 Z-35.7307 E0.0 
G1 X136.051 Y188.529 Z-35.7299 E0.0 
G1 X135.961 Y188.486 Z-35.7291 E0.0 
G1 X135.871 Y188.443 Z-35.7284 E0.0 
G1 X135.78 Y188.399 Z-35.7276 E0.0 
G1 X135.69 Y188.356 Z-35.7268 E0.0 
G1 X135.599 Y188.313 Z-35.7261 E0.0 
G1 X135.509 Y188.269 Z-35.7253 E0.0 
G1 X135.419 Y188.226 Z-35.7245 E0.0 
G1 X135.328 Y188.183 Z-35.7238 E0.0 
G1 X135.238 Y188.14 Z-35.723 E0.0 
G1 X135.148 Y188.096 Z-35.7222 E0.0 
G1 X135.057 Y188.053 Z-35.7214 E0.0 
G1 X134.967 Y188.01 Z-35.7207 E0.0 
G1 X134.876 Y187.966 Z-35.7199 E0.0 
G1 X134.786 Y187.923 Z-35.7191 E0.0 
G1 X134.635 Y187.804 Z-35.7167 E0.0 
G1 X134.487 Y187.713 Z-35.714999999999996 E0.0 
G1 X134.344 Y187.661 Z-35.7141 E0.0 
G1 X134.227 Y187.655 Z-35.7143 E0.0 
G1 X134.223 Y187.684 Z-35.714999999999996 E0.0 
G1 X134.243 Y187.744 Z-35.7164 E0.0 
G1 X134.296 Y187.847 Z-35.7187 E0.0 
G1 X134.35 Y187.95 Z-35.7209 E0.0 
G1 X134.416 Y188.052 Z-35.7232 E0.0 
G1 X134.494 Y188.117 Z-35.7245 E0.0 
G1 X134.572 Y188.182 Z-35.7258 E0.0 
G1 X134.65 Y188.247 Z-35.7271 E0.0 
G1 X134.728 Y188.312 Z-35.7285 E0.0 
G1 X134.806 Y188.377 Z-35.7298 E0.0 
G1 X134.885 Y188.443 Z-35.7311 E0.0 
G1 X134.963 Y188.508 Z-35.7324 E0.0 
G1 X135.041 Y188.573 Z-35.7337 E0.0 
G1 X135.119 Y188.638 Z-35.735 E0.0 
G1 X135.197 Y188.703 Z-35.736399999999996 E0.0 
G1 X135.275 Y188.768 Z-35.7377 E0.0 
G1 X135.343 Y188.871 Z-35.7399 E0.0 
G1 X135.387 Y188.97 Z-35.7421 E0.0 
G1 X135.398 Y189.062 Z-35.7443 E0.0 
G1 X135.384 Y189.111 Z-35.7455 E0.0 
G1 X135.339 Y189.136 Z-35.7462 E0.0 
G1 X135.192 Y189.137 Z-35.7466 E0.0 
G1 X135.046 Y189.139 Z-35.747099999999996 E0.0 
G1 X134.929 Y189.129 Z-35.747099999999996 E0.0 
G1 X134.811 Y189.118 Z-35.7472 E0.0 
G1 X134.694 Y189.108 Z-35.7473 E0.0 
G1 X134.594 Y189.091 Z-35.7472 E0.0 
G1 X134.493 Y189.075 Z-35.747099999999996 E0.0 
G1 X134.393 Y189.059 Z-35.747 E0.0 
G1 X134.292 Y189.042 Z-35.7469 E0.0 
G1 X134.185 Y189.018 Z-35.7466 E0.0 
G1 X134.077 Y188.994 Z-35.7463 E0.0 
G1 X133.97 Y188.97 Z-35.7461 E0.0 
G1 X133.863 Y188.946 Z-35.7458 E0.0 
G1 X133.754 Y188.916 Z-35.7454 E0.0 
G1 X133.645 Y188.887 Z-35.745 E0.0 
G1 X133.536 Y188.857 Z-35.7446 E0.0 
G1 X133.427 Y188.827 Z-35.7442 E0.0 
G1 X133.321 Y188.793 Z-35.7437 E0.0 
G1 X133.216 Y188.759 Z-35.7432 E0.0 
G1 X133.111 Y188.725 Z-35.7427 E0.0 
G1 X133.005 Y188.691 Z-35.7421 E0.0 
G1 X132.909 Y188.654 Z-35.7416 E0.0 
G1 X132.812 Y188.618 Z-35.741 E0.0 
G1 X132.715 Y188.582 Z-35.7404 E0.0 
G1 X132.619 Y188.545 Z-35.7398 E0.0 
G1 X132.51 Y188.495 Z-35.7389 E0.0 
G1 X132.4 Y188.444 Z-35.738 E0.0 
G1 X132.291 Y188.394 Z-35.7371 E0.0 
G1 X132.166 Y188.32 Z-35.7357 E0.0 
G1 X132.041 Y188.246 Z-35.7343 E0.0 
G1 X131.961 Y188.203 Z-35.7335 E0.0 
G1 X131.938 Y188.202 Z-35.7335 E0.0 
G1 X131.938 Y188.202 Z-34.6335 E0.0 
G1 X132.03 Y188.158 Z-34.6322 E0.0 
G1 X132.121 Y188.115 Z-34.6309 E0.0 
G1 X132.213 Y188.071 Z-34.6297 E0.0 
G1 X132.304 Y188.028 Z-34.6284 E0.0 
G1 X132.396 Y187.984 Z-34.6271 E0.0 
G1 X132.487 Y187.94 Z-34.6258 E0.0 
G1 X132.579 Y187.897 Z-34.6245 E0.0 
G1 X132.67 Y187.853 Z-34.6233 E0.0 
G1 X132.762 Y187.81 Z-34.622 E0.0 
G1 X132.854 Y187.766 Z-34.6207 E0.0 
G1 X132.945 Y187.722 Z-34.6194 E0.0 
G1 X133.037 Y187.679 Z-34.6181 E0.0 
G1 X133.128 Y187.635 Z-34.6168 E0.0 
G1 X133.22 Y187.592 Z-34.6156 E0.0 
G1 X133.311 Y187.548 Z-34.6143 E0.0 
G1 X133.403 Y187.504 Z-34.613 E0.0 
G1 X133.494 Y187.461 Z-34.6117 E0.0 
G1 X133.586 Y187.417 Z-34.6104 E0.0 
G1 X133.678 Y187.374 Z-34.6092 E0.0 
G1 X133.769 Y187.33 Z-34.6079 E0.0 
G1 X133.861 Y187.286 Z-34.6066 E0.0 
G1 X133.952 Y187.243 Z-34.6053 E0.0 
G1 X134.044 Y187.199 Z-34.6041 E0.0 
G1 X134.135 Y187.156 Z-34.6028 E0.0 
G1 X134.227 Y187.112 Z-34.6015 E0.0 
G1 X134.318 Y187.068 Z-34.6002 E0.0 
G1 X134.41 Y187.025 Z-34.599 E0.0 
G1 X134.502 Y186.981 Z-34.597699999999996 E0.0 
G1 X134.593 Y186.938 Z-34.5964 E0.0 
G1 X134.685 Y186.894 Z-34.5951 E0.0 
G1 X134.776 Y186.85 Z-34.5939 E0.0 
G1 X134.868 Y186.807 Z-34.5926 E0.0 
G1 X134.959 Y186.763 Z-34.5913 E0.0 
G1 X135.051 Y186.719 Z-34.589999999999996 E0.0 
G1 X135.142 Y186.676 Z-34.5888 E0.0 
G1 X135.234 Y186.632 Z-34.5875 E0.0 
G1 X135.326 Y186.589 Z-34.5862 E0.0 
G1 X135.417 Y186.545 Z-34.5849 E0.0 
G1 X135.509 Y186.501 Z-34.5837 E0.0 
G1 X135.6 Y186.458 Z-34.5824 E0.0 
G1 X135.692 Y186.414 Z-34.5811 E0.0 
G1 X135.783 Y186.371 Z-34.5799 E0.0 
G1 X135.875 Y186.327 Z-34.5786 E0.0 
G1 X135.966 Y186.283 Z-34.5773 E0.0 
G1 X136.058 Y186.24 Z-34.576 E0.0 
G1 X136.15 Y186.196 Z-34.574799999999996 E0.0 
G1 X136.241 Y186.153 Z-34.5735 E0.0 
G1 X136.333 Y186.109 Z-34.5722 E0.0 
G1 X136.424 Y186.065 Z-34.571 E0.0 
G1 X136.516 Y186.022 Z-34.5697 E0.0 
G1 X136.607 Y185.978 Z-34.5684 E0.0 
G1 X136.699 Y185.935 Z-34.5672 E0.0 
G1 X136.79 Y185.891 Z-34.5659 E0.0 
G1 X136.882 Y185.847 Z-34.5646 E0.0 
G1 X136.974 Y185.804 Z-34.5634 E0.0 
G1 X137.065 Y185.76 Z-34.5621 E0.0 
G1 X137.157 Y185.717 Z-34.5608 E0.0 
G1 X137.248 Y185.673 Z-34.559599999999996 E0.0 
G1 X137.34 Y185.629 Z-34.5583 E0.0 
G1 X137.431 Y185.586 Z-34.557 E0.0 
G1 X137.523 Y185.542 Z-34.5558 E0.0 
G1 X137.614 Y185.499 Z-34.5545 E0.0 
G1 X137.706 Y185.455 Z-34.5532 E0.0 
G1 X137.706 Y185.455 Z-35.6532 E0.0 F180.0 
G1 X137.809 Y185.505 Z-35.6541 E0.0 
G1 X137.911 Y185.555 Z-35.655 E0.0 
G1 X138.014 Y185.605 Z-35.6559 E0.0 
G1 X138.117 Y185.655 Z-35.6568 E0.0 
G1 X138.22 Y185.705 Z-35.6577 E0.0 
G1 X138.322 Y185.755 Z-35.6586 E0.0 
G1 X138.425 Y185.805 Z-35.6595 E0.0 
G1 X138.524 Y185.842 Z-35.6601 E0.0 
G1 X138.622 Y185.878 Z-35.6607 E0.0 
G1 X138.721 Y185.915 Z-35.6613 E0.0 
G1 X138.819 Y185.952 Z-35.6619 E0.0 
G1 X138.918 Y185.988 Z-35.6625 E0.0 
G1 X139.016 Y186.025 Z-35.6631 E0.0 
G1 X139.115 Y186.062 Z-35.6637 E0.0 
G1 X139.213 Y186.099 Z-35.6643 E0.0 
G1 X139.312 Y186.135 Z-35.6649 E0.0 
G1 X139.41 Y186.172 Z-35.6655 E0.0 
G1 X139.509 Y186.209 Z-35.6661 E0.0 
G1 X139.607 Y186.245 Z-35.6667 E0.0 
G1 X139.706 Y186.282 Z-35.6673 E0.0 
G1 X139.802 Y186.315 Z-35.6678 E0.0 
G1 X139.898 Y186.347 Z-35.6683 E0.0 
G1 X139.994 Y186.38 Z-35.6688 E0.0 
G1 X140.09 Y186.412 Z-35.6693 E0.0 
G1 X140.186 Y186.445 Z-35.6698 E0.0 
G1 X140.281 Y186.477 Z-35.6703 E0.0 
G1 X140.377 Y186.51 Z-35.6708 E0.0 
G1 X140.473 Y186.542 Z-35.6713 E0.0 
G1 X140.569 Y186.575 Z-35.6718 E0.0 
G1 X140.665 Y186.607 Z-35.6723 E0.0 
G1 X140.761 Y186.64 Z-35.6728 E0.0 
G1 X140.857 Y186.673 Z-35.6733 E0.0 
G1 X140.953 Y186.705 Z-35.6738 E0.0 
G1 X141.049 Y186.738 Z-35.6743 E0.0 
G1 X141.144 Y186.77 Z-35.6748 E0.0 
G1 X141.24 Y186.803 Z-35.6753 E0.0 
G1 X141.336 Y186.835 Z-35.6758 E0.0 
G1 X141.432 Y186.868 Z-35.6763 E0.0 
G1 X141.528 Y186.9 Z-35.6768 E0.0 
G1 X141.624 Y186.933 Z-35.6773 E0.0 
G1 X141.744 Y186.99 Z-35.6783 E0.0 
G1 X141.865 Y187.047 Z-35.6793 E0.0 
G1 X141.985 Y187.104 Z-35.6803 E0.0 
G1 X142.097 Y187.165 Z-35.6815 E0.0 
G1 X142.21 Y187.226 Z-35.6826 E0.0 
G1 X142.322 Y187.287 Z-35.6837 E0.0 
G1 X142.403 Y187.35 Z-35.6849 E0.0 
G1 X142.485 Y187.412 Z-35.6862 E0.0 
G1 X142.566 Y187.475 Z-35.6874 E0.0 
G1 X142.653 Y187.568 Z-35.6893 E0.0 
G1 X142.715 Y187.662 Z-35.6914 E0.0 
G1 X142.753 Y187.755 Z-35.6934 E0.0 
G1 X142.766 Y187.846 Z-35.6955 E0.0 
G1 X142.77 Y187.888 Z-35.6965 E0.0 
G1 X142.789 Y187.909 Z-35.6969 E0.0 
G1 X142.896 Y187.904 Z-35.6965 E0.0 
G1 X143.011 Y187.875 Z-35.6955 E0.0 
G1 X143.125 Y187.847 Z-35.6945 E0.0 
G1 X143.252 Y187.804 Z-35.6932 E0.0 
G1 X143.38 Y187.761 Z-35.6918 E0.0 
G1 X143.495 Y187.713 Z-35.6904 E0.0 
G1 X143.61 Y187.665 Z-35.689 E0.0 
G1 X143.766 Y187.578 Z-35.6865 E0.0 
G1 X143.885 Y187.481 Z-35.684 E0.0 
G1 X143.958 Y187.399 Z-35.6819 E0.0 
G1 X143.994 Y187.318 Z-35.679899999999996 E0.0 
G1 X144.004 Y187.219 Z-35.6776 E0.0 
G1 X143.987 Y187.12 Z-35.6753 E0.0 
G1 X143.936 Y187.019 Z-35.6731 E0.0 
G1 X143.851 Y186.918 Z-35.671 E0.0 
G1 X143.735 Y186.816 Z-35.6689 E0.0 
G1 X143.589 Y186.716 Z-35.667 E0.0 
G1 X143.501 Y186.668 Z-35.6661 E0.0 
G1 X143.414 Y186.619 Z-35.6652 E0.0 
G1 X143.307 Y186.574 Z-35.6645 E0.0 
G1 X143.2 Y186.529 Z-35.6637 E0.0 
G1 X143.093 Y186.483 Z-35.6629 E0.0 
G1 X142.986 Y186.438 Z-35.6622 E0.0 
G1 X142.846 Y186.388 Z-35.6614 E0.0 
G1 X142.706 Y186.338 Z-35.6606 E0.0 
G1 X142.603 Y186.317 Z-35.6604 E0.0 
G1 X142.499 Y186.296 Z-35.6601 E0.0 
G1 X142.396 Y186.274 Z-35.6599 E0.0 
G1 X142.293 Y186.253 Z-35.6597 E0.0 
G1 X142.189 Y186.232 Z-35.6595 E0.0 
G1 X142.086 Y186.211 Z-35.6593 E0.0 
G1 X141.983 Y186.19 Z-35.6591 E0.0 
G1 X141.879 Y186.169 Z-35.6588 E0.0 
G1 X141.776 Y186.148 Z-35.6586 E0.0 
G1 X141.673 Y186.126 Z-35.6584 E0.0 
G1 X141.569 Y186.105 Z-35.6582 E0.0 
G1 X141.466 Y186.084 Z-35.658 E0.0 
G1 X141.362 Y186.066 Z-35.6578 E0.0 
G1 X141.258 Y186.049 Z-35.6577 E0.0 
G1 X141.154 Y186.031 Z-35.6576 E0.0 
G1 X141.05 Y186.014 Z-35.6574 E0.0 
G1 X140.946 Y185.996 Z-35.6573 E0.0 
G1 X140.842 Y185.978 Z-35.6572 E0.0 
G1 X140.738 Y185.961 Z-35.657 E0.0 
G1 X140.634 Y185.943 Z-35.6569 E0.0 
G1 X140.53 Y185.926 Z-35.6568 E0.0 
G1 X140.426 Y185.908 Z-35.6566 E0.0 
G1 X140.324 Y185.89 Z-35.6565 E0.0 
G1 X140.222 Y185.873 Z-35.6563 E0.0 
G1 X140.12 Y185.855 Z-35.6562 E0.0 
G1 X140.018 Y185.837 Z-35.6561 E0.0 
G1 X139.916 Y185.82 Z-35.6559 E0.0 
G1 X139.814 Y185.802 Z-35.6558 E0.0 
G1 X139.712 Y185.784 Z-35.6556 E0.0 
G1 X139.61 Y185.767 Z-35.655499999999996 E0.0 
G1 X139.508 Y185.749 Z-35.6554 E0.0 
G1 X139.406 Y185.731 Z-35.6552 E0.0 
G1 X139.304 Y185.714 Z-35.6551 E0.0 
G1 X139.202 Y185.696 Z-35.6549 E0.0 
G1 X139.1 Y185.678 Z-35.6548 E0.0 
G1 X138.998 Y185.661 Z-35.6546 E0.0 
G1 X138.896 Y185.643 Z-35.6545 E0.0 
G1 X138.794 Y185.625 Z-35.6543 E0.0 
G1 X138.692 Y185.608 Z-35.6542 E0.0 
G1 X138.59 Y185.59 Z-35.6541 E0.0 
G1 X138.491 Y185.572 Z-35.6539 E0.0 
G1 X138.391 Y185.555 Z-35.6538 E0.0 
G1 X138.292 Y185.537 Z-35.6536 E0.0 
G1 X138.192 Y185.519 Z-35.6535 E0.0 
G1 X138.093 Y185.502 Z-35.6533 E0.0 
G1 X137.994 Y185.484 Z-35.6532 E0.0 
G1 X137.894 Y185.467 Z-35.653 E0.0 
G1 X137.795 Y185.449 Z-35.6529 E0.0 
G1 X137.706 Y185.455 Z-35.6532 E0.0 
G1 X137.706 Y185.455 Z-34.5532 E0.0 
G1 X137.704 Y185.556 Z-34.5556 E0.0 
G1 X137.702 Y185.657 Z-34.558 E0.0 
G1 X137.7 Y185.758 Z-34.5604 E0.0 
G1 X137.698 Y185.86 Z-34.5627 E0.0 
G1 X137.696 Y185.961 Z-34.5651 E0.0 
G1 X137.694 Y186.062 Z-34.5675 E0.0 
G1 X137.692 Y186.163 Z-34.5699 E0.0 
G1 X137.69 Y186.264 Z-34.5723 E0.0 
G1 X137.688 Y186.365 Z-34.5746 E0.0 
G1 X137.686 Y186.467 Z-34.577 E0.0 
G1 X137.684 Y186.568 Z-34.5794 E0.0 
G1 X137.682 Y186.669 Z-34.5818 E0.0 
G1 X137.68 Y186.77 Z-34.5842 E0.0 
G1 X137.678 Y186.871 Z-34.5865 E0.0 
G1 X137.676 Y186.972 Z-34.5889 E0.0 
G1 X137.674 Y187.074 Z-34.5913 E0.0 
G1 X137.672 Y187.175 Z-34.5937 E0.0 
G1 X137.67 Y187.276 Z-34.596 E0.0 
G1 X137.668 Y187.377 Z-34.5984 E0.0 
G1 X137.666 Y187.478 Z-34.6008 E0.0 
G1 X137.664 Y187.579 Z-34.6032 E0.0 
G1 X137.662 Y187.681 Z-34.6056 E0.0 
G1 X137.66 Y187.782 Z-34.6079 E0.0 
G1 X137.658 Y187.883 Z-34.6103 E0.0 
G1 X137.656 Y187.984 Z-34.6127 E0.0 
G1 X137.654 Y188.085 Z-34.6151 E0.0 
G1 X137.652 Y188.186 Z-34.6175 E0.0 
G1 X137.65 Y188.288 Z-34.6198 E0.0 
G1 X137.648 Y188.389 Z-34.6222 E0.0 
G1 X137.646 Y188.49 Z-34.6246 E0.0 
G1 X137.646 Y188.49 Z-35.7246 E0.0 F180.0 
G1 X137.566 Y188.49 Z-35.7248 E0.0 
G1 X137.566 Y188.53 Z-35.7258 E0.0 
G1 X137.646 Y188.53 Z-35.7255 E0.0 
G1 X137.646 Y188.49 Z-35.7246 E0.0 
G1 X137.646 Y188.49 Z-34.6246 E0.0 
G1 X137.666 Y188.532 Z-34.6255 E0.0 
G1 X137.666 Y188.532 Z-35.7255 E0.0 F180.0 
G1 X137.77 Y188.572 Z-35.7262 E0.0 
G1 X137.874 Y188.611 Z-35.7268 E0.0 
G1 X137.978 Y188.651 Z-35.7275 E0.0 
G1 X138.082 Y188.691 Z-35.7281 E0.0 
G1 X138.189 Y188.736 Z-35.7289 E0.0 
G1 X138.295 Y188.78 Z-35.7296 E0.0 
G1 X138.402 Y188.825 Z-35.7304 E0.0 
G1 X138.508 Y188.869 Z-35.7311 E0.0 
G1 X138.615 Y188.914 Z-35.7319 E0.0 
G1 X138.704 Y188.96 Z-35.7327 E0.0 
G1 X138.794 Y189.006 Z-35.7335 E0.0 
G1 X138.883 Y189.052 Z-35.7343 E0.0 
G1 X138.973 Y189.098 Z-35.7352 E0.0 
G1 X139.062 Y189.144 Z-35.736 E0.0 
G1 X139.147 Y189.2 Z-35.7371 E0.0 
G1 X139.232 Y189.255 Z-35.7381 E0.0 
G1 X139.316 Y189.31 Z-35.7392 E0.0 
G1 X139.401 Y189.366 Z-35.7402 E0.0 
G1 X139.524 Y189.471 Z-35.742399999999996 E0.0 
G1 X139.612 Y189.57 Z-35.7444 E0.0 
G1 X139.688 Y189.703 Z-35.7473 E0.0 
G1 X139.712 Y189.829 Z-35.7502 E0.0 
G1 X139.682 Y189.96 Z-35.7533 E0.0 
G1 X139.598 Y190.111 Z-35.7571 E0.0 
G1 X139.516 Y190.226 Z-35.76 E0.0 
G1 X139.45 Y190.284 Z-35.7616 E0.0 
G1 X139.364 Y190.303 Z-35.762299999999996 E0.0 
G1 X139.224 Y190.301 Z-35.7626 E0.0 
G1 X139.104 Y190.297 Z-35.7629 E0.0 
G1 X138.984 Y190.293 Z-35.7631 E0.0 
