;START

;%

;(VECTRIC POST REVISION)

;(2913AB479EA3000D32B9C42F7F010597)

;O0001

;G17 G90 G21 G40 G80

;G08 P1

;T0

;(TOOL#1)

;T1

;M11

;G0 G43 Z20.000 H1

G1 F500.0 


G1 X128.881 Y246.475 Z-27.533499999999997 E0.0 
G1 F90.0 
G1 X128.881 Y246.475 Z-39.6835 E0.0 F90.0 
G1 X129.018 Y246.365 Z-39.6817 E0.0 F120.0 
G1 X129.178 Y246.288 Z-39.679700000000004 E0.0 
G1 X129.355 Y246.251 Z-39.677800000000005 E0.0 
G1 X129.548 Y246.26 Z-39.6761 E0.0 
G1 X129.652 Y246.288 Z-39.675200000000004 E0.0 
G1 X129.755 Y246.329 Z-39.6745 E0.0 
G1 X129.857 Y246.397 Z-39.6739 E0.0 
G1 X129.962 Y246.489 Z-39.6734 E0.0 
G1 X130.071 Y246.634 Z-39.6732 E0.0 
G1 X130.136 Y246.791 Z-39.6734 E0.0 
G1 X130.162 Y246.959 Z-39.6734 E0.0 
G1 X130.149 Y247.129 Z-39.6745 E0.0 
G1 X130.098 Y247.293 Z-39.6759 E0.0 
G1 X130.012 Y247.444 Z-39.6774 E0.0 
G1 X129.891 Y247.573 Z-39.6791 E0.0 
G1 X129.74 Y247.672 Z-39.680800000000005 E0.0 
G1 X129.597 Y247.715 Z-39.6822 E0.0 
G1 X129.41 Y247.731 Z-39.6839 E0.0 
G1 X129.225 Y247.715 Z-39.685500000000005 E0.0 
G1 X129.088 Y247.672 Z-39.6867 E0.0 
G1 X128.943 Y247.576 Z-39.6877 E0.0 
G1 X128.825 Y247.453 Z-39.6884 E0.0 
G1 X128.738 Y247.306 Z-39.6888 E0.0 
G1 X128.685 Y247.138 Z-39.688700000000004 E0.0 
G1 X128.67 Y246.949 Z-39.6877 E0.0 
G1 X128.702 Y246.774 Z-39.6866 E0.0 
G1 X128.774 Y246.614 Z-39.6852 E0.0 
G1 X128.881 Y246.475 Z-39.6835 E0.0 
G1 X128.881 Y246.475 Z-38.5335 E0.0 
G1 X128.801 Y246.382 Z-38.5341 E0.0 
G1 X128.721 Y246.29 Z-38.5346 E0.0 
G1 X128.641 Y246.198 Z-38.535199999999996 E0.0 
G1 X128.561 Y246.105 Z-38.5359 E0.0 
G1 X128.561 Y246.105 Z-39.685900000000004 E0.0 F90.0 
G1 X128.431 Y246.253 Z-39.6879 E0.0 F120.0 
G1 X128.327 Y246.421 Z-39.6898 E0.0 
G1 X128.29 Y246.514 Z-39.6906 E0.0 
G1 X128.252 Y246.607 Z-39.6914 E0.0 
G1 X128.23 Y246.707 Z-39.692 E0.0 
G1 X128.207 Y246.806 Z-39.6926 E0.0 
G1 X128.2 Y246.911 Z-39.6931 E0.0 
G1 X128.193 Y247.017 Z-39.694 E0.0 
G1 X128.204 Y247.145 Z-39.6944 E0.0 
G1 X128.214 Y247.273 Z-39.694700000000005 E0.0 
G1 X128.255 Y247.389 Z-39.6945 E0.0 
G1 X128.297 Y247.505 Z-39.6944 E0.0 
G1 X128.351 Y247.6 Z-39.6941 E0.0 
G1 X128.405 Y247.695 Z-39.6938 E0.0 
G1 X128.475 Y247.78 Z-39.693400000000004 E0.0 
G1 X128.545 Y247.865 Z-39.6929 E0.0 
G1 X128.628 Y247.937 Z-39.6923 E0.0 
G1 X128.711 Y248.009 Z-39.6916 E0.0 
G1 X128.802 Y248.063 Z-39.6909 E0.0 
G1 X128.893 Y248.117 Z-39.690200000000004 E0.0 
G1 X129.008 Y248.165 Z-39.6893 E0.0 
G1 X129.124 Y248.194 Z-39.6883 E0.0 
G1 X129.224 Y248.199 Z-39.687400000000004 E0.0 
G1 X129.325 Y248.203 Z-39.6865 E0.0 
G1 X129.425 Y248.208 Z-39.685700000000004 E0.0 
G1 X129.529 Y248.203 Z-39.6848 E0.0 
G1 X129.633 Y248.198 Z-39.6839 E0.0 
G1 X129.737 Y248.193 Z-39.683 E0.0 
G1 X129.846 Y248.151 Z-39.6819 E0.0 
G1 X129.956 Y248.108 Z-39.6809 E0.0 
G1 X130.049 Y248.047 Z-39.6799 E0.0 
G1 X130.143 Y247.986 Z-39.6789 E0.0 
G1 X130.228 Y247.909 Z-39.6779 E0.0 
G1 X130.312 Y247.831 Z-39.6769 E0.0 
G1 X130.382 Y247.744 Z-39.6759 E0.0 
G1 X130.453 Y247.656 Z-39.6749 E0.0 
G1 X130.504 Y247.564 Z-39.6717 E0.0 
G1 X130.554 Y247.472 Z-39.6711 E0.0 
G1 X130.585 Y247.363 Z-39.6706 E0.0 
G1 X130.617 Y247.253 Z-39.6701 E0.0 
G1 X130.625 Y247.12 Z-39.6695 E0.0 
G1 X130.632 Y246.986 Z-39.669000000000004 E0.0 
G1 X130.625 Y246.848 Z-39.6681 E0.0 
G1 X130.617 Y246.709 Z-39.6676 E0.0 
G1 X130.577 Y246.596 Z-39.6674 E0.0 
G1 X130.536 Y246.482 Z-39.667100000000005 E0.0 
G1 X130.456 Y246.336 Z-39.668800000000005 E0.0 
G1 X130.36 Y246.206 Z-39.669000000000004 E0.0 
G1 X130.247 Y246.089 Z-39.6694 E0.0 
G1 X130.12 Y245.989 Z-39.67 E0.0 
G1 X129.981 Y245.905 Z-39.6709 E0.0 
G1 X129.832 Y245.84 Z-39.6719 E0.0 
G1 X129.674 Y245.793 Z-39.6732 E0.0 
G1 X129.506 Y245.766 Z-39.6746 E0.0 
G1 X129.404 Y245.767 Z-39.6756 E0.0 
G1 X129.303 Y245.767 Z-39.6766 E0.0 
G1 X129.196 Y245.788 Z-39.677800000000005 E0.0 
G1 X129.089 Y245.809 Z-39.679 E0.0 
G1 X128.991 Y245.844 Z-39.6801 E0.0 
G1 X128.893 Y245.88 Z-39.6813 E0.0 
G1 X128.805 Y245.93 Z-39.682500000000005 E0.0 
G1 X128.716 Y245.98 Z-39.6836 E0.0 
G1 X128.561 Y246.105 Z-39.685900000000004 E0.0 
G1 X128.561 Y246.105 Z-38.5359 E0.0 
G1 X128.652 Y246.148 Z-38.5349 E0.0 
G1 X128.744 Y246.192 Z-38.534 E0.0 
G1 X128.835 Y246.235 Z-38.5331 E0.0 
G1 X128.927 Y246.278 Z-38.5323 E0.0 
G1 X129.018 Y246.322 Z-38.5315 E0.0 
G1 X129.11 Y246.365 Z-38.5307 E0.0 
G1 X129.201 Y246.408 Z-38.53 E0.0 
G1 X129.293 Y246.452 Z-38.5292 E0.0 
G1 X129.384 Y246.495 Z-38.5285 E0.0 
G1 X129.476 Y246.538 Z-38.5279 E0.0 
G1 X129.567 Y246.582 Z-38.5272 E0.0 
G1 X129.659 Y246.625 Z-38.5266 E0.0 
G1 X129.75 Y246.668 Z-38.525999999999996 E0.0 
G1 X129.842 Y246.712 Z-38.5254 E0.0 
G1 X129.933 Y246.755 Z-38.5248 E0.0 
G1 X130.025 Y246.798 Z-38.5243 E0.0 
G1 X130.116 Y246.842 Z-38.5237 E0.0 
G1 X130.208 Y246.885 Z-38.5232 E0.0 
G1 X130.299 Y246.928 Z-38.5227 E0.0 
G1 X130.391 Y246.972 Z-38.5215 E0.0 
G1 X130.482 Y247.015 Z-38.52 E0.0 
G1 X130.574 Y247.058 Z-38.5196 E0.0 
G1 X130.665 Y247.102 Z-38.5192 E0.0 
G1 X130.757 Y247.145 Z-38.5188 E0.0 
G1 X130.848 Y247.188 Z-38.5184 E0.0 
G1 X130.94 Y247.232 Z-38.518 E0.0 
G1 X131.031 Y247.275 Z-38.5176 E0.0 
G1 X131.123 Y247.318 Z-38.5173 E0.0 
G1 X131.214 Y247.362 Z-38.5169 E0.0 
G1 X131.306 Y247.405 Z-38.5165 E0.0 
G1 X131.397 Y247.448 Z-38.5161 E0.0 
G1 X131.489 Y247.492 Z-38.5157 E0.0 
G1 X131.58 Y247.535 Z-38.5152 E0.0 
G1 X131.672 Y247.578 Z-38.5148 E0.0 
G1 X131.763 Y247.622 Z-38.5143 E0.0 
G1 X131.855 Y247.665 Z-38.513799999999996 E0.0 
G1 X131.946 Y247.709 Z-38.5133 E0.0 
G1 X132.037 Y247.752 Z-38.5128 E0.0 
G1 X132.129 Y247.795 Z-38.512299999999996 E0.0 
G1 X132.22 Y247.839 Z-38.5117 E0.0 
G1 X132.312 Y247.882 Z-38.5111 E0.0 
G1 X132.403 Y247.925 Z-38.5105 E0.0 
G1 X132.495 Y247.969 Z-38.5099 E0.0 
G1 X132.586 Y248.012 Z-38.5092 E0.0 
G1 X132.678 Y248.055 Z-38.5085 E0.0 
G1 X132.769 Y248.099 Z-38.5078 E0.0 
G1 X132.861 Y248.142 Z-38.5071 E0.0 
G1 X132.952 Y248.185 Z-38.5064 E0.0 
G1 X133.044 Y248.229 Z-38.5056 E0.0 
G1 X133.135 Y248.272 Z-38.5048 E0.0 
G1 X133.227 Y248.315 Z-38.504 E0.0 
G1 X133.318 Y248.359 Z-38.5032 E0.0 
G1 X133.41 Y248.402 Z-38.5024 E0.0 
G1 X133.501 Y248.445 Z-38.5015 E0.0 
G1 X133.593 Y248.489 Z-38.5007 E0.0 
G1 X133.684 Y248.532 Z-38.4998 E0.0 
G1 X133.776 Y248.575 Z-38.4989 E0.0 
G1 X133.867 Y248.619 Z-38.498 E0.0 
G1 X133.959 Y248.662 Z-38.497099999999996 E0.0 
G1 X134.05 Y248.705 Z-38.4961 E0.0 
G1 X134.142 Y248.749 Z-38.4952 E0.0 
G1 X134.233 Y248.792 Z-38.4942 E0.0 
G1 X134.325 Y248.835 Z-38.4933 E0.0 
G1 X134.416 Y248.879 Z-38.4923 E0.0 
G1 X134.508 Y248.922 Z-38.4914 E0.0 
G1 X134.599 Y248.965 Z-38.4904 E0.0 
G1 X134.691 Y249.009 Z-38.4895 E0.0 
G1 X134.782 Y249.052 Z-38.4877 E0.0 
G1 X134.874 Y249.095 Z-38.4867 E0.0 
G1 X134.965 Y249.139 Z-38.4857 E0.0 
G1 X135.057 Y249.182 Z-38.4847 E0.0 
G1 X135.148 Y249.225 Z-38.4837 E0.0 
G1 X135.24 Y249.269 Z-38.4828 E0.0 
G1 X135.331 Y249.312 Z-38.4819 E0.0 
G1 X135.331 Y249.312 Z-39.6319 E0.0 F90.0 
G1 X135.348 Y249.289 Z-39.6316 E0.0 F120.0 
G1 X135.377 Y249.269 Z-39.6313 E0.0 
G1 X135.399 Y249.265 Z-39.631 E0.0 
G1 X135.42 Y249.269 Z-39.6308 E0.0 
G1 X135.448 Y249.288 Z-39.6306 E0.0 
G1 X135.467 Y249.316 Z-39.6304 E0.0 
G1 X135.469 Y249.321 Z-39.6304 E0.0 
G1 X135.466 Y249.331 Z-39.630500000000005 E0.0 
G1 X135.445 Y249.365 Z-39.6308 E0.0 
G1 X135.416 Y249.388 Z-39.6311 E0.0 
G1 X135.399 Y249.392 Z-39.6313 E0.0 
G1 X135.381 Y249.388 Z-39.6315 E0.0 
G1 X135.351 Y249.364 Z-39.6318 E0.0 
G1 X135.332 Y249.334 Z-39.6319 E0.0 
G1 X135.329 Y249.321 Z-39.6319 E0.0 
G1 X135.331 Y249.312 Z-39.6319 E0.0 
G1 X135.331 Y249.312 Z-38.4819 E0.0 
G1 X135.261 Y249.383 Z-38.4828 E0.0 
G1 X135.19 Y249.455 Z-38.4837 E0.0 
G1 X135.12 Y249.526 Z-38.4845 E0.0 
G1 X135.05 Y249.598 Z-38.4854 E0.0 
G1 X134.979 Y249.669 Z-38.4862 E0.0 
G1 X134.909 Y249.741 Z-38.4871 E0.0 
G1 X134.838 Y249.812 Z-38.487899999999996 E0.0 
G1 X134.768 Y249.884 Z-38.4886 E0.0 
G1 X134.698 Y249.955 Z-38.4916 E0.0 
G1 X134.627 Y250.027 Z-38.4926 E0.0 
G1 X134.557 Y250.098 Z-38.4935 E0.0 
G1 X134.487 Y250.17 Z-38.4945 E0.0 
G1 X134.416 Y250.241 Z-38.4954 E0.0 
G1 X134.346 Y250.313 Z-38.4964 E0.0 
G1 X134.275 Y250.384 Z-38.4973 E0.0 
G1 X134.205 Y250.455 Z-38.4982 E0.0 
G1 X134.135 Y250.527 Z-38.4991 E0.0 
G1 X134.064 Y250.598 Z-38.5 E0.0 
G1 X133.994 Y250.67 Z-38.5009 E0.0 
G1 X133.924 Y250.741 Z-38.5018 E0.0 
G1 X133.853 Y250.813 Z-38.5027 E0.0 
G1 X133.783 Y250.884 Z-38.5035 E0.0 
G1 X133.713 Y250.956 Z-38.5049 E0.0 
G1 X133.642 Y251.027 Z-38.5057 E0.0 
G1 X133.572 Y251.099 Z-38.5065 E0.0 
G1 X133.501 Y251.17 Z-38.5072 E0.0 
G1 X133.431 Y251.242 Z-38.508 E0.0 
G1 X133.361 Y251.313 Z-38.5088 E0.0 
G1 X133.29 Y251.385 Z-38.5096 E0.0 
G1 X133.22 Y251.456 Z-38.5103 E0.0 
G1 X133.15 Y251.527 Z-38.5111 E0.0 
G1 X133.079 Y251.599 Z-38.5118 E0.0 
G1 X133.009 Y251.67 Z-38.5126 E0.0 
G1 X132.939 Y251.742 Z-38.5134 E0.0 
G1 X132.868 Y251.813 Z-38.5141 E0.0 
G1 X132.798 Y251.885 Z-38.5149 E0.0 
G1 X132.727 Y251.956 Z-38.5157 E0.0 
G1 X132.657 Y252.028 Z-38.5164 E0.0 
G1 X132.587 Y252.099 Z-38.5172 E0.0 
G1 X132.516 Y252.171 Z-38.518 E0.0 
G1 X132.446 Y252.242 Z-38.5188 E0.0 
G1 X132.376 Y252.314 Z-38.5196 E0.0 
G1 X132.305 Y252.385 Z-38.5204 E0.0 
G1 X132.235 Y252.457 Z-38.5212 E0.0 
G1 X132.165 Y252.528 Z-38.522 E0.0 
G1 X132.094 Y252.599 Z-38.5228 E0.0 
G1 X132.024 Y252.671 Z-38.5236 E0.0 
G1 X131.953 Y252.742 Z-38.5244 E0.0 
G1 X131.883 Y252.814 Z-38.5252 E0.0 
G1 X131.813 Y252.885 Z-38.525999999999996 E0.0 
G1 X131.742 Y252.957 Z-38.5268 E0.0 
G1 X131.672 Y253.028 Z-38.5277 E0.0 
G1 X131.602 Y253.1 Z-38.5285 E0.0 
G1 X131.531 Y253.171 Z-38.5293 E0.0 
G1 X131.461 Y253.243 Z-38.5302 E0.0 
G1 X131.39 Y253.314 Z-38.531 E0.0 
G1 X131.32 Y253.386 Z-38.5318 E0.0 
G1 X131.25 Y253.457 Z-38.5326 E0.0 
G1 X131.179 Y253.529 Z-38.5334 E0.0 
G1 X131.109 Y253.6 Z-38.5343 E0.0 
G1 X131.109 Y253.6 Z-39.6843 E0.0 F90.0 
G1 X131.133 Y253.624 Z-39.6841 E0.0 F120.0 
G1 X131.154 Y253.66 Z-39.684000000000005 E0.0 
G1 X131.157 Y253.674 Z-39.684000000000005 E0.0 
G1 X131.157 Y253.68 Z-39.6841 E0.0 
G1 X131.127 Y253.736 Z-39.6845 E0.0 
G1 X131.116 Y253.746 Z-39.6846 E0.0 
G1 X131.099 Y253.755 Z-39.6848 E0.0 
G1 X131.086 Y253.757 Z-39.6849 E0.0 
G1 X131.072 Y253.756 Z-39.685 E0.0 
G1 X131.038 Y253.74 Z-39.6853 E0.0 
G1 X131.015 Y253.721 Z-39.6854 E0.0 
G1 X131.002 Y253.701 Z-39.685500000000005 E0.0 
G1 X130.997 Y253.682 Z-39.685500000000005 E0.0 
G1 X130.997 Y253.663 Z-39.6854 E0.0 
G1 X131.004 Y253.645 Z-39.6853 E0.0 
G1 X131.018 Y253.625 Z-39.6851 E0.0 
G1 X131.049 Y253.603 Z-39.6848 E0.0 
G1 X131.074 Y253.593 Z-39.6845 E0.0 
G1 X131.087 Y253.591 Z-39.684400000000004 E0.0 
G1 X131.096 Y253.593 Z-39.684400000000004 E0.0 
G1 X131.109 Y253.6 Z-39.6843 E0.0 
G1 X131.109 Y253.6 Z-38.5343 E0.0 
G1 X131.108 Y253.7 Z-38.5345 E0.0 
G1 X131.108 Y253.801 Z-38.5348 E0.0 
G1 X131.107 Y253.901 Z-38.5351 E0.0 
G1 X131.107 Y254.001 Z-38.5354 E0.0 
G1 X131.106 Y254.102 Z-38.5357 E0.0 
G1 X131.105 Y254.202 Z-38.536 E0.0 
G1 X131.105 Y254.302 Z-38.5363 E0.0 
G1 X131.104 Y254.403 Z-38.5365 E0.0 
G1 X131.104 Y254.503 Z-38.5368 E0.0 
G1 X131.103 Y254.603 Z-38.5371 E0.0 
G1 X131.102 Y254.704 Z-38.5374 E0.0 
G1 X131.102 Y254.804 Z-38.5377 E0.0 
G1 X131.101 Y254.904 Z-38.538 E0.0 
G1 X131.101 Y255.005 Z-38.5373 E0.0 
G1 X131.1 Y255.105 Z-38.5377 E0.0 
G1 X131.1 Y255.206 Z-38.538199999999996 E0.0 
G1 X131.099 Y255.306 Z-38.5386 E0.0 
G1 X131.098 Y255.406 Z-38.539 E0.0 
G1 X131.098 Y255.507 Z-38.5394 E0.0 
G1 X131.097 Y255.607 Z-38.5398 E0.0 
G1 X131.097 Y255.707 Z-38.5401 E0.0 
G1 X131.096 Y255.808 Z-38.5405 E0.0 
G1 X131.095 Y255.908 Z-38.5409 E0.0 
G1 X131.095 Y256.008 Z-38.5413 E0.0 
G1 X131.094 Y256.109 Z-38.5417 E0.0 
G1 X131.094 Y256.209 Z-38.542 E0.0 
G1 X131.093 Y256.309 Z-38.5424 E0.0 
G1 X131.092 Y256.41 Z-38.542699999999996 E0.0 
G1 X131.092 Y256.51 Z-38.5431 E0.0 
G1 X131.091 Y256.61 Z-38.5435 E0.0 
G1 X131.091 Y256.711 Z-38.5438 E0.0 
G1 X131.09 Y256.811 Z-38.5442 E0.0 
G1 X131.089 Y256.911 Z-38.5445 E0.0 
G1 X131.089 Y257.012 Z-38.5449 E0.0 
G1 X131.088 Y257.112 Z-38.5452 E0.0 
G1 X131.088 Y257.212 Z-38.5455 E0.0 
G1 X131.087 Y257.313 Z-38.5459 E0.0 
G1 X131.086 Y257.413 Z-38.5462 E0.0 
G1 X131.086 Y257.513 Z-38.5466 E0.0 
G1 X131.085 Y257.614 Z-38.5469 E0.0 
G1 X131.085 Y257.714 Z-38.5473 E0.0 
G1 X131.084 Y257.814 Z-38.5476 E0.0 
G1 X131.083 Y257.915 Z-38.548 E0.0 
G1 X131.083 Y258.015 Z-38.5483 E0.0 
G1 X131.082 Y258.115 Z-38.5487 E0.0 
G1 X131.082 Y258.216 Z-38.549 E0.0 
G1 X131.081 Y258.316 Z-38.5494 E0.0 
G1 X131.081 Y258.416 Z-38.5497 E0.0 
G1 X131.08 Y258.517 Z-38.5501 E0.0 
G1 X131.079 Y258.617 Z-38.550399999999996 E0.0 
G1 X131.079 Y258.718 Z-38.5508 E0.0 
G1 X131.078 Y258.818 Z-38.5512 E0.0 
G1 X131.078 Y258.918 Z-38.5516 E0.0 
G1 X131.077 Y259.019 Z-38.5541 E0.0 
G1 X131.076 Y259.119 Z-38.5542 E0.0 
G1 X131.076 Y259.219 Z-38.5544 E0.0 
G1 X131.075 Y259.32 Z-38.5545 E0.0 
G1 X131.075 Y259.42 Z-38.5547 E0.0 
G1 X131.074 Y259.52 Z-38.554899999999996 E0.0 
G1 X131.073 Y259.621 Z-38.5552 E0.0 
G1 X131.073 Y259.721 Z-38.5554 E0.0 
G1 X131.072 Y259.821 Z-38.5557 E0.0 
G1 X131.072 Y259.922 Z-38.556 E0.0 
G1 X131.071 Y260.022 Z-38.5564 E0.0 
G1 X131.071 Y260.022 Z-39.7064 E0.0 F90.0 
G1 X131.123 Y260.027 Z-39.7058 E0.0 F120.0 
G1 X131.141 Y260.033 Z-39.705600000000004 E0.0 
G1 X131.151 Y260.042 Z-39.7055 E0.0 
G1 X131.178 Y260.083 Z-39.7053 E0.0 
G1 X131.196 Y260.127 Z-39.7053 E0.0 
G1 X131.198 Y260.143 Z-39.7053 E0.0 
G1 X131.195 Y260.153 Z-39.705400000000004 E0.0 
G1 X131.175 Y260.185 Z-39.7057 E0.0 
G1 X131.137 Y260.223 Z-39.7063 E0.0 
G1 X131.109 Y260.239 Z-39.7067 E0.0 
G1 X131.083 Y260.242 Z-39.707 E0.0 
G1 X131.041 Y260.235 Z-39.7075 E0.0 
G1 X131.01 Y260.22 Z-39.7078 E0.0 
G1 X130.989 Y260.203 Z-39.708 E0.0 
G1 X130.976 Y260.186 Z-39.708 E0.0 
G1 X130.968 Y260.166 Z-39.7081 E0.0 
G1 X130.965 Y260.144 Z-39.708 E0.0 
G1 X130.969 Y260.118 Z-39.7079 E0.0 
G1 X130.981 Y260.088 Z-39.7076 E0.0 
G1 X131.001 Y260.057 Z-39.707300000000004 E0.0 
G1 X131.035 Y260.028 Z-39.7068 E0.0 
G1 X131.071 Y260.022 Z-39.7064 E0.0 
G1 X131.071 Y260.022 Z-38.5564 E0.0 
G1 X130.988 Y259.943 Z-38.557 E0.0 
G1 X130.905 Y259.863 Z-38.5577 E0.0 
G1 X130.821 Y259.784 Z-38.5583 E0.0 
G1 X130.738 Y259.704 Z-38.5589 E0.0 
G1 X130.655 Y259.625 Z-38.5594 E0.0 
G1 X130.655 Y259.625 Z-39.7094 E0.0 F90.0 
G1 X130.607 Y259.677 Z-39.7102 E0.0 F120.0 
G1 X130.521 Y259.79 Z-39.7117 E0.0 
G1 X130.461 Y259.925 Z-39.713100000000004 E0.0 
G1 X130.431 Y260.07 Z-39.711800000000004 E0.0 
G1 X130.433 Y260.22 Z-39.7123 E0.0 
G1 X130.456 Y260.338 Z-39.7125 E0.0 
G1 X130.5 Y260.446 Z-39.7154 E0.0 
G1 X130.562 Y260.541 Z-39.715 E0.0 
G1 X130.641 Y260.623 Z-39.7143 E0.0 
G1 X130.735 Y260.687 Z-39.713300000000004 E0.0 
G1 X130.841 Y260.733 Z-39.7121 E0.0 
G1 X130.956 Y260.761 Z-39.7108 E0.0 
G1 X131.079 Y260.77 Z-39.7092 E0.0 
G1 X131.248 Y260.755 Z-39.707100000000004 E0.0 
G1 X131.401 Y260.703 Z-39.7051 E0.0 
G1 X131.531 Y260.612 Z-39.7033 E0.0 
G1 X131.632 Y260.484 Z-39.7017 E0.0 
G1 X131.675 Y260.383 Z-39.700900000000004 E0.0 
G1 X131.717 Y260.282 Z-39.7001 E0.0 
G1 X131.724 Y260.175 Z-39.6998 E0.0 
G1 X131.731 Y260.068 Z-39.699400000000004 E0.0 
G1 X131.701 Y259.965 Z-39.6995 E0.0 
G1 X131.671 Y259.862 Z-39.6997 E0.0 
G1 X131.611 Y259.774 Z-39.7001 E0.0 
G1 X131.551 Y259.685 Z-39.7006 E0.0 
G1 X131.484 Y259.611 Z-39.7012 E0.0 
G1 X131.484 Y259.51 Z-39.701100000000004 E0.0 
G1 X131.484 Y259.409 Z-39.701100000000004 E0.0 
G1 X131.484 Y259.308 Z-39.701100000000004 E0.0 
G1 X131.484 Y259.206 Z-39.701100000000004 E0.0 
G1 X131.484 Y259.105 Z-39.7012 E0.0 
G1 X131.484 Y259.004 Z-39.7013 E0.0 
G1 X131.484 Y258.903 Z-39.6976 E0.0 
G1 X131.484 Y258.802 Z-39.6973 E0.0 
G1 X131.484 Y258.7 Z-39.697 E0.0 
G1 X131.484 Y258.599 Z-39.6967 E0.0 
G1 X131.484 Y258.498 Z-39.696400000000004 E0.0 
G1 X131.484 Y258.397 Z-39.6961 E0.0 
G1 X131.484 Y258.296 Z-39.6958 E0.0 
G1 X131.484 Y258.195 Z-39.6955 E0.0 
G1 X131.484 Y258.094 Z-39.6952 E0.0 
G1 X131.484 Y257.992 Z-39.694900000000004 E0.0 
G1 X131.484 Y257.891 Z-39.6946 E0.0 
G1 X131.484 Y257.79 Z-39.6944 E0.0 
G1 X131.484 Y257.689 Z-39.6941 E0.0 
G1 X131.484 Y257.588 Z-39.6938 E0.0 
G1 X131.484 Y257.486 Z-39.6935 E0.0 
G1 X131.484 Y257.385 Z-39.693200000000004 E0.0 
G1 X131.484 Y257.284 Z-39.6928 E0.0 
G1 X131.484 Y257.183 Z-39.6925 E0.0 
G1 X131.484 Y257.082 Z-39.6922 E0.0 
G1 X131.484 Y256.981 Z-39.691900000000004 E0.0 
G1 X131.484 Y256.88 Z-39.691500000000005 E0.0 
G1 X131.484 Y256.778 Z-39.6912 E0.0 
G1 X131.484 Y256.677 Z-39.6909 E0.0 
G1 X131.484 Y256.576 Z-39.6905 E0.0 
G1 X131.484 Y256.475 Z-39.6901 E0.0 
G1 X131.484 Y256.374 Z-39.6898 E0.0 
G1 X131.484 Y256.272 Z-39.6894 E0.0 
G1 X131.484 Y256.171 Z-39.689 E0.0 
G1 X131.484 Y256.07 Z-39.6886 E0.0 
G1 X131.484 Y255.969 Z-39.6882 E0.0 
G1 X131.484 Y255.868 Z-39.6877 E0.0 
G1 X131.484 Y255.767 Z-39.6873 E0.0 
G1 X131.484 Y255.666 Z-39.6868 E0.0 
G1 X131.484 Y255.564 Z-39.6863 E0.0 
G1 X131.484 Y255.463 Z-39.685900000000004 E0.0 
G1 X131.484 Y255.362 Z-39.6854 E0.0 
G1 X131.484 Y255.261 Z-39.6848 E0.0 
G1 X131.484 Y255.16 Z-39.6843 E0.0 
G1 X131.484 Y255.058 Z-39.6838 E0.0 
G1 X131.484 Y254.957 Z-39.6851 E0.0 
G1 X131.484 Y254.856 Z-39.6848 E0.0 
G1 X131.484 Y254.755 Z-39.6845 E0.0 
G1 X131.484 Y254.654 Z-39.6841 E0.0 
G1 X131.484 Y254.553 Z-39.6838 E0.0 
G1 X131.484 Y254.452 Z-39.6835 E0.0 
G1 X131.484 Y254.35 Z-39.6832 E0.0 
G1 X131.484 Y254.249 Z-39.682900000000004 E0.0 
G1 X131.484 Y254.148 Z-39.682500000000005 E0.0 
G1 X131.535 Y254.089 Z-39.6819 E0.0 
G1 X131.603 Y253.997 Z-39.681000000000004 E0.0 
G1 X131.655 Y253.89 Z-39.6802 E0.0 
G1 X131.687 Y253.778 Z-39.6796 E0.0 
G1 X131.697 Y253.664 Z-39.6792 E0.0 
G1 X131.686 Y253.55 Z-39.679 E0.0 
G1 X131.653 Y253.44 Z-39.6789 E0.0 
G1 X131.598 Y253.337 Z-39.6792 E0.0 
G1 X131.534 Y253.261 Z-39.679500000000004 E0.0 
G1 X131.493 Y253.208 Z-39.6798 E0.0 
G1 X131.484 Y253.175 Z-39.6798 E0.0 
G1 X131.555 Y253.104 Z-39.6789 E0.0 
G1 X131.626 Y253.033 Z-39.6781 E0.0 
G1 X131.697 Y252.961 Z-39.6773 E0.0 
G1 X131.768 Y252.89 Z-39.6764 E0.0 
G1 X131.839 Y252.819 Z-39.6756 E0.0 
G1 X131.91 Y252.748 Z-39.674800000000005 E0.0 
G1 X131.98 Y252.677 Z-39.674 E0.0 
G1 X132.051 Y252.605 Z-39.6732 E0.0 
G1 X132.122 Y252.534 Z-39.6724 E0.0 
G1 X132.193 Y252.463 Z-39.6716 E0.0 
G1 X132.264 Y252.392 Z-39.6708 E0.0 
G1 X132.335 Y252.321 Z-39.67 E0.0 
G1 X132.406 Y252.249 Z-39.669200000000004 E0.0 
G1 X132.477 Y252.178 Z-39.6684 E0.0 
G1 X132.548 Y252.107 Z-39.6676 E0.0 
G1 X132.619 Y252.036 Z-39.6668 E0.0 
G1 X132.69 Y251.964 Z-39.666000000000004 E0.0 
G1 X132.761 Y251.893 Z-39.6653 E0.0 
G1 X132.831 Y251.822 Z-39.664500000000004 E0.0 
G1 X132.902 Y251.751 Z-39.6637 E0.0 
G1 X132.973 Y251.68 Z-39.663000000000004 E0.0 
G1 X133.044 Y251.608 Z-39.6622 E0.0 
G1 X133.115 Y251.537 Z-39.6614 E0.0 
G1 X133.186 Y251.466 Z-39.6607 E0.0 
G1 X133.257 Y251.395 Z-39.6599 E0.0 
G1 X133.328 Y251.324 Z-39.6591 E0.0 
G1 X133.399 Y251.252 Z-39.6584 E0.0 
G1 X133.47 Y251.181 Z-39.6576 E0.0 
G1 X133.541 Y251.11 Z-39.656800000000004 E0.0 
G1 X133.612 Y251.039 Z-39.656 E0.0 
G1 X133.682 Y250.968 Z-39.6552 E0.0 
G1 X133.753 Y250.896 Z-39.6539 E0.0 
G1 X133.824 Y250.825 Z-39.653 E0.0 
G1 X133.895 Y250.754 Z-39.652100000000004 E0.0 
G1 X133.966 Y250.683 Z-39.6512 E0.0 
G1 X134.037 Y250.612 Z-39.650400000000005 E0.0 
G1 X134.108 Y250.54 Z-39.6494 E0.0 
G1 X134.179 Y250.469 Z-39.6485 E0.0 
G1 X134.25 Y250.398 Z-39.647600000000004 E0.0 
G1 X134.321 Y250.327 Z-39.6467 E0.0 
G1 X134.392 Y250.255 Z-39.6457 E0.0 
G1 X134.463 Y250.184 Z-39.644800000000004 E0.0 
G1 X134.533 Y250.113 Z-39.6438 E0.0 
G1 X134.604 Y250.042 Z-39.642900000000004 E0.0 
G1 X134.675 Y249.971 Z-39.6419 E0.0 
G1 X134.746 Y249.899 Z-39.6409 E0.0 
G1 X134.817 Y249.828 Z-39.6381 E0.0 
G1 X134.888 Y249.757 Z-39.6373 E0.0 
G1 X134.921 Y249.783 Z-39.637 E0.0 
G1 X135.02 Y249.867 Z-39.636 E0.0 
G1 X135.137 Y249.934 Z-39.6349 E0.0 
G1 X135.264 Y249.971 Z-39.633700000000005 E0.0 
G1 X135.403 Y249.982 Z-39.6323 E0.0 
G1 X135.544 Y249.968 Z-39.630900000000004 E0.0 
G1 X135.678 Y249.925 Z-39.6295 E0.0 
G1 X135.798 Y249.854 Z-39.6282 E0.0 
G1 X135.902 Y249.756 Z-39.627 E0.0 
G1 X136.005 Y249.592 Z-39.6256 E0.0 
G1 X136.057 Y249.415 Z-39.6246 E0.0 
G1 X136.059 Y249.237 Z-39.6242 E0.0 
G1 X136.013 Y249.067 Z-39.6242 E0.0 
G1 X135.924 Y248.916 Z-39.624700000000004 E0.0 
G1 X135.795 Y248.793 Z-39.6258 E0.0 
G1 X135.632 Y248.708 Z-39.6273 E0.0 
G1 X135.445 Y248.67 Z-39.629200000000004 E0.0 
G1 X135.26 Y248.676 Z-39.6313 E0.0 
G1 X135.107 Y248.723 Z-39.6331 E0.0 
G1 X134.99 Y248.801 Z-39.6347 E0.0 
G1 X134.908 Y248.879 Z-39.6359 E0.0 
G1 X134.864 Y248.915 Z-39.6365 E0.0 
G1 X134.796 Y248.925 Z-39.6373 E0.0 
G1 X134.678 Y248.938 Z-39.6394 E0.0 
G1 X134.568 Y248.974 Z-39.6408 E0.0 
G1 X134.479 Y249.029 Z-39.642 E0.0 
G1 X134.408 Y249.1 Z-39.643 E0.0 
G1 X134.337 Y249.171 Z-39.6441 E0.0 
G1 X134.266 Y249.243 Z-39.6451 E0.0 
G1 X134.195 Y249.314 Z-39.646100000000004 E0.0 
G1 X134.124 Y249.385 Z-39.6471 E0.0 
G1 X134.053 Y249.456 Z-39.6481 E0.0 
G1 X133.982 Y249.527 Z-39.649 E0.0 
G1 X133.911 Y249.598 Z-39.65 E0.0 
G1 X133.841 Y249.67 Z-39.651 E0.0 
G1 X133.77 Y249.741 Z-39.651900000000005 E0.0 
G1 X133.699 Y249.812 Z-39.6528 E0.0 
G1 X133.628 Y249.883 Z-39.653800000000004 E0.0 
G1 X133.557 Y249.954 Z-39.6547 E0.0 
G1 X133.486 Y250.025 Z-39.6556 E0.0 
G1 X133.415 Y250.097 Z-39.6565 E0.0 
G1 X133.344 Y250.168 Z-39.6573 E0.0 
G1 X133.273 Y250.239 Z-39.6582 E0.0 
G1 X133.202 Y250.31 Z-39.659 E0.0 
G1 X133.131 Y250.381 Z-39.6599 E0.0 
G1 X133.06 Y250.452 Z-39.6607 E0.0 
G1 X132.989 Y250.524 Z-39.661500000000004 E0.0 
G1 X132.918 Y250.595 Z-39.6623 E0.0 
G1 X132.847 Y250.666 Z-39.6631 E0.0 
G1 X132.776 Y250.737 Z-39.6639 E0.0 
G1 X132.705 Y250.808 Z-39.6647 E0.0 
G1 X132.634 Y250.879 Z-39.6654 E0.0 
G1 X132.564 Y250.951 Z-39.6662 E0.0 
G1 X132.493 Y251.022 Z-39.667500000000004 E0.0 
G1 X132.422 Y251.093 Z-39.6681 E0.0 
G1 X132.351 Y251.164 Z-39.668800000000005 E0.0 
G1 X132.28 Y251.235 Z-39.6694 E0.0 
G1 X132.209 Y251.306 Z-39.6701 E0.0 
G1 X132.138 Y251.378 Z-39.670700000000004 E0.0 
G1 X132.067 Y251.449 Z-39.6714 E0.0 
G1 X131.996 Y251.52 Z-39.6721 E0.0 
G1 X131.925 Y251.591 Z-39.6727 E0.0 
G1 X131.854 Y251.662 Z-39.6734 E0.0 
G1 X131.783 Y251.733 Z-39.6741 E0.0 
G1 X131.712 Y251.805 Z-39.674800000000005 E0.0 
G1 X131.641 Y251.876 Z-39.6755 E0.0 
G1 X131.57 Y251.947 Z-39.676300000000005 E0.0 
G1 X131.499 Y252.018 Z-39.677 E0.0 
G1 X131.428 Y252.089 Z-39.6777 E0.0 
G1 X131.357 Y252.16 Z-39.6785 E0.0 
G1 X131.287 Y252.232 Z-39.6792 E0.0 
G1 X131.216 Y252.303 Z-39.68 E0.0 
G1 X131.145 Y252.374 Z-39.680800000000005 E0.0 
G1 X131.074 Y252.445 Z-39.6815 E0.0 
G1 X131.003 Y252.516 Z-39.6823 E0.0 
G1 X130.932 Y252.587 Z-39.6831 E0.0 
G1 X130.861 Y252.659 Z-39.6839 E0.0 
G1 X130.79 Y252.73 Z-39.6847 E0.0 
G1 X130.719 Y252.801 Z-39.685500000000005 E0.0 
G1 X130.674 Y252.899 Z-39.6862 E0.0 
G1 X130.662 Y253.073 Z-39.6867 E0.0 
G1 X130.64 Y253.205 Z-39.6873 E0.0 
G1 X130.583 Y253.299 Z-39.688 E0.0 
G1 X130.531 Y253.371 Z-39.6886 E0.0 
G1 X130.486 Y253.468 Z-39.6893 E0.0 
G1 X130.476 Y253.573 Z-39.6896 E0.0 
G1 X130.467 Y253.678 Z-39.6899 E0.0 
G1 X130.477 Y253.788 Z-39.6901 E0.0 
G1 X130.487 Y253.899 Z-39.6903 E0.0 
G1 X130.59 Y254.065 Z-39.6899 E0.0 
G1 X130.655 Y254.147 Z-39.6895 E0.0 
G1 X130.655 Y254.248 Z-39.6898 E0.0 
G1 X130.655 Y254.35 Z-39.690000000000005 E0.0 
G1 X130.655 Y254.451 Z-39.6903 E0.0 
G1 X130.655 Y254.553 Z-39.6905 E0.0 
G1 X130.655 Y254.654 Z-39.6908 E0.0 
G1 X130.655 Y254.756 Z-39.691 E0.0 
G1 X130.655 Y254.857 Z-39.6913 E0.0 
G1 X130.655 Y254.959 Z-39.691500000000005 E0.0 
G1 X130.655 Y255.06 Z-39.692 E0.0 
G1 X130.655 Y255.161 Z-39.6922 E0.0 
G1 X130.655 Y255.263 Z-39.6925 E0.0 
G1 X130.655 Y255.364 Z-39.6927 E0.0 
G1 X130.655 Y255.466 Z-39.6929 E0.0 
G1 X130.655 Y255.567 Z-39.693200000000004 E0.0 
G1 X130.655 Y255.669 Z-39.693400000000004 E0.0 
G1 X130.655 Y255.77 Z-39.6937 E0.0 
G1 X130.655 Y255.872 Z-39.694 E0.0 
G1 X130.655 Y255.973 Z-39.6943 E0.0 
G1 X130.655 Y256.074 Z-39.6946 E0.0 
G1 X130.655 Y256.176 Z-39.694900000000004 E0.0 
G1 X130.655 Y256.277 Z-39.6952 E0.0 
G1 X130.655 Y256.379 Z-39.6955 E0.0 
G1 X130.655 Y256.48 Z-39.6958 E0.0 
G1 X130.655 Y256.582 Z-39.696200000000005 E0.0 
G1 X130.655 Y256.683 Z-39.6965 E0.0 
G1 X130.655 Y256.785 Z-39.6969 E0.0 
G1 X130.655 Y256.886 Z-39.6972 E0.0 
G1 X130.655 Y256.987 Z-39.6976 E0.0 
G1 X130.655 Y257.089 Z-39.698 E0.0 
G1 X130.655 Y257.19 Z-39.6984 E0.0 
G1 X130.655 Y257.292 Z-39.6988 E0.0 
G1 X130.655 Y257.393 Z-39.699200000000005 E0.0 
G1 X130.655 Y257.495 Z-39.699600000000004 E0.0 
G1 X130.655 Y257.596 Z-39.7 E0.0 
G1 X130.655 Y257.698 Z-39.7004 E0.0 
G1 X130.655 Y257.799 Z-39.7008 E0.0 
G1 X130.655 Y257.9 Z-39.7012 E0.0 
G1 X130.655 Y258.002 Z-39.7017 E0.0 
G1 X130.655 Y258.103 Z-39.7021 E0.0 
G1 X130.655 Y258.205 Z-39.7025 E0.0 
G1 X130.655 Y258.306 Z-39.703 E0.0 
G1 X130.655 Y258.408 Z-39.7034 E0.0 
G1 X130.655 Y258.509 Z-39.703900000000004 E0.0 
G1 X130.655 Y258.611 Z-39.7044 E0.0 
G1 X130.655 Y258.712 Z-39.7048 E0.0 
G1 X130.655 Y258.813 Z-39.7053 E0.0 
G1 X130.655 Y258.915 Z-39.7058 E0.0 
G1 X130.655 Y259.016 Z-39.7067 E0.0 
G1 X130.655 Y259.118 Z-39.7072 E0.0 
G1 X130.655 Y259.219 Z-39.7076 E0.0 
G1 X130.655 Y259.321 Z-39.708 E0.0 
G1 X130.655 Y259.422 Z-39.7085 E0.0 
G1 X130.655 Y259.524 Z-39.709 E0.0 
G1 X130.655 Y259.625 Z-39.7094 E0.0 
G1 X130.655 Y259.625 Z-38.5594 E0.0 
G1 X130.704 Y259.537 Z-38.5585 E0.0 
G1 X130.752 Y259.448 Z-38.5577 E0.0 
G1 X130.801 Y259.36 Z-38.557 E0.0 
G1 X130.849 Y259.271 Z-38.5563 E0.0 
G1 X130.898 Y259.183 Z-38.5557 E0.0 
G1 X130.947 Y259.094 Z-38.5551 E0.0 
G1 X130.995 Y259.006 Z-38.5546 E0.0 
G1 X131.044 Y258.917 Z-38.551899999999996 E0.0 
G1 X131.092 Y258.829 Z-38.5511 E0.0 
G1 X131.141 Y258.741 Z-38.5503 E0.0 
G1 X131.19 Y258.652 Z-38.5495 E0.0 
G1 X131.238 Y258.564 Z-38.5488 E0.0 
G1 X131.287 Y258.475 Z-38.5481 E0.0 
G1 X131.335 Y258.387 Z-38.547399999999996 E0.0 
G1 X131.384 Y258.298 Z-38.5467 E0.0 
G1 X131.433 Y258.21 Z-38.546 E0.0 
G1 X131.481 Y258.121 Z-38.5453 E0.0 
G1 X131.53 Y258.033 Z-38.5447 E0.0 
G1 X131.578 Y257.945 Z-38.544 E0.0 
G1 X131.627 Y257.856 Z-38.5434 E0.0 
G1 X131.676 Y257.768 Z-38.542699999999996 E0.0 
G1 X131.724 Y257.679 Z-38.5421 E0.0 
G1 X131.773 Y257.591 Z-38.5414 E0.0 
G1 X131.821 Y257.502 Z-38.5408 E0.0 
G1 X131.87 Y257.414 Z-38.5401 E0.0 
G1 X131.919 Y257.325 Z-38.5395 E0.0 
G1 X131.967 Y257.237 Z-38.5388 E0.0 
G1 X132.016 Y257.149 Z-38.538199999999996 E0.0 
G1 X132.064 Y257.06 Z-38.5375 E0.0 
G1 X132.113 Y256.972 Z-38.5368 E0.0 
G1 X132.162 Y256.883 Z-38.5361 E0.0 
G1 X132.21 Y256.795 Z-38.5354 E0.0 
G1 X132.259 Y256.706 Z-38.5347 E0.0 
G1 X132.307 Y256.618 Z-38.534 E0.0 
G1 X132.356 Y256.529 Z-38.5332 E0.0 
G1 X132.405 Y256.441 Z-38.5324 E0.0 
G1 X132.453 Y256.353 Z-38.5317 E0.0 
G1 X132.502 Y256.264 Z-38.5309 E0.0 
G1 X132.55 Y256.176 Z-38.53 E0.0 
G1 X132.599 Y256.087 Z-38.5292 E0.0 
G1 X132.648 Y255.999 Z-38.5283 E0.0 
G1 X132.696 Y255.91 Z-38.527499999999996 E0.0 
G1 X132.745 Y255.822 Z-38.5266 E0.0 
G1 X132.793 Y255.733 Z-38.5257 E0.0 
G1 X132.842 Y255.645 Z-38.5247 E0.0 
G1 X132.891 Y255.557 Z-38.5238 E0.0 
G1 X132.939 Y255.468 Z-38.5228 E0.0 
G1 X132.988 Y255.38 Z-38.5219 E0.0 
G1 X133.036 Y255.291 Z-38.5209 E0.0 
G1 X133.085 Y255.203 Z-38.5199 E0.0 
G1 X133.133 Y255.114 Z-38.5189 E0.0 
G1 X133.182 Y255.026 Z-38.5178 E0.0 
G1 X133.231 Y254.938 Z-38.5193 E0.0 
G1 X133.279 Y254.849 Z-38.5185 E0.0 
G1 X133.328 Y254.761 Z-38.5177 E0.0 
G1 X133.376 Y254.672 Z-38.5169 E0.0 
G1 X133.425 Y254.584 Z-38.5161 E0.0 
G1 X133.474 Y254.495 Z-38.515299999999996 E0.0 
G1 X133.522 Y254.407 Z-38.5145 E0.0 
G1 X133.571 Y254.318 Z-38.5137 E0.0 
G1 X133.619 Y254.23 Z-38.5129 E0.0 
G1 X133.668 Y254.142 Z-38.5121 E0.0 
G1 X133.717 Y254.053 Z-38.5113 E0.0 
G1 X133.765 Y253.965 Z-38.5106 E0.0 
G1 X133.814 Y253.876 Z-38.5098 E0.0 
G1 X133.862 Y253.788 Z-38.509 E0.0 
G1 X133.911 Y253.699 Z-38.5083 E0.0 
G1 X133.96 Y253.611 Z-38.5075 E0.0 
G1 X134.008 Y253.522 Z-38.5067 E0.0 
G1 X134.057 Y253.434 Z-38.506 E0.0 
G1 X134.105 Y253.346 Z-38.5052 E0.0 
G1 X134.154 Y253.257 Z-38.5045 E0.0 
G1 X134.203 Y253.169 Z-38.5038 E0.0 
G1 X134.251 Y253.08 Z-38.503 E0.0 
G1 X134.3 Y252.992 Z-38.5023 E0.0 
G1 X134.348 Y252.903 Z-38.5015 E0.0 
G1 X134.397 Y252.815 Z-38.5008 E0.0 
G1 X134.446 Y252.726 Z-38.500099999999996 E0.0 
G1 X134.494 Y252.638 Z-38.4994 E0.0 
G1 X134.543 Y252.55 Z-38.498599999999996 E0.0 
G1 X134.591 Y252.461 Z-38.4979 E0.0 
G1 X134.64 Y252.373 Z-38.4972 E0.0 
G1 X134.689 Y252.284 Z-38.4965 E0.0 
G1 X134.737 Y252.196 Z-38.4958 E0.0 
G1 X134.786 Y252.107 Z-38.4895 E0.0 
G1 X134.834 Y252.019 Z-38.4893 E0.0 
G1 X134.883 Y251.93 Z-38.489 E0.0 
G1 X134.932 Y251.842 Z-38.4887 E0.0 
G1 X134.98 Y251.754 Z-38.4884 E0.0 
G1 X135.029 Y251.665 Z-38.4881 E0.0 
G1 X135.077 Y251.577 Z-38.4878 E0.0 
G1 X135.126 Y251.488 Z-38.4875 E0.0 
G1 X135.175 Y251.4 Z-38.4871 E0.0 
G1 X135.223 Y251.311 Z-38.4867 E0.0 
G1 X135.272 Y251.223 Z-38.4863 E0.0 
G1 X135.32 Y251.134 Z-38.4858 E0.0 
G1 X135.369 Y251.046 Z-38.4853 E0.0 
G1 X135.369 Y251.046 Z-39.6353 E0.0 F90.0 
G1 X135.351 Y251.033 Z-39.6355 E0.0 F120.0 
G1 X135.329 Y251.001 Z-39.6358 E0.0 
G1 X135.327 Y250.989 Z-39.6358 E0.0 
G1 X135.331 Y250.976 Z-39.6358 E0.0 
G1 X135.361 Y250.941 Z-39.6342 E0.0 
G1 X135.399 Y250.915 Z-39.6338 E0.0 
G1 X135.437 Y250.946 Z-39.6336 E0.0 
G1 X135.463 Y250.98 Z-39.6343 E0.0 
G1 X135.463 Y250.995 Z-39.6343 E0.0 
G1 X135.457 Y251.015 Z-39.6344 E0.0 
G1 X135.445 Y251.033 Z-39.6345 E0.0 
G1 X135.431 Y251.045 Z-39.6347 E0.0 
G1 X135.417 Y251.052 Z-39.6348 E0.0 
G1 X135.402 Y251.055 Z-39.635 E0.0 
G1 X135.386 Y251.053 Z-39.635200000000005 E0.0 
G1 X135.369 Y251.046 Z-39.6353 E0.0 
G1 X135.369 Y251.046 Z-38.4853 E0.0 
G1 X135.466 Y251.08 Z-38.4843 E0.0 
G1 X135.564 Y251.113 Z-38.4834 E0.0 
G1 X135.661 Y251.147 Z-38.4825 E0.0 
G1 X135.758 Y251.181 Z-38.4816 E0.0 
G1 X135.855 Y251.214 Z-38.4808 E0.0 
G1 X135.953 Y251.248 Z-38.48 E0.0 
G1 X136.05 Y251.282 Z-38.4792 E0.0 
G1 X136.147 Y251.315 Z-38.4784 E0.0 
G1 X136.245 Y251.349 Z-38.4776 E0.0 
G1 X136.342 Y251.383 Z-38.4768 E0.0 
G1 X136.439 Y251.417 Z-38.4761 E0.0 
G1 X136.536 Y251.45 Z-38.4753 E0.0 
G1 X136.634 Y251.484 Z-38.4746 E0.0 
G1 X136.731 Y251.518 Z-38.4738 E0.0 
G1 X136.828 Y251.551 Z-38.4731 E0.0 
G1 X136.925 Y251.585 Z-38.4723 E0.0 
G1 X137.023 Y251.619 Z-38.4715 E0.0 
G1 X137.12 Y251.652 Z-38.4708 E0.0 
G1 X137.217 Y251.686 Z-38.47 E0.0 
G1 X137.315 Y251.72 Z-38.4692 E0.0 
G1 X137.412 Y251.753 Z-38.4684 E0.0 
G1 X137.509 Y251.787 Z-38.4676 E0.0 
G1 X137.606 Y251.821 Z-38.4667 E0.0 
G1 X137.704 Y251.855 Z-38.4659 E0.0 
G1 X137.801 Y251.888 Z-38.4651 E0.0 
G1 X137.898 Y251.922 Z-38.4642 E0.0 
G1 X137.996 Y251.956 Z-38.4634 E0.0 
G1 X138.093 Y251.989 Z-38.4625 E0.0 
G1 X138.19 Y252.023 Z-38.4617 E0.0 
G1 X138.287 Y252.057 Z-38.4608 E0.0 
G1 X138.385 Y252.09 Z-38.4599 E0.0 
G1 X138.482 Y252.124 Z-38.4591 E0.0 
G1 X138.482 Y252.124 Z-39.6091 E0.0 F90.0 
G1 X138.491 Y252.317 Z-39.6094 E0.0 F120.0 
G1 X138.486 Y252.422 Z-39.609700000000004 E0.0 
G1 X138.481 Y252.526 Z-39.61 E0.0 
G1 X138.48 Y252.532 Z-39.61 E0.0 
G1 X138.477 Y252.522 Z-39.61 E0.0 
G1 X138.463 Y252.343 Z-39.609700000000004 E0.0 
G1 X138.474 Y252.161 Z-39.6092 E0.0 
G1 X138.482 Y252.124 Z-39.6091 E0.0 
G1 X138.482 Y252.124 Z-38.4591 E0.0 
G1 X138.556 Y252.056 Z-38.4582 E0.0 
G1 X138.63 Y251.988 Z-38.4574 E0.0 
G1 X138.704 Y251.92 Z-38.4567 E0.0 
G1 X138.778 Y251.853 Z-38.456 E0.0 
G1 X138.852 Y251.785 Z-38.4553 E0.0 
G1 X138.926 Y251.717 Z-38.4546 E0.0 
G1 X139.0 Y251.649 Z-38.4541 E0.0 
G1 X139.074 Y251.581 Z-38.4574 E0.0 
G1 X139.148 Y251.513 Z-38.4563 E0.0 
G1 X139.222 Y251.445 Z-38.4554 E0.0 
G1 X139.297 Y251.378 Z-38.4545 E0.0 
G1 X139.371 Y251.31 Z-38.4538 E0.0 
G1 X139.445 Y251.242 Z-38.4532 E0.0 
G1 X139.519 Y251.174 Z-38.4527 E0.0 
G1 X139.593 Y251.106 Z-38.4523 E0.0 
G1 X139.667 Y251.038 Z-38.452 E0.0 
G1 X139.741 Y250.97 Z-38.4519 E0.0 
G1 X139.815 Y250.903 Z-38.4474 E0.0 
G1 X139.889 Y250.835 Z-38.4467 E0.0 
G1 X139.963 Y250.767 Z-38.4461 E0.0 
G1 X140.037 Y250.699 Z-38.4455 E0.0 
G1 X140.111 Y250.631 Z-38.4449 E0.0 
G1 X140.185 Y250.563 Z-38.4444 E0.0 
G1 X140.259 Y250.495 Z-38.4439 E0.0 
G1 X140.333 Y250.427 Z-38.4434 E0.0 
G1 X140.407 Y250.36 Z-38.443 E0.0 
G1 X140.481 Y250.292 Z-38.4425 E0.0 
G1 X140.555 Y250.224 Z-38.4422 E0.0 
G1 X140.629 Y250.156 Z-38.4418 E0.0 
G1 X140.703 Y250.088 Z-38.4414 E0.0 
G1 X140.777 Y250.02 Z-38.4411 E0.0 
G1 X140.851 Y249.952 Z-38.4408 E0.0 
G1 X140.926 Y249.885 Z-38.4405 E0.0 
G1 X141.0 Y249.817 Z-38.4402 E0.0 
G1 X141.074 Y249.749 Z-38.4399 E0.0 
G1 X141.148 Y249.681 Z-38.4396 E0.0 
G1 X141.222 Y249.613 Z-38.4393 E0.0 
G1 X141.296 Y249.545 Z-38.439099999999996 E0.0 
G1 X141.37 Y249.477 Z-38.4388 E0.0 
G1 X141.444 Y249.41 Z-38.4385 E0.0 
G1 X141.518 Y249.342 Z-38.4382 E0.0 
G1 X141.592 Y249.274 Z-38.4379 E0.0 
G1 X141.666 Y249.206 Z-38.437599999999996 E0.0 
G1 X141.666 Y249.206 Z-39.5876 E0.0 F90.0 
G1 X141.651 Y249.157 Z-39.5877 E0.0 F120.0 
G1 X141.641 Y249.006 Z-39.5877 E0.0 
G1 X141.65 Y248.855 Z-39.5875 E0.0 
G1 X141.665 Y248.802 Z-39.5874 E0.0 
G1 X141.67 Y248.804 Z-39.5874 E0.0 
G1 X141.67 Y248.805 Z-39.5874 E0.0 
G1 X141.675 Y248.912 Z-39.5875 E0.0 
G1 X141.68 Y249.019 Z-39.5875 E0.0 
G1 X141.68 Y249.21 Z-39.5876 E0.0 
G1 X141.666 Y249.206 Z-39.5876 E0.0 
G1 X141.666 Y249.206 Z-38.437599999999996 E0.0 
G1 X141.666 Y249.315 Z-38.437599999999996 E0.0 
G1 X141.666 Y249.424 Z-38.437599999999996 E0.0 
G1 X141.666 Y249.533 Z-38.437599999999996 E0.0 
G1 X141.666 Y249.642 Z-38.4375 E0.0 
G1 X141.666 Y249.751 Z-38.4374 E0.0 
G1 X141.666 Y249.751 Z-39.5874 E0.0 F90.0 
G1 X141.806 Y249.739 Z-39.5869 E0.0 F120.0 
G1 X141.933 Y249.696 Z-39.5865 E0.0 
G1 X142.041 Y249.618 Z-39.5862 E0.0 
G1 X142.127 Y249.514 Z-39.586 E0.0 
G1 X142.178 Y249.424 Z-39.5858 E0.0 
G1 X142.208 Y249.316 Z-39.5857 E0.0 
G1 X142.212 Y249.214 Z-39.5857 E0.0 
G1 X142.216 Y249.113 Z-39.5856 E0.0 
G1 X142.22 Y249.011 Z-39.5856 E0.0 
G1 X142.214 Y248.862 Z-39.5854 E0.0 
G1 X142.208 Y248.712 Z-39.585300000000004 E0.0 
G1 X142.182 Y248.605 Z-39.5852 E0.0 
G1 X142.135 Y248.513 Z-39.5852 E0.0 
G1 X142.047 Y248.402 Z-39.585300000000004 E0.0 
G1 X141.932 Y248.32 Z-39.5855 E0.0 
G1 X141.798 Y248.273 Z-39.5859 E0.0 
G1 X141.647 Y248.258 Z-39.5865 E0.0 
G1 X141.476 Y248.282 Z-39.5872 E0.0 
G1 X141.33 Y248.371 Z-39.588100000000004 E0.0 
G1 X141.227 Y248.482 Z-39.5888 E0.0 
G1 X141.157 Y248.597 Z-39.5893 E0.0 
G1 X141.152 Y248.609 Z-39.5893 E0.0 
G1 X141.049 Y248.607 Z-39.589800000000004 E0.0 
G1 X140.946 Y248.606 Z-39.5903 E0.0 
G1 X140.842 Y248.604 Z-39.5908 E0.0 
G1 X140.739 Y248.603 Z-39.591300000000004 E0.0 
G1 X140.636 Y248.601 Z-39.5918 E0.0 
G1 X140.533 Y248.6 Z-39.5923 E0.0 
G1 X140.429 Y248.598 Z-39.592800000000004 E0.0 
G1 X140.326 Y248.597 Z-39.5934 E0.0 
G1 X140.223 Y248.595 Z-39.594 E0.0 
G1 X140.123 Y248.649 Z-39.5946 E0.0 
G1 X140.023 Y248.704 Z-39.5953 E0.0 
G1 X139.951 Y248.776 Z-39.595800000000004 E0.0 
G1 X139.88 Y248.849 Z-39.5963 E0.0 
G1 X139.808 Y248.921 Z-39.5969 E0.0 
G1 X139.736 Y248.993 Z-39.5974 E0.0 
G1 X139.665 Y249.066 Z-39.5979 E0.0 
G1 X139.593 Y249.138 Z-39.5985 E0.0 
G1 X139.521 Y249.211 Z-39.5991 E0.0 
G1 X139.45 Y249.283 Z-39.5997 E0.0 
G1 X139.378 Y249.355 Z-39.600300000000004 E0.0 
G1 X139.306 Y249.428 Z-39.601 E0.0 
G1 X139.235 Y249.5 Z-39.601600000000005 E0.0 
G1 X139.163 Y249.572 Z-39.6024 E0.0 
G1 X139.091 Y249.645 Z-39.603100000000005 E0.0 
G1 X139.02 Y249.717 Z-39.6014 E0.0 
G1 X138.948 Y249.79 Z-39.6019 E0.0 
G1 X138.876 Y249.862 Z-39.6025 E0.0 
G1 X138.805 Y249.934 Z-39.603 E0.0 
G1 X138.733 Y250.007 Z-39.6036 E0.0 
G1 X138.661 Y250.079 Z-39.6042 E0.0 
G1 X138.59 Y250.151 Z-39.604800000000004 E0.0 
G1 X138.518 Y250.224 Z-39.6054 E0.0 
G1 X138.446 Y250.296 Z-39.606100000000005 E0.0 
G1 X138.375 Y250.369 Z-39.6068 E0.0 
G1 X138.303 Y250.441 Z-39.6074 E0.0 
G1 X138.231 Y250.513 Z-39.6081 E0.0 
G1 X138.16 Y250.586 Z-39.6089 E0.0 
G1 X138.088 Y250.658 Z-39.6096 E0.0 
G1 X138.073 Y250.677 Z-39.6098 E0.0 
G1 X138.06 Y250.697 Z-39.6099 E0.0 
G1 X138.051 Y250.72 Z-39.61 E0.0 
G1 X138.045 Y250.744 Z-39.6101 E0.0 
G1 X138.043 Y250.767 Z-39.6102 E0.0 
G1 X138.043 Y250.867 Z-39.6104 E0.0 
G1 X138.043 Y250.967 Z-39.6118 E0.0 
G1 X138.043 Y251.067 Z-39.6119 E0.0 
G1 X138.043 Y251.167 Z-39.6119 E0.0 
G1 X138.043 Y251.267 Z-39.612 E0.0 
G1 X138.044 Y251.368 Z-39.612 E0.0 
G1 X138.044 Y251.468 Z-39.6121 E0.0 
G1 X138.044 Y251.568 Z-39.612300000000005 E0.0 
G1 X138.044 Y251.668 Z-39.6124 E0.0 
G1 X138.044 Y251.768 Z-39.6126 E0.0 
G1 X137.971 Y251.92 Z-39.6135 E0.0 
G1 X137.87 Y251.92 Z-39.6145 E0.0 
G1 X137.769 Y251.92 Z-39.615500000000004 E0.0 
G1 X137.669 Y251.921 Z-39.6164 E0.0 
G1 X137.568 Y251.921 Z-39.6174 E0.0 
G1 X137.467 Y251.921 Z-39.618300000000005 E0.0 
G1 X137.366 Y251.921 Z-39.6193 E0.0 
G1 X137.265 Y251.921 Z-39.620200000000004 E0.0 
G1 X137.164 Y251.921 Z-39.6212 E0.0 
G1 X137.064 Y251.922 Z-39.6221 E0.0 
G1 X136.963 Y251.922 Z-39.623000000000005 E0.0 
G1 X136.862 Y251.922 Z-39.6239 E0.0 
G1 X136.788 Y251.848 Z-39.6244 E0.0 
G1 X136.715 Y251.775 Z-39.6248 E0.0 
G1 X136.641 Y251.701 Z-39.6252 E0.0 
G1 X136.567 Y251.627 Z-39.6256 E0.0 
G1 X136.494 Y251.554 Z-39.626000000000005 E0.0 
G1 X136.42 Y251.48 Z-39.626400000000004 E0.0 
G1 X136.347 Y251.407 Z-39.6269 E0.0 
G1 X136.273 Y251.333 Z-39.6273 E0.0 
G1 X136.199 Y251.259 Z-39.627700000000004 E0.0 
G1 X136.126 Y251.186 Z-39.6282 E0.0 
G1 X136.052 Y251.112 Z-39.6287 E0.0 
G1 X136.055 Y251.098 Z-39.6286 E0.0 
G1 X136.066 Y250.982 Z-39.6282 E0.0 
G1 X136.05 Y250.86 Z-39.6282 E0.0 
G1 X136.012 Y250.744 Z-39.6283 E0.0 
G1 X135.954 Y250.637 Z-39.6285 E0.0 
G1 X135.879 Y250.54 Z-39.629000000000005 E0.0 
G1 X135.789 Y250.456 Z-39.6296 E0.0 
G1 X135.684 Y250.389 Z-39.6304 E0.0 
G1 X135.567 Y250.344 Z-39.6314 E0.0 
G1 X135.453 Y250.325 Z-39.632400000000004 E0.0 
G1 X135.335 Y250.329 Z-39.6335 E0.0 
G1 X135.231 Y250.359 Z-39.6345 E0.0 
G1 X135.126 Y250.389 Z-39.6355 E0.0 
G1 X135.036 Y250.45 Z-39.6364 E0.0 
G1 X134.946 Y250.51 Z-39.6372 E0.0 
G1 X134.865 Y250.599 Z-39.6379 E0.0 
G1 X134.801 Y250.702 Z-39.6385 E0.0 
G1 X134.749 Y250.893 Z-39.642900000000004 E0.0 
G1 X134.751 Y250.996 Z-39.643 E0.0 
G1 X134.753 Y251.1 Z-39.6432 E0.0 
G1 X134.781 Y251.198 Z-39.641 E0.0 
G1 X134.809 Y251.297 Z-39.6404 E0.0 
G1 X134.917 Y251.458 Z-39.6392 E0.0 
G1 X135.028 Y251.54 Z-39.638200000000005 E0.0 
G1 X135.148 Y251.599 Z-39.6373 E0.0 
G1 X135.274 Y251.64 Z-39.6363 E0.0 
G1 X135.392 Y251.655 Z-39.6355 E0.0 
G1 X135.429 Y251.655 Z-39.635200000000005 E0.0 
G1 X135.5 Y251.727 Z-39.6347 E0.0 
G1 X135.572 Y251.799 Z-39.6343 E0.0 
G1 X135.644 Y251.871 Z-39.634 E0.0 
G1 X135.715 Y251.943 Z-39.6336 E0.0 
G1 X135.786 Y252.015 Z-39.6332 E0.0 
G1 X135.858 Y252.087 Z-39.6329 E0.0 
G1 X135.93 Y252.159 Z-39.632600000000004 E0.0 
G1 X136.001 Y252.23 Z-39.632200000000005 E0.0 
G1 X136.072 Y252.302 Z-39.6319 E0.0 
G1 X136.144 Y252.374 Z-39.6316 E0.0 
G1 X136.216 Y252.446 Z-39.6312 E0.0 
G1 X136.287 Y252.518 Z-39.630900000000004 E0.0 
G1 X136.358 Y252.59 Z-39.630500000000005 E0.0 
G1 X136.43 Y252.662 Z-39.6302 E0.0 
G1 X136.597 Y252.751 Z-39.6291 E0.0 
G1 X136.702 Y252.751 Z-39.6281 E0.0 
G1 X136.807 Y252.751 Z-39.6272 E0.0 
G1 X136.912 Y252.751 Z-39.626200000000004 E0.0 
G1 X137.017 Y252.751 Z-39.6253 E0.0 
G1 X137.122 Y252.751 Z-39.6243 E0.0 
G1 X137.227 Y252.751 Z-39.6233 E0.0 
G1 X137.332 Y252.751 Z-39.6223 E0.0 
G1 X137.437 Y252.751 Z-39.6212 E0.0 
G1 X137.542 Y252.751 Z-39.620200000000004 E0.0 
G1 X137.647 Y252.751 Z-39.6191 E0.0 
G1 X137.752 Y252.751 Z-39.6181 E0.0 
G1 X137.857 Y252.751 Z-39.617000000000004 E0.0 
G1 X137.962 Y252.751 Z-39.616 E0.0 
G1 X137.977 Y252.787 Z-39.6159 E0.0 
G1 X138.07 Y252.899 Z-39.6154 E0.0 
G1 X138.181 Y252.994 Z-39.6146 E0.0 
G1 X138.302 Y253.06 Z-39.6136 E0.0 
G1 X138.42 Y253.085 Z-39.612500000000004 E0.0 
G1 X138.531 Y253.085 Z-39.6114 E0.0 
G1 X138.639 Y253.063 Z-39.6102 E0.0 
G1 X138.739 Y253.021 Z-39.6091 E0.0 
G1 X138.829 Y252.959 Z-39.6079 E0.0 
G1 X138.905 Y252.881 Z-39.6069 E0.0 
G1 X138.966 Y252.787 Z-39.606 E0.0 
G1 X139.008 Y252.679 Z-39.6052 E0.0 
G1 X139.034 Y252.525 Z-39.604600000000005 E0.0 
G1 X139.043 Y252.346 Z-39.6041 E0.0 
G1 X139.037 Y252.164 Z-39.6039 E0.0 
G1 X139.014 Y252.0 Z-39.6039 E0.0 
G1 X138.967 Y251.872 Z-39.6043 E0.0 
G1 X138.9 Y251.768 Z-39.6049 E0.0 
G1 X138.872 Y251.738 Z-39.6051 E0.0 
G1 X138.872 Y251.637 Z-39.6051 E0.0 
G1 X138.872 Y251.536 Z-39.6052 E0.0 
G1 X138.872 Y251.435 Z-39.6053 E0.0 
G1 X138.872 Y251.334 Z-39.6055 E0.0 
G1 X138.872 Y251.233 Z-39.6057 E0.0 
G1 X138.872 Y251.132 Z-39.6059 E0.0 
G1 X138.872 Y251.031 Z-39.6062 E0.0 
G1 X138.946 Y250.957 Z-39.606 E0.0 
G1 X139.02 Y250.883 Z-39.6021 E0.0 
G1 X139.094 Y250.809 Z-39.6053 E0.0 
G1 X139.168 Y250.735 Z-39.6043 E0.0 
G1 X139.242 Y250.661 Z-39.603300000000004 E0.0 
G1 X139.315 Y250.588 Z-39.6023 E0.0 
G1 X139.389 Y250.514 Z-39.6015 E0.0 
G1 X139.463 Y250.44 Z-39.6007 E0.0 
G1 X139.537 Y250.366 Z-39.5999 E0.0 
G1 X139.611 Y250.292 Z-39.5992 E0.0 
G1 X139.685 Y250.218 Z-39.5985 E0.0 
G1 X139.759 Y250.144 Z-39.5979 E0.0 
G1 X139.833 Y250.07 Z-39.597300000000004 E0.0 
G1 X139.907 Y249.996 Z-39.5967 E0.0 
G1 X139.981 Y249.922 Z-39.5962 E0.0 
G1 X140.055 Y249.848 Z-39.5957 E0.0 
G1 X140.128 Y249.775 Z-39.5952 E0.0 
G1 X140.202 Y249.701 Z-39.5947 E0.0 
G1 X140.276 Y249.627 Z-39.594300000000004 E0.0 
G1 X140.35 Y249.553 Z-39.5938 E0.0 
G1 X140.424 Y249.479 Z-39.5934 E0.0 
G1 X140.498 Y249.405 Z-39.593 E0.0 
G1 X140.607 Y249.405 Z-39.592400000000005 E0.0 
G1 X140.717 Y249.405 Z-39.5919 E0.0 
G1 X140.826 Y249.405 Z-39.591300000000004 E0.0 
G1 X140.935 Y249.405 Z-39.5908 E0.0 
G1 X141.045 Y249.405 Z-39.5902 E0.0 
G1 X141.154 Y249.405 Z-39.5897 E0.0 
G1 X141.173 Y249.449 Z-39.589600000000004 E0.0 
G1 X141.249 Y249.576 Z-39.5892 E0.0 
G1 X141.365 Y249.677 Z-39.5887 E0.0 
G1 X141.508 Y249.735 Z-39.588 E0.0 
G1 X141.666 Y249.751 Z-39.5874 E0.0 
G1 X141.666 Y249.751 Z-38.4374 E0.0 
G1 X141.752 Y249.698 Z-38.4372 E0.0 
G1 X141.838 Y249.646 Z-38.4369 E0.0 
G1 X141.924 Y249.593 Z-38.4366 E0.0 
G1 X142.01 Y249.54 Z-38.4363 E0.0 
G1 X142.096 Y249.488 Z-38.436099999999996 E0.0 
G1 X142.182 Y249.435 Z-38.4358 E0.0 
G1 X142.268 Y249.382 Z-38.4355 E0.0 
G1 X142.354 Y249.33 Z-38.4353 E0.0 
G1 X142.44 Y249.277 Z-38.435 E0.0 
G1 X142.527 Y249.224 Z-38.4347 E0.0 
G1 X142.613 Y249.172 Z-38.4344 E0.0 
G1 X142.699 Y249.119 Z-38.4341 E0.0 
G1 X142.785 Y249.066 Z-38.4338 E0.0 
G1 X142.871 Y249.013 Z-38.4335 E0.0 
G1 X142.957 Y248.961 Z-38.4332 E0.0 
G1 X143.043 Y248.908 Z-38.4329 E0.0 
G1 X143.129 Y248.855 Z-38.4326 E0.0 
G1 X143.215 Y248.803 Z-38.4323 E0.0 
G1 X143.301 Y248.75 Z-38.432 E0.0 
G1 X143.387 Y248.697 Z-38.4314 E0.0 
G1 X143.473 Y248.645 Z-38.4311 E0.0 
G1 X143.559 Y248.592 Z-38.4308 E0.0 
G1 X143.645 Y248.539 Z-38.4305 E0.0 
G1 X143.731 Y248.487 Z-38.4301 E0.0 
G1 X143.817 Y248.434 Z-38.4298 E0.0 
G1 X143.903 Y248.381 Z-38.4295 E0.0 
G1 X143.989 Y248.329 Z-38.4292 E0.0 
G1 X144.075 Y248.276 Z-38.4289 E0.0 
G1 X144.162 Y248.223 Z-38.4286 E0.0 
G1 X144.248 Y248.171 Z-38.4283 E0.0 
G1 X144.334 Y248.118 Z-38.428 E0.0 
G1 X144.42 Y248.065 Z-38.4277 E0.0 
G1 X144.506 Y248.013 Z-38.4274 E0.0 
G1 X144.592 Y247.96 Z-38.427 E0.0 
G1 X144.678 Y247.907 Z-38.4268 E0.0 
G1 X144.764 Y247.855 Z-38.4265 E0.0 
G1 X144.85 Y247.802 Z-38.4262 E0.0 
G1 X144.936 Y247.749 Z-38.4259 E0.0 
G1 X145.022 Y247.696 Z-38.4256 E0.0 
G1 X145.108 Y247.644 Z-38.4253 E0.0 
G1 X145.194 Y247.591 Z-38.425 E0.0 
G1 X145.28 Y247.538 Z-38.4247 E0.0 
G1 X145.366 Y247.486 Z-38.4244 E0.0 
G1 X145.452 Y247.433 Z-38.4242 E0.0 
G1 X145.538 Y247.38 Z-38.423899999999996 E0.0 
G1 X145.624 Y247.328 Z-38.4236 E0.0 
G1 X145.711 Y247.275 Z-38.4233 E0.0 
G1 X145.797 Y247.222 Z-38.423 E0.0 
G1 X145.883 Y247.17 Z-38.4227 E0.0 
G1 X145.969 Y247.117 Z-38.4225 E0.0 
G1 X146.055 Y247.064 Z-38.4222 E0.0 
G1 X146.141 Y247.012 Z-38.4219 E0.0 
G1 X146.227 Y246.959 Z-38.4216 E0.0 
G1 X146.313 Y246.906 Z-38.4205 E0.0 
G1 X146.399 Y246.854 Z-38.4202 E0.0 
G1 X146.485 Y246.801 Z-38.4198 E0.0 
G1 X146.571 Y246.748 Z-38.4194 E0.0 
G1 X146.657 Y246.696 Z-38.4191 E0.0 
G1 X146.743 Y246.643 Z-38.4187 E0.0 
G1 X146.829 Y246.59 Z-38.4183 E0.0 
G1 X146.915 Y246.538 Z-38.418 E0.0 
G1 X147.001 Y246.485 Z-38.4176 E0.0 
G1 X147.087 Y246.432 Z-38.4172 E0.0 
G1 X147.173 Y246.379 Z-38.4168 E0.0 
G1 X147.259 Y246.327 Z-38.4165 E0.0 
G1 X147.346 Y246.274 Z-38.4161 E0.0 
G1 X147.432 Y246.221 Z-38.4157 E0.0 
G1 X147.518 Y246.169 Z-38.4153 E0.0 
G1 X147.604 Y246.116 Z-38.415 E0.0 
G1 X147.69 Y246.063 Z-38.4168 E0.0 
G1 X147.776 Y246.011 Z-38.416199999999996 E0.0 
G1 X147.862 Y245.958 Z-38.4156 E0.0 
G1 X147.948 Y245.905 Z-38.415 E0.0 
G1 X148.034 Y245.853 Z-38.4145 E0.0 
G1 X148.12 Y245.8 Z-38.414 E0.0 
G1 X148.12 Y245.8 Z-39.564 E0.0 F90.0 
G1 X148.096 Y245.761 Z-39.564 E0.0 F120.0 
G1 X148.086 Y245.716 Z-39.563900000000004 E0.0 
G1 X148.088 Y245.669 Z-39.5638 E0.0 
G1 X148.106 Y245.621 Z-39.5636 E0.0 
G1 X148.144 Y245.573 Z-39.5633 E0.0 
G1 X148.198 Y245.535 Z-39.563 E0.0 
G1 X148.249 Y245.521 Z-39.5627 E0.0 
G1 X148.3 Y245.526 Z-39.5626 E0.0 
G1 X148.363 Y245.556 Z-39.562400000000004 E0.0 
G1 X148.415 Y245.599 Z-39.5623 E0.0 
G1 X148.42 Y245.606 Z-39.5623 E0.0 
G1 X148.431 Y245.703 Z-39.5626 E0.0 
G1 X148.422 Y245.756 Z-39.5627 E0.0 
G1 X148.379 Y245.811 Z-39.563 E0.0 
G1 X148.323 Y245.854 Z-39.5634 E0.0 
G1 X148.262 Y245.863 Z-39.5636 E0.0 
G1 X148.201 Y245.855 Z-39.5638 E0.0 
G1 X148.154 Y245.833 Z-39.563900000000004 E0.0 
G1 X148.12 Y245.8 Z-39.564 E0.0 
G1 X148.12 Y245.8 Z-38.414 E0.0 
G1 X148.16 Y245.892 Z-38.4141 E0.0 
G1 X148.2 Y245.984 Z-38.4142 E0.0 
G1 X148.24 Y246.076 Z-38.4143 E0.0 
G1 X148.28 Y246.169 Z-38.4145 E0.0 
G1 X148.32 Y246.261 Z-38.4146 E0.0 
G1 X148.36 Y246.353 Z-38.4148 E0.0 
G1 X148.401 Y246.445 Z-38.415 E0.0 
G1 X148.441 Y246.537 Z-38.4152 E0.0 
G1 X148.481 Y246.629 Z-38.4154 E0.0 
G1 X148.521 Y246.722 Z-38.4156 E0.0 
G1 X148.561 Y246.814 Z-38.4159 E0.0 
G1 X148.601 Y246.906 Z-38.4161 E0.0 
G1 X148.641 Y246.998 Z-38.4163 E0.0 
G1 X148.681 Y247.09 Z-38.4166 E0.0 
G1 X148.721 Y247.182 Z-38.417 E0.0 
G1 X148.761 Y247.274 Z-38.4173 E0.0 
G1 X148.801 Y247.367 Z-38.417699999999996 E0.0 
G1 X148.841 Y247.459 Z-38.418 E0.0 
G1 X148.881 Y247.551 Z-38.4183 E0.0 
G1 X148.922 Y247.643 Z-38.4187 E0.0 
G1 X148.962 Y247.735 Z-38.419 E0.0 
G1 X149.002 Y247.827 Z-38.4194 E0.0 
G1 X149.042 Y247.919 Z-38.4197 E0.0 
G1 X149.082 Y248.012 Z-38.42 E0.0 
G1 X149.122 Y248.104 Z-38.4203 E0.0 
G1 X149.162 Y248.196 Z-38.4207 E0.0 
G1 X149.202 Y248.288 Z-38.421 E0.0 
G1 X149.242 Y248.38 Z-38.4213 E0.0 
G1 X149.282 Y248.472 Z-38.4216 E0.0 
G1 X149.322 Y248.565 Z-38.4219 E0.0 
G1 X149.362 Y248.657 Z-38.4222 E0.0 
G1 X149.402 Y248.749 Z-38.4225 E0.0 
G1 X149.442 Y248.841 Z-38.4228 E0.0 
G1 X149.483 Y248.933 Z-38.423 E0.0 
G1 X149.523 Y249.025 Z-38.4233 E0.0 
G1 X149.563 Y249.117 Z-38.4236 E0.0 
G1 X149.603 Y249.21 Z-38.4238 E0.0 
G1 X149.643 Y249.302 Z-38.4241 E0.0 
G1 X149.683 Y249.394 Z-38.4244 E0.0 
G1 X149.723 Y249.486 Z-38.4246 E0.0 
G1 X149.763 Y249.578 Z-38.4248 E0.0 
G1 X149.803 Y249.67 Z-38.4251 E0.0 
G1 X149.843 Y249.762 Z-38.4253 E0.0 
G1 X149.883 Y249.855 Z-38.4255 E0.0 
G1 X149.923 Y249.947 Z-38.4258 E0.0 
G1 X149.963 Y250.039 Z-38.426 E0.0 
G1 X150.004 Y250.131 Z-38.4262 E0.0 
G1 X150.044 Y250.223 Z-38.4264 E0.0 
G1 X150.084 Y250.315 Z-38.4266 E0.0 
G1 X150.124 Y250.408 Z-38.4268 E0.0 
G1 X150.164 Y250.5 Z-38.427 E0.0 
G1 X150.204 Y250.592 Z-38.4272 E0.0 
G1 X150.244 Y250.684 Z-38.4274 E0.0 
G1 X150.244 Y250.684 Z-39.577400000000004 E0.0 F90.0 
G1 X150.293 Y250.676 Z-39.577400000000004 E0.0 F120.0 
G1 X150.34 Y250.683 Z-39.577400000000004 E0.0 
G1 X150.368 Y250.702 Z-39.5775 E0.0 
G1 X150.386 Y250.729 Z-39.5775 E0.0 
G1 X150.394 Y250.772 Z-39.577600000000004 E0.0 
G1 X150.389 Y250.823 Z-39.5777 E0.0 
G1 X150.379 Y250.848 Z-39.5777 E0.0 
G1 X150.366 Y250.863 Z-39.5778 E0.0 
G1 X150.33 Y250.883 Z-39.5778 E0.0 
G1 X150.29 Y250.894 Z-39.5778 E0.0 
G1 X150.251 Y250.883 Z-39.5778 E0.0 
G1 X150.208 Y250.856 Z-39.5778 E0.0 
G1 X150.187 Y250.828 Z-39.5777 E0.0 
G1 X150.178 Y250.796 Z-39.577600000000004 E0.0 
G1 X150.18 Y250.761 Z-39.577600000000004 E0.0 
G1 X150.192 Y250.728 Z-39.5775 E0.0 
G1 X150.213 Y250.702 Z-39.577400000000004 E0.0 
G1 X150.244 Y250.684 Z-39.577400000000004 E0.0 
G1 X150.244 Y250.684 Z-38.4274 E0.0 
G1 X150.143 Y250.686 Z-38.4274 E0.0 
G1 X150.042 Y250.688 Z-38.4274 E0.0 
G1 X149.941 Y250.691 Z-38.4274 E0.0 
G1 X149.839 Y250.693 Z-38.4275 E0.0 
G1 X149.738 Y250.695 Z-38.4275 E0.0 
G1 X149.637 Y250.697 Z-38.4275 E0.0 
G1 X149.536 Y250.699 Z-38.4275 E0.0 
G1 X149.435 Y250.701 Z-38.4276 E0.0 
G1 X149.334 Y250.704 Z-38.4276 E0.0 
G1 X149.233 Y250.706 Z-38.4276 E0.0 
G1 X149.132 Y250.708 Z-38.4277 E0.0 
G1 X149.03 Y250.71 Z-38.4277 E0.0 
G1 X148.929 Y250.712 Z-38.4278 E0.0 
G1 X148.828 Y250.714 Z-38.4279 E0.0 
G1 X148.727 Y250.717 Z-38.4279 E0.0 
G1 X148.626 Y250.719 Z-38.428 E0.0 
G1 X148.525 Y250.721 Z-38.4281 E0.0 
G1 X148.424 Y250.723 Z-38.4281 E0.0 
G1 X148.323 Y250.725 Z-38.4282 E0.0 
G1 X148.221 Y250.727 Z-38.4283 E0.0 
G1 X148.12 Y250.73 Z-38.428399999999996 E0.0 
G1 X148.019 Y250.732 Z-38.4285 E0.0 
G1 X147.918 Y250.734 Z-38.4286 E0.0 
G1 X147.817 Y250.736 Z-38.4286 E0.0 
G1 X147.716 Y250.738 Z-38.4287 E0.0 
G1 X147.615 Y250.741 Z-38.4295 E0.0 
G1 X147.513 Y250.743 Z-38.4296 E0.0 
G1 X147.412 Y250.745 Z-38.4297 E0.0 
G1 X147.311 Y250.747 Z-38.429899999999996 E0.0 
G1 X147.21 Y250.749 Z-38.43 E0.0 
G1 X147.109 Y250.751 Z-38.4302 E0.0 
G1 X147.008 Y250.754 Z-38.4303 E0.0 
G1 X146.907 Y250.756 Z-38.4305 E0.0 
G1 X146.806 Y250.758 Z-38.4306 E0.0 
G1 X146.704 Y250.76 Z-38.4308 E0.0 
G1 X146.603 Y250.762 Z-38.4309 E0.0 
G1 X146.502 Y250.764 Z-38.4311 E0.0 
G1 X146.401 Y250.767 Z-38.4312 E0.0 
G1 X146.3 Y250.769 Z-38.4314 E0.0 
G1 X146.199 Y250.771 Z-38.4315 E0.0 
G1 X146.098 Y250.773 Z-38.4317 E0.0 
G1 X145.997 Y250.775 Z-38.4318 E0.0 
G1 X145.895 Y250.777 Z-38.432 E0.0 
G1 X145.794 Y250.78 Z-38.4321 E0.0 
G1 X145.693 Y250.782 Z-38.4322 E0.0 
G1 X145.592 Y250.784 Z-38.4324 E0.0 
G1 X145.592 Y250.784 Z-39.5824 E0.0 F90.0 
G1 X145.582 Y250.816 Z-39.5825 E0.0 F120.0 
G1 X145.558 Y250.85 Z-39.5826 E0.0 
G1 X145.52 Y250.879 Z-39.5827 E0.0 
G1 X145.48 Y250.894 Z-39.5828 E0.0 
G1 X145.451 Y250.892 Z-39.5828 E0.0 
G1 X145.421 Y250.877 Z-39.5828 E0.0 
G1 X145.393 Y250.85 Z-39.5828 E0.0 
G1 X145.373 Y250.813 Z-39.5827 E0.0 
G1 X145.367 Y250.775 Z-39.5826 E0.0 
G1 X145.373 Y250.74 Z-39.5825 E0.0 
G1 X145.395 Y250.705 Z-39.5824 E0.0 
G1 X145.425 Y250.684 Z-39.582300000000004 E0.0 
G1 X145.467 Y250.675 Z-39.5822 E0.0 
G1 X145.514 Y250.681 Z-39.5822 E0.0 
G1 X145.555 Y250.701 Z-39.5822 E0.0 
G1 X145.578 Y250.728 Z-39.5822 E0.0 
G1 X145.591 Y250.757 Z-39.582300000000004 E0.0 
G1 X145.592 Y250.784 Z-39.5824 E0.0 
G1 X145.592 Y250.784 Z-38.4324 E0.0 
G1 X145.498 Y250.746 Z-38.4324 E0.0 
G1 X145.405 Y250.707 Z-38.4324 E0.0 
G1 X145.311 Y250.669 Z-38.4324 E0.0 
G1 X145.218 Y250.631 Z-38.4324 E0.0 
G1 X145.124 Y250.593 Z-38.4324 E0.0 
G1 X145.031 Y250.554 Z-38.4324 E0.0 
G1 X144.937 Y250.516 Z-38.4324 E0.0 
G1 X144.844 Y250.478 Z-38.4324 E0.0 
G1 X144.75 Y250.439 Z-38.4324 E0.0 
G1 X144.657 Y250.401 Z-38.4324 E0.0 
G1 X144.563 Y250.363 Z-38.4325 E0.0 
G1 X144.47 Y250.325 Z-38.4325 E0.0 
G1 X144.376 Y250.286 Z-38.4325 E0.0 
G1 X144.283 Y250.248 Z-38.4325 E0.0 
G1 X144.189 Y250.21 Z-38.4326 E0.0 
G1 X144.096 Y250.171 Z-38.4326 E0.0 
G1 X144.002 Y250.133 Z-38.4327 E0.0 
G1 X143.909 Y250.095 Z-38.4327 E0.0 
G1 X143.815 Y250.056 Z-38.4328 E0.0 
G1 X143.721 Y250.018 Z-38.4328 E0.0 
G1 X143.628 Y249.98 Z-38.4329 E0.0 
G1 X143.534 Y249.942 Z-38.433 E0.0 
G1 X143.441 Y249.903 Z-38.433 E0.0 
G1 X143.347 Y249.865 Z-38.433 E0.0 
G1 X143.254 Y249.827 Z-38.4332 E0.0 
G1 X143.16 Y249.788 Z-38.4333 E0.0 
G1 X143.067 Y249.75 Z-38.4335 E0.0 
G1 X142.973 Y249.712 Z-38.4337 E0.0 
G1 X142.88 Y249.674 Z-38.4339 E0.0 
G1 X142.786 Y249.635 Z-38.4341 E0.0 
G1 X142.693 Y249.597 Z-38.4343 E0.0 
G1 X142.599 Y249.559 Z-38.434599999999996 E0.0 
G1 X142.506 Y249.52 Z-38.4348 E0.0 
G1 X142.412 Y249.482 Z-38.4351 E0.0 
G1 X142.319 Y249.444 Z-38.4354 E0.0 
G1 X142.225 Y249.406 Z-38.4357 E0.0 
G1 X142.132 Y249.367 Z-38.436 E0.0 
G1 X142.038 Y249.329 Z-38.4363 E0.0 
G1 X141.944 Y249.291 Z-38.4366 E0.0 
G1 X141.851 Y249.252 Z-38.4369 E0.0 
G1 X141.757 Y249.214 Z-38.4373 E0.0 
G1 X141.664 Y249.176 Z-38.437599999999996 E0.0 
G1 X141.57 Y249.138 Z-38.438 E0.0 
G1 X141.477 Y249.099 Z-38.4384 E0.0 
G1 X141.383 Y249.061 Z-38.4387 E0.0 
G1 X141.29 Y249.023 Z-38.439099999999996 E0.0 
G1 X141.196 Y248.984 Z-38.4395 E0.0 
G1 X141.103 Y248.946 Z-38.4399 E0.0 
G1 X141.009 Y248.908 Z-38.4403 E0.0 
G1 X140.916 Y248.87 Z-38.4407 E0.0 
G1 X140.822 Y248.831 Z-38.4412 E0.0 
G1 X140.729 Y248.793 Z-38.4416 E0.0 
G1 X140.635 Y248.755 Z-38.442 E0.0 
G1 X140.542 Y248.716 Z-38.4424 E0.0 
G1 X140.448 Y248.678 Z-38.4429 E0.0 
G1 X140.355 Y248.64 Z-38.4433 E0.0 
G1 X140.261 Y248.601 Z-38.4438 E0.0 
G1 X140.167 Y248.563 Z-38.4442 E0.0 
G1 X140.074 Y248.525 Z-38.4447 E0.0 
G1 X139.98 Y248.487 Z-38.4451 E0.0 
G1 X139.887 Y248.448 Z-38.4456 E0.0 
G1 X139.793 Y248.41 Z-38.4461 E0.0 
G1 X139.7 Y248.372 Z-38.4466 E0.0 
G1 X139.606 Y248.333 Z-38.4471 E0.0 
G1 X139.513 Y248.295 Z-38.4476 E0.0 
G1 X139.419 Y248.257 Z-38.4481 E0.0 
G1 X139.326 Y248.219 Z-38.4486 E0.0 
G1 X139.232 Y248.18 Z-38.4492 E0.0 
G1 X139.139 Y248.142 Z-38.449799999999996 E0.0 
G1 X139.045 Y248.104 Z-38.4487 E0.0 
G1 X138.952 Y248.065 Z-38.4492 E0.0 
G1 X138.858 Y248.027 Z-38.4496 E0.0 
G1 X138.765 Y247.989 Z-38.4501 E0.0 
G1 X138.671 Y247.951 Z-38.4505 E0.0 
G1 X138.578 Y247.912 Z-38.451 E0.0 
G1 X138.484 Y247.874 Z-38.4515 E0.0 
G1 X138.484 Y247.874 Z-39.6015 E0.0 F90.0 
G1 X138.472 Y247.878 Z-39.601600000000005 E0.0 F120.0 
G1 X138.468 Y247.878 Z-39.601600000000005 E0.0 
G1 X138.468 Y247.777 Z-39.6013 E0.0 
G1 X138.468 Y247.677 Z-39.601 E0.0 
G1 X138.468 Y247.576 Z-39.6007 E0.0 
G1 X138.468 Y247.475 Z-39.600300000000004 E0.0 
G1 X138.471 Y247.475 Z-39.600300000000004 E0.0 
G1 X138.479 Y247.476 Z-39.6002 E0.0 
G1 X138.484 Y247.494 Z-39.600300000000004 E0.0 
G1 X138.499 Y247.653 Z-39.6007 E0.0 
G1 X138.497 Y247.809 Z-39.6012 E0.0 
G1 X138.484 Y247.874 Z-39.6015 E0.0 
G1 X138.484 Y247.874 Z-38.4515 E0.0 
G1 X138.383 Y247.867 Z-38.4521 E0.0 
G1 X138.283 Y247.859 Z-38.452799999999996 E0.0 
G1 X138.182 Y247.852 Z-38.4534 E0.0 
G1 X138.081 Y247.844 Z-38.4541 E0.0 
G1 X137.981 Y247.837 Z-38.4548 E0.0 
G1 X137.88 Y247.83 Z-38.4555 E0.0 
G1 X137.779 Y247.822 Z-38.4562 E0.0 
G1 X137.679 Y247.815 Z-38.4569 E0.0 
G1 X137.578 Y247.807 Z-38.4576 E0.0 
G1 X137.477 Y247.8 Z-38.4584 E0.0 
G1 X137.377 Y247.793 Z-38.4591 E0.0 
G1 X137.276 Y247.785 Z-38.4599 E0.0 
G1 X137.175 Y247.778 Z-38.4607 E0.0 
G1 X137.075 Y247.77 Z-38.4615 E0.0 
G1 X136.974 Y247.763 Z-38.4623 E0.0 
G1 X136.873 Y247.756 Z-38.4631 E0.0 
G1 X136.773 Y247.748 Z-38.4639 E0.0 
G1 X136.672 Y247.741 Z-38.4648 E0.0 
G1 X136.571 Y247.733 Z-38.4656 E0.0 
G1 X136.471 Y247.726 Z-38.466499999999996 E0.0 
G1 X136.37 Y247.719 Z-38.4674 E0.0 
G1 X136.269 Y247.711 Z-38.4683 E0.0 
G1 X136.169 Y247.704 Z-38.4692 E0.0 
G1 X136.068 Y247.696 Z-38.4701 E0.0 
G1 X135.967 Y247.689 Z-38.471 E0.0 
G1 X135.867 Y247.682 Z-38.4719 E0.0 
G1 X135.766 Y247.674 Z-38.4729 E0.0 
G1 X135.665 Y247.667 Z-38.4738 E0.0 
G1 X135.565 Y247.659 Z-38.4748 E0.0 
G1 X135.464 Y247.652 Z-38.4758 E0.0 
G1 X135.464 Y247.652 Z-39.6258 E0.0 F90.0 
G1 X135.462 Y247.662 Z-39.6258 E0.0 F120.0 
G1 X135.435 Y247.708 Z-39.6263 E0.0 
G1 X135.397 Y247.732 Z-39.6268 E0.0 
G1 X135.395 Y247.732 Z-39.6268 E0.0 
G1 X135.349 Y247.705 Z-39.6271 E0.0 
G1 X135.335 Y247.681 Z-39.6272 E0.0 
G1 X135.336 Y247.645 Z-39.627 E0.0 
G1 X135.339 Y247.639 Z-39.627 E0.0 
G1 X135.352 Y247.621 Z-39.6268 E0.0 
G1 X135.383 Y247.599 Z-39.626400000000004 E0.0 
G1 X135.404 Y247.592 Z-39.6261 E0.0 
G1 X135.421 Y247.594 Z-39.626000000000005 E0.0 
G1 X135.44 Y247.603 Z-39.6258 E0.0 
G1 X135.452 Y247.616 Z-39.6258 E0.0 
G1 X135.462 Y247.638 Z-39.6257 E0.0 
G1 X135.464 Y247.652 Z-39.6258 E0.0 
G1 X135.464 Y247.652 Z-38.4758 E0.0 
G1 X135.378 Y247.704 Z-38.4769 E0.0 
G1 X135.292 Y247.757 Z-38.478 E0.0 
G1 X135.205 Y247.809 Z-38.4791 E0.0 
G1 X135.119 Y247.862 Z-38.480199999999996 E0.0 
G1 X135.033 Y247.914 Z-38.4814 E0.0 
G1 X134.947 Y247.967 Z-38.4826 E0.0 
G1 X134.861 Y248.019 Z-38.4838 E0.0 
G1 X134.775 Y248.072 Z-38.485 E0.0 
G1 X134.688 Y248.124 Z-38.4868 E0.0 
G1 X134.602 Y248.177 Z-38.487899999999996 E0.0 
G1 X134.516 Y248.229 Z-38.4891 E0.0 
G1 X134.43 Y248.282 Z-38.4903 E0.0 
G1 X134.344 Y248.334 Z-38.4915 E0.0 
G1 X134.257 Y248.386 Z-38.4927 E0.0 
G1 X134.171 Y248.439 Z-38.4939 E0.0 
G1 X134.085 Y248.491 Z-38.495 E0.0 
G1 X133.999 Y248.544 Z-38.4962 E0.0 
G1 X133.913 Y248.596 Z-38.4974 E0.0 
G1 X133.827 Y248.649 Z-38.4985 E0.0 
G1 X133.74 Y248.701 Z-38.4997 E0.0 
G1 X133.654 Y248.754 Z-38.5008 E0.0 
G1 X133.568 Y248.806 Z-38.502 E0.0 
G1 X133.482 Y248.859 Z-38.503099999999996 E0.0 
G1 X133.396 Y248.911 Z-38.5042 E0.0 
G1 X133.31 Y248.964 Z-38.5053 E0.0 
G1 X133.223 Y249.016 Z-38.5064 E0.0 
G1 X133.137 Y249.068 Z-38.5074 E0.0 
G1 X133.051 Y249.121 Z-38.5085 E0.0 
G1 X132.965 Y249.173 Z-38.5095 E0.0 
G1 X132.879 Y249.226 Z-38.5105 E0.0 
G1 X132.792 Y249.278 Z-38.5115 E0.0 
G1 X132.706 Y249.331 Z-38.5125 E0.0 
G1 X132.62 Y249.383 Z-38.5135 E0.0 
G1 X132.534 Y249.436 Z-38.5144 E0.0 
G1 X132.448 Y249.488 Z-38.515299999999996 E0.0 
G1 X132.362 Y249.541 Z-38.5162 E0.0 
G1 X132.275 Y249.593 Z-38.5171 E0.0 
G1 X132.189 Y249.645 Z-38.518 E0.0 
G1 X132.103 Y249.698 Z-38.5188 E0.0 
G1 X132.017 Y249.75 Z-38.5196 E0.0 
G1 X131.931 Y249.803 Z-38.5204 E0.0 
G1 X131.844 Y249.855 Z-38.5212 E0.0 
G1 X131.758 Y249.908 Z-38.5219 E0.0 
G1 X131.672 Y249.96 Z-38.5227 E0.0 
G1 X131.586 Y250.013 Z-38.5234 E0.0 
G1 X131.5 Y250.065 Z-38.5241 E0.0 
G1 X131.414 Y250.118 Z-38.5248 E0.0 
G1 X131.327 Y250.17 Z-38.5255 E0.0 
G1 X131.241 Y250.223 Z-38.5261 E0.0 
G1 X131.155 Y250.275 Z-38.5267 E0.0 
G1 X131.155 Y250.275 Z-39.676700000000004 E0.0 F90.0 
G1 X131.157 Y250.284 Z-39.6768 E0.0 F120.0 
G1 X131.156 Y250.293 Z-39.6768 E0.0 
G1 X131.127 Y250.348 Z-39.6771 E0.0 
G1 X131.081 Y250.382 Z-39.6774 E0.0 
G1 X131.08 Y250.382 Z-39.6774 E0.0 
G1 X131.072 Y250.381 Z-39.6775 E0.0 
G1 X131.045 Y250.369 Z-39.6776 E0.0 
G1 X131.022 Y250.352 Z-39.6777 E0.0 
G1 X131.007 Y250.333 Z-39.6777 E0.0 
G1 X130.998 Y250.314 Z-39.6777 E0.0 
G1 X130.995 Y250.295 Z-39.6777 E0.0 
G1 X130.997 Y250.278 Z-39.6777 E0.0 
G1 X131.004 Y250.259 Z-39.6776 E0.0 
G1 X131.018 Y250.241 Z-39.6775 E0.0 
G1 X131.044 Y250.223 Z-39.6773 E0.0 
G1 X131.067 Y250.217 Z-39.6771 E0.0 
G1 X131.092 Y250.219 Z-39.677 E0.0 
G1 X131.12 Y250.233 Z-39.6769 E0.0 
G1 X131.142 Y250.254 Z-39.6768 E0.0 
G1 X131.155 Y250.275 Z-39.676700000000004 E0.0 
G1 X131.155 Y250.275 Z-38.5267 E0.0 
G1 X131.239 Y250.329 Z-38.5263 E0.0 
G1 X131.323 Y250.384 Z-38.5259 E0.0 
G1 X131.408 Y250.438 Z-38.5254 E0.0 
G1 X131.492 Y250.492 Z-38.5249 E0.0 
G1 X131.576 Y250.547 Z-38.5243 E0.0 
G1 X131.66 Y250.601 Z-38.5238 E0.0 
G1 X131.744 Y250.655 Z-38.5232 E0.0 
G1 X131.829 Y250.71 Z-38.5226 E0.0 
G1 X131.913 Y250.764 Z-38.5219 E0.0 
G1 X131.997 Y250.818 Z-38.5213 E0.0 
G1 X132.081 Y250.873 Z-38.5206 E0.0 
G1 X132.165 Y250.927 Z-38.5199 E0.0 
G1 X132.249 Y250.981 Z-38.5197 E0.0 
G1 X132.334 Y251.036 Z-38.519 E0.0 
G1 X132.418 Y251.09 Z-38.5182 E0.0 
G1 X132.502 Y251.144 Z-38.5174 E0.0 
G1 X132.586 Y251.198 Z-38.5166 E0.0 
G1 X132.67 Y251.253 Z-38.5158 E0.0 
G1 X132.755 Y251.307 Z-38.515 E0.0 
G1 X132.839 Y251.361 Z-38.5141 E0.0 
G1 X132.923 Y251.416 Z-38.5133 E0.0 
G1 X133.007 Y251.47 Z-38.5125 E0.0 
G1 X133.091 Y251.524 Z-38.5117 E0.0 
G1 X133.176 Y251.579 Z-38.5109 E0.0 
G1 X133.26 Y251.633 Z-38.51 E0.0 
G1 X133.344 Y251.687 Z-38.5092 E0.0 
G1 X133.428 Y251.742 Z-38.5084 E0.0 
G1 X133.512 Y251.796 Z-38.5076 E0.0 
G1 X133.596 Y251.85 Z-38.5068 E0.0 
G1 X133.681 Y251.905 Z-38.506 E0.0 
G1 X133.765 Y251.959 Z-38.5053 E0.0 
G1 X133.849 Y252.013 Z-38.5045 E0.0 
G1 X133.933 Y252.068 Z-38.5037 E0.0 
G1 X134.017 Y252.122 Z-38.503 E0.0 
G1 X134.102 Y252.176 Z-38.5022 E0.0 
G1 X134.186 Y252.231 Z-38.5015 E0.0 
G1 X134.27 Y252.285 Z-38.5007 E0.0 
G1 X134.354 Y252.339 Z-38.5 E0.0 
G1 X134.438 Y252.394 Z-38.4993 E0.0 
G1 X134.523 Y252.448 Z-38.498599999999996 E0.0 
G1 X134.607 Y252.502 Z-38.4979 E0.0 
G1 X134.691 Y252.557 Z-38.4972 E0.0 
G1 X134.775 Y252.611 Z-38.4902 E0.0 
G1 X134.859 Y252.665 Z-38.49 E0.0 
G1 X134.943 Y252.72 Z-38.4899 E0.0 
G1 X135.028 Y252.774 Z-38.4897 E0.0 
G1 X135.112 Y252.828 Z-38.4895 E0.0 
G1 X135.196 Y252.882 Z-38.4892 E0.0 
G1 X135.28 Y252.937 Z-38.489 E0.0 
G1 X135.364 Y252.991 Z-38.4887 E0.0 
G1 X135.449 Y253.045 Z-38.4884 E0.0 
G1 X135.533 Y253.1 Z-38.4881 E0.0 
G1 X135.617 Y253.154 Z-38.4878 E0.0 
G1 X135.701 Y253.208 Z-38.4875 E0.0 
G1 X135.785 Y253.263 Z-38.4871 E0.0 
G1 X135.87 Y253.317 Z-38.4867 E0.0 
G1 X135.954 Y253.371 Z-38.4863 E0.0 
G1 X136.038 Y253.426 Z-38.4859 E0.0 
G1 X136.122 Y253.48 Z-38.4855 E0.0 
G1 X136.206 Y253.534 Z-38.485 E0.0 
G1 X136.29 Y253.589 Z-38.4846 E0.0 
G1 X136.375 Y253.643 Z-38.4841 E0.0 
G1 X136.459 Y253.697 Z-38.4836 E0.0 
G1 X136.543 Y253.752 Z-38.4831 E0.0 
G1 X136.627 Y253.806 Z-38.4826 E0.0 
G1 X136.711 Y253.86 Z-38.482 E0.0 
G1 X136.796 Y253.915 Z-38.4815 E0.0 
G1 X136.88 Y253.969 Z-38.481 E0.0 
G1 X136.964 Y254.023 Z-38.4804 E0.0 
G1 X137.048 Y254.078 Z-38.4799 E0.0 
G1 X137.132 Y254.132 Z-38.4794 E0.0 
G1 X137.217 Y254.186 Z-38.4788 E0.0 
G1 X137.301 Y254.241 Z-38.4783 E0.0 
G1 X137.385 Y254.295 Z-38.4778 E0.0 
G1 X137.469 Y254.349 Z-38.477199999999996 E0.0 
G1 X137.553 Y254.404 Z-38.4767 E0.0 
G1 X137.637 Y254.458 Z-38.4762 E0.0 
G1 X137.722 Y254.512 Z-38.475699999999996 E0.0 
G1 X137.806 Y254.566 Z-38.4753 E0.0 
G1 X137.89 Y254.621 Z-38.4748 E0.0 
G1 X137.974 Y254.675 Z-38.4743 E0.0 
G1 X138.058 Y254.729 Z-38.4739 E0.0 
G1 X138.143 Y254.784 Z-38.4735 E0.0 
G1 X138.227 Y254.838 Z-38.4731 E0.0 
G1 X138.311 Y254.892 Z-38.472699999999996 E0.0 
G1 X138.395 Y254.947 Z-38.4724 E0.0 
G1 X138.479 Y255.001 Z-38.4732 E0.0 
G1 X138.564 Y255.055 Z-38.4728 E0.0 
G1 X138.648 Y255.11 Z-38.4724 E0.0 
G1 X138.732 Y255.164 Z-38.472 E0.0 
G1 X138.816 Y255.218 Z-38.4716 E0.0 
G1 X138.9 Y255.273 Z-38.4713 E0.0 
G1 X138.984 Y255.327 Z-38.471 E0.0 
G1 X139.069 Y255.381 Z-38.4708 E0.0 
G1 X139.153 Y255.436 Z-38.4721 E0.0 
G1 X139.237 Y255.49 Z-38.4715 E0.0 
G1 X139.321 Y255.544 Z-38.4711 E0.0 
G1 X139.405 Y255.599 Z-38.4707 E0.0 
G1 X139.49 Y255.653 Z-38.4704 E0.0 
G1 X139.574 Y255.707 Z-38.4701 E0.0 
G1 X139.658 Y255.762 Z-38.4699 E0.0 
G1 X139.742 Y255.816 Z-38.4697 E0.0 
G1 X139.826 Y255.87 Z-38.4696 E0.0 
G1 X139.911 Y255.925 Z-38.4694 E0.0 
G1 X139.995 Y255.979 Z-38.4694 E0.0 
G1 X140.079 Y256.033 Z-38.4693 E0.0 
G1 X140.163 Y256.088 Z-38.4693 E0.0 
G1 X140.247 Y256.142 Z-38.4692 E0.0 
G1 X140.332 Y256.196 Z-38.4692 E0.0 
G1 X140.416 Y256.25 Z-38.4692 E0.0 
G1 X140.5 Y256.305 Z-38.4691 E0.0 
G1 X140.584 Y256.359 Z-38.4691 E0.0 
G1 X140.668 Y256.413 Z-38.4691 E0.0 
G1 X140.752 Y256.468 Z-38.4691 E0.0 
G1 X140.837 Y256.522 Z-38.469 E0.0 
G1 X140.921 Y256.576 Z-38.469 E0.0 
G1 X141.005 Y256.631 Z-38.469 E0.0 
G1 X141.089 Y256.685 Z-38.4689 E0.0 
G1 X141.173 Y256.739 Z-38.4688 E0.0 
G1 X141.258 Y256.794 Z-38.4688 E0.0 
G1 X141.342 Y256.848 Z-38.4687 E0.0 
G1 X141.426 Y256.902 Z-38.4686 E0.0 
G1 X141.51 Y256.957 Z-38.4685 E0.0 
G1 X141.594 Y257.011 Z-38.4684 E0.0 
G1 X141.679 Y257.065 Z-38.4683 E0.0 
G1 X141.763 Y257.12 Z-38.4681 E0.0 
G1 X141.847 Y257.174 Z-38.467999999999996 E0.0 
G1 X141.931 Y257.228 Z-38.4678 E0.0 
G1 X142.015 Y257.283 Z-38.4677 E0.0 
G1 X142.099 Y257.337 Z-38.4676 E0.0 
G1 X142.184 Y257.391 Z-38.4674 E0.0 
G1 X142.268 Y257.446 Z-38.4672 E0.0 
G1 X142.352 Y257.5 Z-38.4671 E0.0 
G1 X142.436 Y257.554 Z-38.4669 E0.0 
G1 X142.52 Y257.609 Z-38.4668 E0.0 
G1 X142.605 Y257.663 Z-38.4666 E0.0 
G1 X142.689 Y257.717 Z-38.466499999999996 E0.0 
G1 X142.773 Y257.772 Z-38.4663 E0.0 
G1 X142.857 Y257.826 Z-38.4662 E0.0 
G1 X142.941 Y257.88 Z-38.4661 E0.0 
G1 X143.026 Y257.934 Z-38.4659 E0.0 
G1 X143.11 Y257.989 Z-38.4658 E0.0 
G1 X143.194 Y258.043 Z-38.4657 E0.0 
G1 X143.278 Y258.097 Z-38.4656 E0.0 
G1 X143.362 Y258.152 Z-38.4655 E0.0 
G1 X143.446 Y258.206 Z-38.4659 E0.0 
G1 X143.531 Y258.26 Z-38.4658 E0.0 
G1 X143.615 Y258.315 Z-38.4656 E0.0 
G1 X143.699 Y258.369 Z-38.4655 E0.0 
G1 X143.783 Y258.423 Z-38.4655 E0.0 
G1 X143.867 Y258.478 Z-38.4654 E0.0 
G1 X143.952 Y258.532 Z-38.4654 E0.0 
G1 X144.036 Y258.586 Z-38.4654 E0.0 
G1 X144.12 Y258.641 Z-38.4654 E0.0 
G1 X144.204 Y258.695 Z-38.4654 E0.0 
G1 X144.288 Y258.749 Z-38.4655 E0.0 
G1 X144.373 Y258.804 Z-38.4655 E0.0 
G1 X144.457 Y258.858 Z-38.4656 E0.0 
G1 X144.541 Y258.912 Z-38.4657 E0.0 
G1 X144.625 Y258.967 Z-38.4658 E0.0 
G1 X144.709 Y259.021 Z-38.4642 E0.0 
G1 X144.793 Y259.075 Z-38.4645 E0.0 
G1 X144.878 Y259.13 Z-38.4647 E0.0 
G1 X144.962 Y259.184 Z-38.464999999999996 E0.0 
G1 X145.046 Y259.238 Z-38.4653 E0.0 
G1 X145.13 Y259.293 Z-38.4656 E0.0 
G1 X145.214 Y259.347 Z-38.4659 E0.0 
G1 X145.299 Y259.401 Z-38.4662 E0.0 
G1 X145.383 Y259.456 Z-38.466499999999996 E0.0 
G1 X145.467 Y259.51 Z-38.4668 E0.0 
G1 X145.551 Y259.564 Z-38.4671 E0.0 
G1 X145.635 Y259.618 Z-38.4674 E0.0 
G1 X145.72 Y259.673 Z-38.4677 E0.0 
G1 X145.804 Y259.727 Z-38.467999999999996 E0.0 
G1 X145.888 Y259.781 Z-38.4683 E0.0 
G1 X145.972 Y259.836 Z-38.4685 E0.0 
G1 X146.056 Y259.89 Z-38.4688 E0.0 
G1 X146.14 Y259.944 Z-38.4691 E0.0 
G1 X146.225 Y259.999 Z-38.4693 E0.0 
G1 X146.309 Y260.053 Z-38.4695 E0.0 
G1 X146.393 Y260.107 Z-38.4698 E0.0 
G1 X146.477 Y260.162 Z-38.47 E0.0 
G1 X146.561 Y260.216 Z-38.4702 E0.0 
G1 X146.646 Y260.27 Z-38.4704 E0.0 
G1 X146.73 Y260.325 Z-38.4706 E0.0 
G1 X146.814 Y260.379 Z-38.4708 E0.0 
G1 X146.814 Y260.379 Z-39.6208 E0.0 F90.0 
G1 X146.829 Y260.362 Z-39.6207 E0.0 F120.0 
G1 X146.856 Y260.345 Z-39.6205 E0.0 
G1 X146.879 Y260.36 Z-39.6206 E0.0 
G1 X146.897 Y260.38 Z-39.6207 E0.0 
G1 X146.9 Y260.398 Z-39.6208 E0.0 
G1 X146.896 Y260.417 Z-39.6209 E0.0 
G1 X146.89 Y260.427 Z-39.621 E0.0 
G1 X146.879 Y260.435 Z-39.6211 E0.0 
G1 X146.853 Y260.439 Z-39.6211 E0.0 
G1 X146.836 Y260.437 Z-39.6212 E0.0 
G1 X146.824 Y260.431 Z-39.6212 E0.0 
G1 X146.816 Y260.422 Z-39.6211 E0.0 
G1 X146.81 Y260.411 Z-39.621 E0.0 
G1 X146.808 Y260.4 Z-39.621 E0.0 
G1 X146.809 Y260.389 Z-39.6209 E0.0 
G1 X146.814 Y260.379 Z-39.6208 E0.0 
G1 X146.814 Y260.379 Z-38.4708 E0.0 
G1 X146.916 Y260.38 Z-38.4706 E0.0 
G1 X147.017 Y260.38 Z-38.4705 E0.0 
G1 X147.119 Y260.381 Z-38.4703 E0.0 
G1 X147.22 Y260.381 Z-38.4701 E0.0 
G1 X147.322 Y260.382 Z-38.4699 E0.0 
G1 X147.423 Y260.382 Z-38.4697 E0.0 
G1 X147.525 Y260.383 Z-38.4696 E0.0 
G1 X147.626 Y260.383 Z-38.4694 E0.0 
G1 X147.728 Y260.384 Z-38.4691 E0.0 
G1 X147.829 Y260.385 Z-38.469 E0.0 
G1 X147.931 Y260.385 Z-38.4688 E0.0 
G1 X148.032 Y260.386 Z-38.4686 E0.0 
G1 X148.134 Y260.386 Z-38.4685 E0.0 
G1 X148.235 Y260.387 Z-38.4683 E0.0 
G1 X148.337 Y260.387 Z-38.4682 E0.0 
G1 X148.438 Y260.388 Z-38.4681 E0.0 
G1 X148.54 Y260.388 Z-38.467999999999996 E0.0 
G1 X148.642 Y260.389 Z-38.4679 E0.0 
G1 X148.743 Y260.39 Z-38.4678 E0.0 
G1 X148.845 Y260.39 Z-38.4677 E0.0 
G1 X148.946 Y260.391 Z-38.4677 E0.0 
G1 X149.048 Y260.391 Z-38.4676 E0.0 
G1 X149.149 Y260.392 Z-38.4676 E0.0 
G1 X149.251 Y260.392 Z-38.4676 E0.0 
G1 X149.352 Y260.393 Z-38.4675 E0.0 
G1 X149.454 Y260.393 Z-38.4675 E0.0 
G1 X149.555 Y260.394 Z-38.4675 E0.0 
G1 X149.657 Y260.395 Z-38.4675 E0.0 
G1 X149.758 Y260.395 Z-38.4675 E0.0 
G1 X149.86 Y260.396 Z-38.4676 E0.0 
G1 X149.961 Y260.396 Z-38.4676 E0.0 
G1 X150.063 Y260.397 Z-38.4676 E0.0 
G1 X150.164 Y260.397 Z-38.4677 E0.0 
G1 X150.266 Y260.398 Z-38.4678 E0.0 
G1 X150.367 Y260.398 Z-38.4678 E0.0 
G1 X150.469 Y260.399 Z-38.4679 E0.0 
G1 X150.469 Y260.399 Z-39.6179 E0.0 F90.0 
G1 X150.47 Y260.373 Z-39.6177 E0.0 F120.0 
G1 X150.477 Y260.352 Z-39.6176 E0.0 
G1 X150.488 Y260.336 Z-39.6175 E0.0 
G1 X150.504 Y260.323 Z-39.6175 E0.0 
G1 X150.524 Y260.315 Z-39.6174 E0.0 
G1 X150.55 Y260.313 Z-39.6174 E0.0 
G1 X150.567 Y260.317 Z-39.6175 E0.0 
G1 X150.607 Y260.35 Z-39.6177 E0.0 
G1 X150.615 Y260.366 Z-39.6178 E0.0 
G1 X150.621 Y260.4 Z-39.618 E0.0 
G1 X150.618 Y260.431 Z-39.6182 E0.0 
G1 X150.612 Y260.445 Z-39.618300000000005 E0.0 
G1 X150.603 Y260.453 Z-39.618300000000005 E0.0 
G1 X150.594 Y260.458 Z-39.6184 E0.0 
G1 X150.539 Y260.465 Z-39.6184 E0.0 
G1 X150.49 Y260.448 Z-39.6182 E0.0 
G1 X150.486 Y260.445 Z-39.6182 E0.0 
G1 X150.478 Y260.432 Z-39.6181 E0.0 
G1 X150.469 Y260.399 Z-39.6179 E0.0 
G1 X150.469 Y260.399 Z-38.4679 E0.0 
G1 X150.491 Y260.5 Z-38.4685 E0.0 
G1 X150.514 Y260.6 Z-38.4692 E0.0 
G1 X150.536 Y260.701 Z-38.4699 E0.0 
G1 X150.559 Y260.802 Z-38.4705 E0.0 
G1 X150.581 Y260.902 Z-38.4712 E0.0 
G1 X150.604 Y261.003 Z-38.4719 E0.0 
G1 X150.626 Y261.103 Z-38.472699999999996 E0.0 
G1 X150.648 Y261.204 Z-38.4734 E0.0 
G1 X150.671 Y261.305 Z-38.4741 E0.0 
G1 X150.693 Y261.405 Z-38.4749 E0.0 
G1 X150.716 Y261.506 Z-38.475699999999996 E0.0 
G1 X150.738 Y261.607 Z-38.4764 E0.0 
G1 X150.761 Y261.707 Z-38.477199999999996 E0.0 
G1 X150.783 Y261.808 Z-38.478 E0.0 
G1 X150.805 Y261.909 Z-38.4788 E0.0 
G1 X150.828 Y262.009 Z-38.4796 E0.0 
G1 X150.85 Y262.11 Z-38.4804 E0.0 
G1 X150.873 Y262.211 Z-38.4813 E0.0 
G1 X150.895 Y262.311 Z-38.4821 E0.0 
G1 X150.918 Y262.412 Z-38.4829 E0.0 
G1 X150.94 Y262.512 Z-38.4838 E0.0 
G1 X150.962 Y262.613 Z-38.4846 E0.0 
G1 X150.985 Y262.714 Z-38.4854 E0.0 
G1 X151.007 Y262.814 Z-38.4863 E0.0 
G1 X151.03 Y262.915 Z-38.4871 E0.0 
G1 X151.052 Y263.016 Z-38.4861 E0.0 
G1 X151.075 Y263.116 Z-38.4872 E0.0 
G1 X151.097 Y263.217 Z-38.4883 E0.0 
G1 X151.097 Y263.217 Z-39.6383 E0.0 F90.0 
G1 X151.145 Y263.211 Z-39.6383 E0.0 F120.0 
G1 X151.2 Y263.224 Z-39.6385 E0.0 
G1 X151.233 Y263.248 Z-39.6387 E0.0 
G1 X151.262 Y263.294 Z-39.6392 E0.0 
G1 X151.277 Y263.347 Z-39.6398 E0.0 
G1 X151.268 Y263.402 Z-39.6403 E0.0 
G1 X151.247 Y263.448 Z-39.6408 E0.0 
G1 X151.229 Y263.468 Z-39.6409 E0.0 
G1 X151.198 Y263.481 Z-39.641 E0.0 
G1 X151.135 Y263.488 Z-39.641 E0.0 
G1 X151.075 Y263.479 Z-39.6409 E0.0 
G1 X151.035 Y263.45 Z-39.6405 E0.0 
G1 X151.002 Y263.403 Z-39.64 E0.0 
G1 X150.992 Y263.361 Z-39.6396 E0.0 
G1 X150.998 Y263.318 Z-39.6392 E0.0 
G1 X151.02 Y263.275 Z-39.6388 E0.0 
G1 X151.055 Y263.239 Z-39.638400000000004 E0.0 
G1 X151.097 Y263.217 Z-39.6383 E0.0 
G1 X151.097 Y263.217 Z-38.4883 E0.0 
G1 X150.994 Y263.221 Z-38.4882 E0.0 
G1 X150.891 Y263.225 Z-38.4881 E0.0 
G1 X150.788 Y263.23 Z-38.4881 E0.0 
G1 X150.684 Y263.234 Z-38.488 E0.0 
G1 X150.581 Y263.238 Z-38.487899999999996 E0.0 
G1 X150.478 Y263.242 Z-38.487899999999996 E0.0 
G1 X150.375 Y263.246 Z-38.4878 E0.0 
G1 X150.272 Y263.251 Z-38.4878 E0.0 
G1 X150.169 Y263.255 Z-38.4877 E0.0 
G1 X150.066 Y263.259 Z-38.4877 E0.0 
G1 X149.963 Y263.263 Z-38.4876 E0.0 
G1 X149.859 Y263.267 Z-38.4876 E0.0 
G1 X149.756 Y263.272 Z-38.4875 E0.0 
G1 X149.653 Y263.276 Z-38.4875 E0.0 
G1 X149.55 Y263.28 Z-38.4875 E0.0 
G1 X149.447 Y263.284 Z-38.4874 E0.0 
G1 X149.344 Y263.288 Z-38.4874 E0.0 
G1 X149.241 Y263.292 Z-38.4874 E0.0 
G1 X149.138 Y263.297 Z-38.4873 E0.0 
G1 X149.034 Y263.301 Z-38.4873 E0.0 
G1 X148.931 Y263.305 Z-38.4872 E0.0 
G1 X148.828 Y263.309 Z-38.4872 E0.0 
G1 X148.725 Y263.313 Z-38.4872 E0.0 
G1 X148.622 Y263.318 Z-38.4871 E0.0 
G1 X148.519 Y263.322 Z-38.4871 E0.0 
G1 X148.416 Y263.326 Z-38.487 E0.0 
G1 X148.313 Y263.33 Z-38.487 E0.0 
G1 X148.209 Y263.334 Z-38.4869 E0.0 
G1 X148.106 Y263.339 Z-38.4869 E0.0 
G1 X148.003 Y263.343 Z-38.4868 E0.0 
G1 X147.9 Y263.347 Z-38.4867 E0.0 
G1 X147.9 Y263.347 Z-39.636700000000005 E0.0 F90.0 
G1 X147.893 Y263.396 Z-39.637100000000004 E0.0 F120.0 
G1 X147.866 Y263.446 Z-39.6374 E0.0 
G1 X147.834 Y263.474 Z-39.6376 E0.0 
G1 X147.79 Y263.489 Z-39.6376 E0.0 
G1 X147.739 Y263.489 Z-39.6375 E0.0 
G1 X147.69 Y263.474 Z-39.6374 E0.0 
G1 X147.653 Y263.447 Z-39.6379 E0.0 
G1 X147.629 Y263.411 Z-39.6376 E0.0 
G1 X147.618 Y263.353 Z-39.6372 E0.0 
G1 X147.623 Y263.318 Z-39.637 E0.0 
G1 X147.636 Y263.284 Z-39.636700000000005 E0.0 
G1 X147.657 Y263.256 Z-39.6365 E0.0 
G1 X147.683 Y263.234 Z-39.6364 E0.0 
G1 X147.715 Y263.218 Z-39.6357 E0.0 
G1 X147.749 Y263.211 Z-39.6357 E0.0 
G1 X147.786 Y263.212 Z-39.6357 E0.0 
G1 X147.82 Y263.222 Z-39.6358 E0.0 
G1 X147.857 Y263.248 Z-39.636 E0.0 
G1 X147.885 Y263.294 Z-39.6363 E0.0 
G1 X147.9 Y263.347 Z-39.636700000000005 E0.0 
G1 X147.9 Y263.347 Z-38.4867 E0.0 
G1 X147.881 Y263.446 Z-38.4874 E0.0 
G1 X147.863 Y263.545 Z-38.4881 E0.0 
G1 X147.844 Y263.645 Z-38.4888 E0.0 
G1 X147.826 Y263.744 Z-38.489399999999996 E0.0 
G1 X147.807 Y263.843 Z-38.4901 E0.0 
G1 X147.789 Y263.942 Z-38.4907 E0.0 
G1 X147.77 Y264.041 Z-38.4914 E0.0 
G1 X147.752 Y264.14 Z-38.492 E0.0 
G1 X147.733 Y264.24 Z-38.4926 E0.0 
G1 X147.714 Y264.339 Z-38.4932 E0.0 
G1 X147.696 Y264.438 Z-38.4938 E0.0 
G1 X147.677 Y264.537 Z-38.4956 E0.0 
G1 X147.659 Y264.636 Z-38.4962 E0.0 
G1 X147.64 Y264.736 Z-38.4969 E0.0 
G1 X147.622 Y264.835 Z-38.4976 E0.0 
G1 X147.603 Y264.934 Z-38.4982 E0.0 
G1 X147.584 Y265.033 Z-38.4989 E0.0 
G1 X147.566 Y265.132 Z-38.4996 E0.0 
G1 X147.547 Y265.231 Z-38.5002 E0.0 
G1 X147.529 Y265.331 Z-38.5009 E0.0 
G1 X147.51 Y265.43 Z-38.501599999999996 E0.0 
G1 X147.492 Y265.529 Z-38.5022 E0.0 
G1 X147.473 Y265.628 Z-38.5029 E0.0 
G1 X147.455 Y265.727 Z-38.5036 E0.0 
G1 X147.436 Y265.826 Z-38.5043 E0.0 
G1 X147.417 Y265.926 Z-38.5049 E0.0 
G1 X147.399 Y266.025 Z-38.5056 E0.0 
G1 X147.38 Y266.124 Z-38.5063 E0.0 
G1 X147.362 Y266.223 Z-38.507 E0.0 
G1 X147.343 Y266.322 Z-38.5077 E0.0 
G1 X147.325 Y266.422 Z-38.5084 E0.0 
G1 X147.306 Y266.521 Z-38.5092 E0.0 
G1 X147.288 Y266.62 Z-38.5099 E0.0 
G1 X147.269 Y266.719 Z-38.5106 E0.0 
G1 X147.25 Y266.818 Z-38.5113 E0.0 
G1 X147.232 Y266.917 Z-38.5121 E0.0 
G1 X147.213 Y267.017 Z-38.5122 E0.0 
G1 X147.195 Y267.116 Z-38.513 E0.0 
G1 X147.176 Y267.215 Z-38.513799999999996 E0.0 
G1 X147.158 Y267.314 Z-38.5146 E0.0 
G1 X147.139 Y267.413 Z-38.5155 E0.0 
G1 X147.12 Y267.512 Z-38.5163 E0.0 
G1 X147.102 Y267.612 Z-38.5171 E0.0 
G1 X147.083 Y267.711 Z-38.5179 E0.0 
G1 X147.065 Y267.81 Z-38.5187 E0.0 
G1 X147.046 Y267.909 Z-38.5196 E0.0 
G1 X147.028 Y268.008 Z-38.5204 E0.0 
G1 X147.009 Y268.108 Z-38.5212 E0.0 
G1 X146.991 Y268.207 Z-38.5221 E0.0 
G1 X146.972 Y268.306 Z-38.5229 E0.0 
G1 X146.953 Y268.405 Z-38.5237 E0.0 
G1 X146.935 Y268.504 Z-38.5246 E0.0 
G1 X146.916 Y268.603 Z-38.5254 E0.0 
G1 X146.898 Y268.703 Z-38.5262 E0.0 
G1 X146.879 Y268.802 Z-38.5271 E0.0 
G1 X146.861 Y268.901 Z-38.5279 E0.0 
G1 X146.842 Y269.0 Z-38.5288 E0.0 
G1 X146.824 Y269.099 Z-38.5296 E0.0 
G1 X146.805 Y269.199 Z-38.530499999999996 E0.0 
G1 X146.786 Y269.298 Z-38.5313 E0.0 
G1 X146.768 Y269.397 Z-38.5322 E0.0 
G1 X146.749 Y269.496 Z-38.5331 E0.0 
G1 X146.731 Y269.595 Z-38.5339 E0.0 
G1 X146.712 Y269.694 Z-38.5348 E0.0 
G1 X146.694 Y269.794 Z-38.5357 E0.0 
G1 X146.675 Y269.893 Z-38.5366 E0.0 
G1 X146.657 Y269.992 Z-38.5374 E0.0 
G1 X146.638 Y270.091 Z-38.5383 E0.0 
G1 X146.619 Y270.19 Z-38.5392 E0.0 
G1 X146.601 Y270.289 Z-38.5401 E0.0 
G1 X146.582 Y270.389 Z-38.541 E0.0 
G1 X146.564 Y270.488 Z-38.5419 E0.0 
G1 X146.545 Y270.587 Z-38.5428 E0.0 
G1 X146.527 Y270.686 Z-38.5437 E0.0 
G1 X146.508 Y270.785 Z-38.5446 E0.0 
G1 X146.489 Y270.885 Z-38.5455 E0.0 
G1 X146.471 Y270.984 Z-38.5465 E0.0 
G1 X146.452 Y271.083 Z-38.547399999999996 E0.0 
G1 X146.434 Y271.182 Z-38.5483 E0.0 
G1 X146.415 Y271.281 Z-38.5493 E0.0 
G1 X146.397 Y271.38 Z-38.5502 E0.0 
G1 X146.378 Y271.48 Z-38.5512 E0.0 
G1 X146.36 Y271.579 Z-38.5521 E0.0 
G1 X146.341 Y271.678 Z-38.5531 E0.0 
G1 X146.341 Y271.678 Z-39.7031 E0.0 F90.0 
G1 X146.359 Y271.683 Z-39.7031 E0.0 F120.0 
G1 X146.418 Y271.724 Z-39.7036 E0.0 
G1 X146.436 Y271.75 Z-39.703900000000004 E0.0 
G1 X146.442 Y271.788 Z-39.7043 E0.0 
G1 X146.432 Y271.835 Z-39.7047 E0.0 
G1 X146.403 Y271.878 Z-39.7051 E0.0 
G1 X146.371 Y271.903 Z-39.7053 E0.0 
G1 X146.33 Y271.91 Z-39.705400000000004 E0.0 
G1 X146.281 Y271.901 Z-39.705200000000005 E0.0 
G1 X146.258 Y271.886 Z-39.7051 E0.0 
G1 X146.242 Y271.858 Z-39.7048 E0.0 
G1 X146.233 Y271.795 Z-39.7042 E0.0 
G1 X146.24 Y271.744 Z-39.703700000000005 E0.0 
G1 X146.27 Y271.709 Z-39.7033 E0.0 
G1 X146.3 Y271.688 Z-39.7031 E0.0 
G1 X146.323 Y271.679 Z-39.7031 E0.0 
G1 X146.341 Y271.678 Z-39.7031 E0.0 
G1 X146.341 Y271.678 Z-38.5531 E0.0 
G1 X146.24 Y271.676 Z-38.553 E0.0 
G1 X146.138 Y271.675 Z-38.5529 E0.0 
G1 X146.037 Y271.673 Z-38.5529 E0.0 
G1 X145.935 Y271.671 Z-38.5528 E0.0 
G1 X145.834 Y271.67 Z-38.5528 E0.0 
G1 X145.732 Y271.668 Z-38.5528 E0.0 
G1 X145.631 Y271.666 Z-38.5528 E0.0 
G1 X145.53 Y271.665 Z-38.5528 E0.0 
G1 X145.428 Y271.663 Z-38.5528 E0.0 
G1 X145.327 Y271.661 Z-38.5529 E0.0 
G1 X145.225 Y271.66 Z-38.553 E0.0 
G1 X145.124 Y271.658 Z-38.5531 E0.0 
G1 X145.022 Y271.657 Z-38.5532 E0.0 
G1 X144.921 Y271.655 Z-38.553399999999996 E0.0 
G1 X144.819 Y271.653 Z-38.5535 E0.0 
G1 X144.718 Y271.652 Z-38.5537 E0.0 
G1 X144.617 Y271.65 Z-38.5539 E0.0 
G1 X144.515 Y271.648 Z-38.5542 E0.0 
G1 X144.414 Y271.647 Z-38.5545 E0.0 
G1 X144.312 Y271.645 Z-38.5547 E0.0 
G1 X144.211 Y271.643 Z-38.5551 E0.0 
G1 X144.109 Y271.642 Z-38.5554 E0.0 
G1 X144.008 Y271.64 Z-38.5558 E0.0 
G1 X143.907 Y271.638 Z-38.5562 E0.0 
G1 X143.805 Y271.637 Z-38.5566 E0.0 
G1 X143.704 Y271.635 Z-38.5571 E0.0 
G1 X143.602 Y271.633 Z-38.5576 E0.0 
G1 X143.501 Y271.632 Z-38.5581 E0.0 
G1 X143.399 Y271.63 Z-38.5586 E0.0 
G1 X143.298 Y271.628 Z-38.556 E0.0 
G1 X143.197 Y271.627 Z-38.5562 E0.0 
G1 X143.095 Y271.625 Z-38.5565 E0.0 
G1 X142.994 Y271.623 Z-38.5567 E0.0 
G1 X142.892 Y271.622 Z-38.557 E0.0 
G1 X142.791 Y271.62 Z-38.5573 E0.0 
G1 X142.689 Y271.619 Z-38.5576 E0.0 
G1 X142.588 Y271.617 Z-38.5579 E0.0 
G1 X142.486 Y271.615 Z-38.5581 E0.0 
G1 X142.385 Y271.614 Z-38.5585 E0.0 
G1 X142.284 Y271.612 Z-38.5588 E0.0 
G1 X142.182 Y271.61 Z-38.5591 E0.0 
G1 X142.081 Y271.609 Z-38.5594 E0.0 
G1 X141.979 Y271.607 Z-38.5597 E0.0 
G1 X141.878 Y271.605 Z-38.5601 E0.0 
G1 X141.776 Y271.604 Z-38.5604 E0.0 
G1 X141.675 Y271.602 Z-38.5608 E0.0 
G1 X141.675 Y271.602 Z-39.7108 E0.0 F90.0 
G1 X141.673 Y271.641 Z-39.7113 E0.0 F120.0 
G1 X141.661 Y271.682 Z-39.711800000000004 E0.0 
G1 X141.641 Y271.721 Z-39.7124 E0.0 
G1 X141.544 Y271.826 Z-39.714 E0.0 
G1 X141.481 Y271.864 Z-39.7147 E0.0 
G1 X141.416 Y271.882 Z-39.7152 E0.0 
G1 X141.348 Y271.881 Z-39.7154 E0.0 
G1 X141.282 Y271.863 Z-39.7155 E0.0 
G1 X141.22 Y271.827 Z-39.7153 E0.0 
G1 X141.167 Y271.776 Z-39.7149 E0.0 
G1 X141.127 Y271.71 Z-39.7142 E0.0 
G1 X141.105 Y271.634 Z-39.7134 E0.0 
G1 X141.107 Y271.576 Z-39.7127 E0.0 
G1 X141.132 Y271.498 Z-39.711600000000004 E0.0 
G1 X141.177 Y271.422 Z-39.7105 E0.0 
G1 X141.222 Y271.376 Z-39.7098 E0.0 
G1 X141.274 Y271.353 Z-39.7093 E0.0 
G1 X141.365 Y271.336 Z-39.7087 E0.0 
G1 X141.456 Y271.336 Z-39.708400000000005 E0.0 
G1 X141.502 Y271.348 Z-39.7083 E0.0 
G1 X141.544 Y271.383 Z-39.708600000000004 E0.0 
G1 X141.615 Y271.463 Z-39.7093 E0.0 
G1 X141.649 Y271.515 Z-39.7098 E0.0 
G1 X141.667 Y271.561 Z-39.710300000000004 E0.0 
G1 X141.675 Y271.602 Z-39.7108 E0.0 
G1 X141.675 Y271.602 Z-38.5608 E0.0 
G1 X141.758 Y271.534 Z-38.559599999999996 E0.0 
G1 X141.84 Y271.465 Z-38.5585 E0.0 
G1 X141.923 Y271.397 Z-38.5574 E0.0 
G1 X142.006 Y271.329 Z-38.5563 E0.0 
G1 X142.088 Y271.26 Z-38.5552 E0.0 
G1 X142.171 Y271.192 Z-38.5541 E0.0 
G1 X142.171 Y271.192 Z-39.704100000000004 E0.0 F90.0 
G1 X142.067 Y271.028 Z-39.702400000000004 E0.0 F120.0 
G1 X141.988 Y270.957 Z-39.7018 E0.0 
G1 X141.908 Y270.885 Z-39.7012 E0.0 
G1 X141.814 Y270.836 Z-39.700900000000004 E0.0 
G1 X141.72 Y270.787 Z-39.700700000000005 E0.0 
G1 X141.618 Y270.761 Z-39.700700000000005 E0.0 
G1 X141.517 Y270.734 Z-39.7008 E0.0 
G1 X141.412 Y270.731 Z-39.701100000000004 E0.0 
G1 X141.307 Y270.727 Z-39.7015 E0.0 
G1 X141.203 Y270.748 Z-39.702200000000005 E0.0 
G1 X141.098 Y270.768 Z-39.7029 E0.0 
G1 X141.0 Y270.814 Z-39.7038 E0.0 
G1 X140.902 Y270.86 Z-39.7048 E0.0 
G1 X140.818 Y270.931 Z-39.7061 E0.0 
G1 X140.734 Y271.002 Z-39.707300000000004 E0.0 
G1 X140.622 Y271.154 Z-39.7097 E0.0 
G1 X140.546 Y271.316 Z-39.712 E0.0 
G1 X140.506 Y271.487 Z-39.7142 E0.0 
G1 X140.5 Y271.661 Z-39.716300000000004 E0.0 
G1 X140.528 Y271.833 Z-39.7182 E0.0 
G1 X140.59 Y271.997 Z-39.7199 E0.0 
G1 X140.686 Y272.149 Z-39.7213 E0.0 
G1 X140.816 Y272.284 Z-39.722300000000004 E0.0 
G1 X140.981 Y272.394 Z-39.723 E0.0 
G1 X141.164 Y272.461 Z-39.723 E0.0 
G1 X141.354 Y272.486 Z-39.7226 E0.0 
G1 X141.544 Y272.472 Z-39.7217 E0.0 
G1 X141.727 Y272.42 Z-39.7204 E0.0 
G1 X141.897 Y272.331 Z-39.7187 E0.0 
G1 X142.044 Y272.204 Z-39.7167 E0.0 
G1 X142.154 Y272.051 Z-39.7145 E0.0 
G1 X142.17 Y272.019 Z-39.714 E0.0 
G1 X142.272 Y272.019 Z-39.7137 E0.0 
G1 X142.373 Y272.019 Z-39.713300000000004 E0.0 
G1 X142.475 Y272.019 Z-39.713 E0.0 
G1 X142.576 Y272.019 Z-39.7126 E0.0 
G1 X142.678 Y272.019 Z-39.7123 E0.0 
G1 X142.779 Y272.019 Z-39.712 E0.0 
G1 X142.881 Y272.019 Z-39.711600000000004 E0.0 
G1 X142.982 Y272.019 Z-39.7113 E0.0 
G1 X143.084 Y272.019 Z-39.711 E0.0 
G1 X143.185 Y272.019 Z-39.7107 E0.0 
G1 X143.287 Y272.019 Z-39.7104 E0.0 
G1 X143.389 Y272.019 Z-39.7132 E0.0 
G1 X143.49 Y272.019 Z-39.7126 E0.0 
G1 X143.592 Y272.019 Z-39.712 E0.0 
G1 X143.693 Y272.019 Z-39.711400000000005 E0.0 
G1 X143.795 Y272.019 Z-39.7109 E0.0 
G1 X143.896 Y272.019 Z-39.7104 E0.0 
G1 X143.998 Y272.019 Z-39.709900000000005 E0.0 
G1 X144.099 Y272.019 Z-39.7095 E0.0 
G1 X144.201 Y272.019 Z-39.7091 E0.0 
G1 X144.302 Y272.019 Z-39.7087 E0.0 
G1 X144.404 Y272.019 Z-39.7083 E0.0 
G1 X144.505 Y272.019 Z-39.708 E0.0 
G1 X144.607 Y272.019 Z-39.7077 E0.0 
G1 X144.709 Y272.019 Z-39.7075 E0.0 
G1 X144.81 Y272.019 Z-39.707300000000004 E0.0 
G1 X144.912 Y272.019 Z-39.707 E0.0 
G1 X145.013 Y272.019 Z-39.706900000000005 E0.0 
G1 X145.115 Y272.019 Z-39.7067 E0.0 
G1 X145.216 Y272.019 Z-39.7066 E0.0 
G1 X145.318 Y272.019 Z-39.7065 E0.0 
G1 X145.419 Y272.019 Z-39.7064 E0.0 
G1 X145.521 Y272.019 Z-39.7063 E0.0 
G1 X145.622 Y272.019 Z-39.7063 E0.0 
G1 X145.724 Y272.019 Z-39.7062 E0.0 
G1 X145.733 Y272.047 Z-39.7065 E0.0 
G1 X145.808 Y272.187 Z-39.7079 E0.0 
G1 X145.926 Y272.309 Z-39.7092 E0.0 
G1 X146.07 Y272.398 Z-39.710100000000004 E0.0 
G1 X146.223 Y272.44 Z-39.7106 E0.0 
G1 X146.308 Y272.451 Z-39.7108 E0.0 
G1 X146.383 Y272.525 Z-39.7117 E0.0 
G1 X146.458 Y272.6 Z-39.7125 E0.0 
G1 X146.533 Y272.674 Z-39.7134 E0.0 
G1 X146.608 Y272.749 Z-39.7143 E0.0 
G1 X146.683 Y272.823 Z-39.7152 E0.0 
G1 X146.758 Y272.898 Z-39.716100000000004 E0.0 
G1 X146.834 Y272.972 Z-39.7171 E0.0 
G1 X146.909 Y273.046 Z-39.718 E0.0 
G1 X146.984 Y273.121 Z-39.719 E0.0 
G1 X147.059 Y273.195 Z-39.72 E0.0 
G1 X147.134 Y273.27 Z-39.721000000000004 E0.0 
G1 X147.209 Y273.344 Z-39.722 E0.0 
G1 X147.227 Y273.36 Z-39.7222 E0.0 
G1 X147.248 Y273.372 Z-39.7224 E0.0 
G1 X147.27 Y273.382 Z-39.7226 E0.0 
G1 X147.294 Y273.387 Z-39.7227 E0.0 
G1 X147.317 Y273.389 Z-39.7228 E0.0 
G1 X147.418 Y273.389 Z-39.7231 E0.0 
G1 X147.519 Y273.39 Z-39.7234 E0.0 
G1 X147.62 Y273.39 Z-39.723600000000005 E0.0 
G1 X147.721 Y273.391 Z-39.7227 E0.0 
G1 X147.822 Y273.391 Z-39.7232 E0.0 
G1 X147.923 Y273.392 Z-39.7237 E0.0 
G1 X148.024 Y273.392 Z-39.7242 E0.0 
G1 X148.125 Y273.392 Z-39.7246 E0.0 
G1 X148.226 Y273.393 Z-39.725 E0.0 
G1 X148.326 Y273.393 Z-39.7254 E0.0 
G1 X148.427 Y273.394 Z-39.7258 E0.0 
G1 X148.528 Y273.394 Z-39.7262 E0.0 
G1 X148.629 Y273.395 Z-39.7265 E0.0 
G1 X148.73 Y273.395 Z-39.7269 E0.0 
G1 X148.831 Y273.395 Z-39.7272 E0.0 
G1 X148.932 Y273.396 Z-39.7275 E0.0 
G1 X149.033 Y273.396 Z-39.7278 E0.0 
G1 X149.134 Y273.397 Z-39.728 E0.0 
G1 X149.235 Y273.397 Z-39.728300000000004 E0.0 
G1 X149.336 Y273.398 Z-39.728500000000004 E0.0 
G1 X149.437 Y273.398 Z-39.7287 E0.0 
G1 X149.538 Y273.399 Z-39.7289 E0.0 
G1 X149.639 Y273.399 Z-39.7291 E0.0 
G1 X149.74 Y273.399 Z-39.7293 E0.0 
G1 X149.841 Y273.4 Z-39.7295 E0.0 
G1 X149.942 Y273.4 Z-39.729600000000005 E0.0 
G1 X150.043 Y273.401 Z-39.729800000000004 E0.0 
G1 X150.143 Y273.401 Z-39.7299 E0.0 
G1 X150.244 Y273.402 Z-39.7301 E0.0 
G1 X150.345 Y273.402 Z-39.7302 E0.0 
G1 X150.446 Y273.402 Z-39.7303 E0.0 
G1 X150.547 Y273.403 Z-39.7304 E0.0 
G1 X150.648 Y273.403 Z-39.7305 E0.0 
G1 X150.749 Y273.404 Z-39.7306 E0.0 
G1 X150.85 Y273.404 Z-39.7307 E0.0 
G1 X150.951 Y273.405 Z-39.7308 E0.0 
G1 X151.052 Y273.405 Z-39.7308 E0.0 
G1 X151.072 Y273.404 Z-39.7308 E0.0 
G1 X151.092 Y273.4 Z-39.7308 E0.0 
G1 X151.112 Y273.393 Z-39.7307 E0.0 
G1 X151.13 Y273.384 Z-39.7306 E0.0 
G1 X151.147 Y273.373 Z-39.7305 E0.0 
G1 X151.162 Y273.36 Z-39.7303 E0.0 
G1 X151.233 Y273.289 Z-39.7295 E0.0 
G1 X151.304 Y273.218 Z-39.7287 E0.0 
G1 X151.376 Y273.147 Z-39.7279 E0.0 
G1 X151.447 Y273.076 Z-39.727000000000004 E0.0 
G1 X151.518 Y273.004 Z-39.7262 E0.0 
G1 X151.589 Y272.933 Z-39.7254 E0.0 
G1 X151.66 Y272.862 Z-39.7246 E0.0 
G1 X151.732 Y272.791 Z-39.723800000000004 E0.0 
G1 X151.803 Y272.72 Z-39.7231 E0.0 
G1 X151.874 Y272.649 Z-39.722300000000004 E0.0 
G1 X151.945 Y272.578 Z-39.7215 E0.0 
G1 X152.016 Y272.507 Z-39.7209 E0.0 
G1 X152.087 Y272.435 Z-39.7201 E0.0 
G1 X152.159 Y272.364 Z-39.7194 E0.0 
G1 X152.23 Y272.293 Z-39.7186 E0.0 
G1 X152.301 Y272.222 Z-39.7179 E0.0 
G1 X152.372 Y272.151 Z-39.7171 E0.0 
G1 X152.443 Y272.08 Z-39.7164 E0.0 
G1 X152.515 Y272.009 Z-39.7157 E0.0 
G1 X152.586 Y271.938 Z-39.715 E0.0 
G1 X152.657 Y271.866 Z-39.7143 E0.0 
G1 X152.728 Y271.795 Z-39.7136 E0.0 
G1 X152.799 Y271.724 Z-39.712900000000005 E0.0 
G1 X152.871 Y271.653 Z-39.7122 E0.0 
G1 X152.942 Y271.582 Z-39.711600000000004 E0.0 
G1 X153.013 Y271.511 Z-39.7109 E0.0 
G1 X153.084 Y271.44 Z-39.710300000000004 E0.0 
G1 X153.155 Y271.369 Z-39.7096 E0.0 
G1 X153.227 Y271.297 Z-39.709 E0.0 
G1 X153.298 Y271.226 Z-39.708400000000005 E0.0 
G1 X153.369 Y271.155 Z-39.7078 E0.0 
G1 X153.44 Y271.084 Z-39.7072 E0.0 
G1 X153.511 Y271.013 Z-39.7066 E0.0 
G1 X153.583 Y270.942 Z-39.706 E0.0 
G1 X153.654 Y270.871 Z-39.705400000000004 E0.0 
G1 X153.725 Y270.8 Z-39.7049 E0.0 
G1 X153.796 Y270.729 Z-39.7043 E0.0 
G1 X153.867 Y270.657 Z-39.7038 E0.0 
G1 X153.938 Y270.586 Z-39.7032 E0.0 
G1 X154.01 Y270.515 Z-39.7027 E0.0 
G1 X154.081 Y270.444 Z-39.702200000000005 E0.0 
G1 X154.152 Y270.373 Z-39.7017 E0.0 
G1 X154.223 Y270.302 Z-39.7012 E0.0 
G1 X154.294 Y270.231 Z-39.7008 E0.0 
G1 X154.366 Y270.16 Z-39.7003 E0.0 
G1 X154.437 Y270.088 Z-39.6998 E0.0 
G1 X154.508 Y270.017 Z-39.699400000000004 E0.0 
G1 X154.579 Y269.946 Z-39.699 E0.0 
G1 X154.65 Y269.875 Z-39.6985 E0.0 
G1 X154.722 Y269.804 Z-39.698100000000004 E0.0 
G1 X154.793 Y269.733 Z-39.697700000000005 E0.0 
G1 X154.864 Y269.662 Z-39.6973 E0.0 
G1 X154.935 Y269.591 Z-39.6969 E0.0 
G1 X155.006 Y269.519 Z-39.6965 E0.0 
G1 X155.078 Y269.448 Z-39.696200000000005 E0.0 
G1 X155.149 Y269.377 Z-39.6958 E0.0 
G1 X155.22 Y269.306 Z-39.6955 E0.0 
G1 X155.291 Y269.235 Z-39.695100000000004 E0.0 
G1 X155.362 Y269.164 Z-39.6948 E0.0 
G1 X155.434 Y269.093 Z-39.6945 E0.0 
G1 X155.505 Y269.022 Z-39.6941 E0.0 
G1 X155.576 Y268.95 Z-39.6938 E0.0 
G1 X155.647 Y268.879 Z-39.6935 E0.0 
G1 X155.718 Y268.808 Z-39.693200000000004 E0.0 
G1 X155.789 Y268.737 Z-39.6929 E0.0 
G1 X155.861 Y268.666 Z-39.6927 E0.0 
G1 X155.932 Y268.595 Z-39.6924 E0.0 
G1 X156.003 Y268.524 Z-39.6921 E0.0 
G1 X156.074 Y268.453 Z-39.6918 E0.0 
G1 X156.145 Y268.382 Z-39.6916 E0.0 
G1 X156.217 Y268.31 Z-39.6913 E0.0 
G1 X156.288 Y268.239 Z-39.6911 E0.0 
G1 X156.359 Y268.168 Z-39.6908 E0.0 
G1 X156.43 Y268.097 Z-39.6906 E0.0 
G1 X156.501 Y268.026 Z-39.6903 E0.0 
G1 X156.573 Y267.955 Z-39.6901 E0.0 
G1 X156.644 Y267.884 Z-39.6898 E0.0 
G1 X156.715 Y267.813 Z-39.6896 E0.0 
G1 X156.786 Y267.741 Z-39.6894 E0.0 
G1 X156.857 Y267.67 Z-39.6891 E0.0 
G1 X156.929 Y267.599 Z-39.688900000000004 E0.0 
G1 X157.0 Y267.528 Z-39.6886 E0.0 
G1 X157.071 Y267.457 Z-39.6884 E0.0 
G1 X157.142 Y267.386 Z-39.6882 E0.0 
G1 X157.213 Y267.315 Z-39.6879 E0.0 
G1 X157.285 Y267.244 Z-39.6877 E0.0 
G1 X157.356 Y267.172 Z-39.6875 E0.0 
G1 X157.427 Y267.101 Z-39.687200000000004 E0.0 
G1 X157.498 Y267.03 Z-39.687000000000005 E0.0 
G1 X157.569 Y266.959 Z-39.6871 E0.0 
G1 X157.64 Y266.888 Z-39.6868 E0.0 
G1 X157.712 Y266.817 Z-39.6866 E0.0 
G1 X157.783 Y266.746 Z-39.6864 E0.0 
G1 X157.854 Y266.675 Z-39.6862 E0.0 
G1 X157.925 Y266.603 Z-39.685900000000004 E0.0 
G1 X157.996 Y266.532 Z-39.685700000000004 E0.0 
G1 X158.068 Y266.461 Z-39.685500000000005 E0.0 
G1 X158.139 Y266.39 Z-39.6852 E0.0 
G1 X158.21 Y266.319 Z-39.685 E0.0 
G1 X158.295 Y266.167 Z-39.684200000000004 E0.0 
G1 X158.295 Y266.065 Z-39.6834 E0.0 
G1 X158.295 Y265.964 Z-39.6826 E0.0 
G1 X158.295 Y265.862 Z-39.6818 E0.0 
G1 X158.295 Y265.761 Z-39.681000000000004 E0.0 
G1 X158.295 Y265.659 Z-39.6802 E0.0 
G1 X158.295 Y265.558 Z-39.6794 E0.0 
G1 X158.295 Y265.456 Z-39.6786 E0.0 
G1 X158.295 Y265.355 Z-39.677800000000005 E0.0 
G1 X158.295 Y265.253 Z-39.677 E0.0 
G1 X158.295 Y265.152 Z-39.6762 E0.0 
G1 X158.295 Y265.05 Z-39.6755 E0.0 
G1 X158.295 Y264.949 Z-39.6747 E0.0 
G1 X158.295 Y264.847 Z-39.6739 E0.0 
G1 X158.295 Y264.746 Z-39.6731 E0.0 
G1 X158.295 Y264.644 Z-39.6723 E0.0 
G1 X158.295 Y264.543 Z-39.6715 E0.0 
G1 X158.295 Y264.441 Z-39.670700000000004 E0.0 
G1 X158.295 Y264.34 Z-39.6699 E0.0 
G1 X158.295 Y264.238 Z-39.6691 E0.0 
G1 X158.295 Y264.137 Z-39.6683 E0.0 
G1 X158.295 Y264.035 Z-39.667500000000004 E0.0 
G1 X158.295 Y263.934 Z-39.6667 E0.0 
G1 X158.295 Y263.832 Z-39.6659 E0.0 
G1 X158.295 Y263.731 Z-39.6651 E0.0 
G1 X158.295 Y263.629 Z-39.664300000000004 E0.0 
G1 X158.295 Y263.527 Z-39.6635 E0.0 
G1 X158.295 Y263.426 Z-39.6627 E0.0 
G1 X158.295 Y263.324 Z-39.6619 E0.0 
G1 X158.295 Y263.223 Z-39.661100000000005 E0.0 
G1 X158.295 Y263.121 Z-39.6603 E0.0 
G1 X158.295 Y263.02 Z-39.6595 E0.0 
G1 X158.295 Y262.918 Z-39.6574 E0.0 
G1 X158.295 Y262.817 Z-39.656600000000005 E0.0 
G1 X158.295 Y262.715 Z-39.6558 E0.0 
G1 X158.295 Y262.614 Z-39.654900000000005 E0.0 
G1 X158.295 Y262.512 Z-39.6542 E0.0 
G1 X158.295 Y262.411 Z-39.653400000000005 E0.0 
G1 X158.295 Y262.309 Z-39.6526 E0.0 
G1 X158.295 Y262.208 Z-39.651900000000005 E0.0 
G1 X158.295 Y262.106 Z-39.6512 E0.0 
G1 X158.295 Y262.005 Z-39.6505 E0.0 
G1 X158.295 Y261.903 Z-39.6498 E0.0 
G1 X158.295 Y261.802 Z-39.6492 E0.0 
G1 X158.295 Y261.7 Z-39.6485 E0.0 
G1 X158.295 Y261.599 Z-39.6479 E0.0 
G1 X158.295 Y261.497 Z-39.647400000000005 E0.0 
G1 X158.295 Y261.396 Z-39.6468 E0.0 
G1 X158.295 Y261.294 Z-39.646300000000004 E0.0 
G1 X158.295 Y261.193 Z-39.645900000000005 E0.0 
G1 X158.295 Y261.091 Z-39.6454 E0.0 
G1 X158.294 Y260.969 Z-39.645 E0.0 
G1 X158.292 Y260.945 Z-39.6449 E0.0 
G1 X158.286 Y260.921 Z-39.6447 E0.0 
G1 X158.277 Y260.899 Z-39.644600000000004 E0.0 
G1 X158.264 Y260.878 Z-39.6445 E0.0 
G1 X158.249 Y260.86 Z-39.644400000000005 E0.0 
G1 X158.177 Y260.788 Z-39.6439 E0.0 
G1 X158.105 Y260.717 Z-39.6433 E0.0 
G1 X158.033 Y260.645 Z-39.6428 E0.0 
G1 X157.961 Y260.573 Z-39.6424 E0.0 
G1 X157.889 Y260.502 Z-39.6419 E0.0 
G1 X157.817 Y260.43 Z-39.641400000000004 E0.0 
G1 X157.745 Y260.358 Z-39.641 E0.0 
G1 X157.673 Y260.286 Z-39.6405 E0.0 
G1 X157.601 Y260.215 Z-39.640100000000004 E0.0 
G1 X157.529 Y260.143 Z-39.639700000000005 E0.0 
G1 X157.457 Y260.071 Z-39.6392 E0.0 
G1 X157.385 Y260.0 Z-39.6388 E0.0 
G1 X157.313 Y259.928 Z-39.638400000000004 E0.0 
G1 X157.241 Y259.856 Z-39.6379 E0.0 
G1 X157.168 Y259.785 Z-39.6375 E0.0 
G1 X157.096 Y259.713 Z-39.637100000000004 E0.0 
G1 X157.024 Y259.641 Z-39.6366 E0.0 
G1 X156.952 Y259.57 Z-39.6362 E0.0 
G1 X156.88 Y259.498 Z-39.6357 E0.0 
G1 X156.808 Y259.426 Z-39.635200000000005 E0.0 
G1 X156.736 Y259.355 Z-39.6348 E0.0 
G1 X156.664 Y259.283 Z-39.6343 E0.0 
G1 X156.592 Y259.211 Z-39.633700000000005 E0.0 
G1 X156.52 Y259.139 Z-39.6332 E0.0 
G1 X156.448 Y259.068 Z-39.632600000000004 E0.0 
G1 X156.376 Y258.996 Z-39.632 E0.0 
G1 X156.304 Y258.924 Z-39.631 E0.0 
G1 X156.232 Y258.853 Z-39.6302 E0.0 
G1 X156.16 Y258.781 Z-39.629400000000004 E0.0 
G1 X156.159 Y258.681 Z-39.629200000000004 E0.0 
G1 X156.158 Y258.581 Z-39.6289 E0.0 
G1 X156.158 Y258.481 Z-39.6287 E0.0 
G1 X156.157 Y258.38 Z-39.6284 E0.0 
G1 X156.156 Y258.28 Z-39.6281 E0.0 
G1 X156.155 Y258.18 Z-39.627900000000004 E0.0 
G1 X156.154 Y258.08 Z-39.6276 E0.0 
G1 X156.154 Y257.98 Z-39.6272 E0.0 
G1 X156.153 Y257.88 Z-39.6269 E0.0 
G1 X156.152 Y257.779 Z-39.6266 E0.0 
G1 X156.151 Y257.679 Z-39.626200000000004 E0.0 
G1 X156.15 Y257.579 Z-39.6258 E0.0 
G1 X156.15 Y257.479 Z-39.6254 E0.0 
G1 X156.149 Y257.379 Z-39.624900000000004 E0.0 
G1 X156.148 Y257.279 Z-39.624500000000005 E0.0 
G1 X156.147 Y257.179 Z-39.624 E0.0 
G1 X156.146 Y257.078 Z-39.623400000000004 E0.0 
G1 X156.146 Y256.978 Z-39.6229 E0.0 
G1 X156.145 Y256.878 Z-39.6223 E0.0 
G1 X156.144 Y256.778 Z-39.6216 E0.0 
G1 X156.142 Y256.754 Z-39.621500000000005 E0.0 
G1 X156.136 Y256.731 Z-39.6212 E0.0 
G1 X156.127 Y256.708 Z-39.621 E0.0 
G1 X156.114 Y256.688 Z-39.6207 E0.0 
G1 X156.099 Y256.67 Z-39.620400000000004 E0.0 
G1 X156.027 Y256.598 Z-39.619 E0.0 
G1 X155.956 Y256.527 Z-39.6176 E0.0 
G1 X155.884 Y256.455 Z-39.6162 E0.0 
G1 X155.813 Y256.383 Z-39.6148 E0.0 
G1 X155.741 Y256.312 Z-39.6135 E0.0 
G1 X155.669 Y256.24 Z-39.6121 E0.0 
G1 X155.598 Y256.169 Z-39.610800000000005 E0.0 
G1 X155.526 Y256.097 Z-39.6094 E0.0 
G1 X155.455 Y256.025 Z-39.608200000000004 E0.0 
G1 X155.383 Y255.954 Z-39.6069 E0.0 
G1 X155.311 Y255.882 Z-39.6057 E0.0 
G1 X155.24 Y255.81 Z-39.6045 E0.0 
G1 X155.168 Y255.739 Z-39.603300000000004 E0.0 
G1 X155.097 Y255.667 Z-39.6022 E0.0 
G1 X155.025 Y255.596 Z-39.6011 E0.0 
G1 X154.953 Y255.524 Z-39.600100000000005 E0.0 
G1 X154.882 Y255.452 Z-39.5991 E0.0 
G1 X154.81 Y255.381 Z-39.5982 E0.0 
G1 X154.739 Y255.309 Z-39.5974 E0.0 
G1 X154.667 Y255.237 Z-39.5966 E0.0 
G1 X154.595 Y255.166 Z-39.595800000000004 E0.0 
G1 X154.524 Y255.094 Z-39.5952 E0.0 
G1 X154.452 Y255.022 Z-39.594500000000004 E0.0 
G1 X154.381 Y254.951 Z-39.5927 E0.0 
G1 X154.309 Y254.879 Z-39.592 E0.0 
G1 X154.237 Y254.808 Z-39.591300000000004 E0.0 
G1 X154.166 Y254.736 Z-39.5907 E0.0 
G1 X154.094 Y254.664 Z-39.5901 E0.0 
G1 X154.023 Y254.593 Z-39.5895 E0.0 
G1 X153.951 Y254.521 Z-39.589 E0.0 
G1 X153.879 Y254.449 Z-39.5885 E0.0 
G1 X153.808 Y254.378 Z-39.588 E0.0 
G1 X153.736 Y254.306 Z-39.5876 E0.0 
G1 X153.665 Y254.234 Z-39.5872 E0.0 
G1 X153.593 Y254.163 Z-39.586800000000004 E0.0 
G1 X153.521 Y254.091 Z-39.5865 E0.0 
G1 X153.45 Y254.02 Z-39.5861 E0.0 
G1 X153.378 Y253.948 Z-39.5858 E0.0 
G1 X153.307 Y253.876 Z-39.5855 E0.0 
G1 X153.235 Y253.805 Z-39.5852 E0.0 
G1 X153.163 Y253.733 Z-39.585 E0.0 
G1 X153.092 Y253.661 Z-39.5847 E0.0 
G1 X153.02 Y253.59 Z-39.5845 E0.0 
G1 X152.949 Y253.518 Z-39.5842 E0.0 
G1 X152.877 Y253.447 Z-39.584 E0.0 
G1 X152.805 Y253.375 Z-39.583800000000004 E0.0 
G1 X152.734 Y253.303 Z-39.583600000000004 E0.0 
G1 X152.662 Y253.232 Z-39.583400000000005 E0.0 
G1 X152.591 Y253.16 Z-39.5832 E0.0 
G1 X152.519 Y253.088 Z-39.5829 E0.0 
G1 X152.447 Y253.017 Z-39.5827 E0.0 
G1 X152.376 Y252.945 Z-39.5825 E0.0 
G1 X152.304 Y252.873 Z-39.582300000000004 E0.0 
G1 X152.233 Y252.802 Z-39.5822 E0.0 
G1 X152.161 Y252.73 Z-39.582 E0.0 
G1 X152.089 Y252.659 Z-39.5818 E0.0 
G1 X152.018 Y252.587 Z-39.5816 E0.0 
G1 X151.946 Y252.515 Z-39.5807 E0.0 
G1 X151.875 Y252.444 Z-39.5805 E0.0 
G1 X151.803 Y252.372 Z-39.580400000000004 E0.0 
G1 X151.8 Y252.269 Z-39.5801 E0.0 
G1 X151.797 Y252.167 Z-39.5799 E0.0 
G1 X151.794 Y252.064 Z-39.5796 E0.0 
G1 X151.792 Y251.961 Z-39.5794 E0.0 
G1 X151.789 Y251.859 Z-39.579100000000004 E0.0 
G1 X151.786 Y251.756 Z-39.578900000000004 E0.0 
G1 X151.784 Y251.733 Z-39.5788 E0.0 
G1 X151.778 Y251.71 Z-39.5788 E0.0 
G1 X151.769 Y251.689 Z-39.578700000000005 E0.0 
G1 X151.756 Y251.669 Z-39.578700000000005 E0.0 
G1 X151.741 Y251.651 Z-39.5786 E0.0 
G1 X151.668 Y251.578 Z-39.5785 E0.0 
G1 X151.596 Y251.506 Z-39.5783 E0.0 
G1 X151.523 Y251.433 Z-39.5781 E0.0 
G1 X151.451 Y251.36 Z-39.578 E0.0 
G1 X151.378 Y251.288 Z-39.5778 E0.0 
G1 X151.306 Y251.215 Z-39.577600000000004 E0.0 
G1 X151.233 Y251.143 Z-39.5775 E0.0 
G1 X151.161 Y251.07 Z-39.5773 E0.0 
G1 X151.088 Y250.997 Z-39.577200000000005 E0.0 
G1 X151.016 Y250.925 Z-39.578 E0.0 
G1 X150.943 Y250.852 Z-39.5778 E0.0 
G1 X150.944 Y250.723 Z-39.577600000000004 E0.0 
G1 X150.904 Y250.573 Z-39.5773 E0.0 
G1 X150.838 Y250.429 Z-39.577 E0.0 
G1 X150.753 Y250.316 Z-39.5768 E0.0 
G1 X150.704 Y250.269 Z-39.5767 E0.0 
G1 X150.704 Y250.168 Z-39.5765 E0.0 
G1 X150.703 Y250.068 Z-39.5763 E0.0 
G1 X150.703 Y249.968 Z-39.576100000000004 E0.0 
G1 X150.702 Y249.867 Z-39.575900000000004 E0.0 
G1 X150.702 Y249.767 Z-39.5756 E0.0 
G1 X150.702 Y249.666 Z-39.5754 E0.0 
G1 X150.701 Y249.566 Z-39.5752 E0.0 
G1 X150.701 Y249.465 Z-39.575 E0.0 
G1 X150.7 Y249.365 Z-39.5747 E0.0 
G1 X150.7 Y249.264 Z-39.5745 E0.0 
G1 X150.637 Y249.104 Z-39.574 E0.0 
G1 X150.566 Y249.033 Z-39.5737 E0.0 
G1 X150.495 Y248.963 Z-39.5735 E0.0 
G1 X150.425 Y248.892 Z-39.5732 E0.0 
G1 X150.354 Y248.821 Z-39.572900000000004 E0.0 
G1 X150.283 Y248.75 Z-39.572700000000005 E0.0 
G1 X150.212 Y248.68 Z-39.5724 E0.0 
G1 X150.142 Y248.609 Z-39.5721 E0.0 
G1 X150.071 Y248.538 Z-39.5718 E0.0 
G1 X150.0 Y248.467 Z-39.571600000000004 E0.0 
G1 X149.929 Y248.397 Z-39.5713 E0.0 
G1 X149.858 Y248.326 Z-39.571 E0.0 
G1 X149.788 Y248.255 Z-39.5707 E0.0 
G1 X149.717 Y248.184 Z-39.5705 E0.0 
G1 X149.646 Y248.114 Z-39.5702 E0.0 
G1 X149.575 Y248.043 Z-39.569900000000004 E0.0 
G1 X149.504 Y247.972 Z-39.5696 E0.0 
G1 X149.434 Y247.901 Z-39.5694 E0.0 
G1 X149.363 Y247.831 Z-39.5691 E0.0 
G1 X149.292 Y247.76 Z-39.5688 E0.0 
G1 X149.221 Y247.689 Z-39.5686 E0.0 
G1 X149.15 Y247.618 Z-39.5683 E0.0 
G1 X149.08 Y247.548 Z-39.5681 E0.0 
G1 X149.009 Y247.477 Z-39.5679 E0.0 
G1 X148.938 Y247.406 Z-39.5676 E0.0 
G1 X148.867 Y247.335 Z-39.5674 E0.0 
G1 X148.797 Y247.265 Z-39.5672 E0.0 
G1 X148.726 Y247.194 Z-39.567 E0.0 
G1 X148.655 Y247.123 Z-39.5668 E0.0 
G1 X148.655 Y247.016 Z-39.5663 E0.0 
G1 X148.655 Y246.908 Z-39.566 E0.0 
G1 X148.655 Y246.8 Z-39.5656 E0.0 
G1 X148.655 Y246.693 Z-39.565200000000004 E0.0 
G1 X148.655 Y246.586 Z-39.5648 E0.0 
G1 X148.655 Y246.478 Z-39.5644 E0.0 
G1 X148.655 Y246.37 Z-39.564 E0.0 
G1 X148.655 Y246.263 Z-39.563700000000004 E0.0 
G1 X148.716 Y246.208 Z-39.5633 E0.0 
G1 X148.828 Y246.081 Z-39.5626 E0.0 
G1 X148.906 Y245.929 Z-39.562000000000005 E0.0 
G1 X148.944 Y245.767 Z-39.5614 E0.0 
G1 X148.943 Y245.604 Z-39.560900000000004 E0.0 
G1 X148.902 Y245.446 Z-39.5606 E0.0 
G1 X148.823 Y245.301 Z-39.5604 E0.0 
G1 X148.707 Y245.177 Z-39.560500000000005 E0.0 
G1 X148.56 Y245.085 Z-39.560700000000004 E0.0 
G1 X148.408 Y245.027 Z-39.5611 E0.0 
G1 X148.267 Y244.998 Z-39.5616 E0.0 
G1 X148.149 Y245.026 Z-39.5621 E0.0 
G1 X148.032 Y245.053 Z-39.5627 E0.0 
G1 X147.904 Y245.115 Z-39.5634 E0.0 
G1 X147.794 Y245.191 Z-39.5642 E0.0 
G1 X147.706 Y245.297 Z-39.5649 E0.0 
G1 X147.637 Y245.421 Z-39.5631 E0.0 
G1 X147.587 Y245.553 Z-39.563500000000005 E0.0 
G1 X147.565 Y245.69 Z-39.563900000000004 E0.0 
G1 X147.593 Y245.841 Z-39.5642 E0.0 
G1 X147.655 Y245.994 Z-39.5645 E0.0 
G1 X147.739 Y246.135 Z-39.566700000000004 E0.0 
G1 X147.834 Y246.235 Z-39.566500000000005 E0.0 
G1 X147.855 Y246.249 Z-39.566500000000005 E0.0 
G1 X147.855 Y246.355 Z-39.5668 E0.0 
G1 X147.855 Y246.461 Z-39.5671 E0.0 
G1 X147.855 Y246.568 Z-39.5674 E0.0 
G1 X147.855 Y246.674 Z-39.5678 E0.0 
G1 X147.855 Y246.78 Z-39.5681 E0.0 
G1 X147.855 Y246.886 Z-39.5685 E0.0 
G1 X147.855 Y246.992 Z-39.5687 E0.0 
G1 X147.855 Y247.098 Z-39.5691 E0.0 
G1 X147.855 Y247.205 Z-39.5695 E0.0 
G1 X147.855 Y247.311 Z-39.569900000000004 E0.0 
G1 X147.855 Y247.417 Z-39.5703 E0.0 
G1 X147.857 Y247.441 Z-39.5703 E0.0 
G1 X147.863 Y247.464 Z-39.5704 E0.0 
G1 X147.872 Y247.487 Z-39.5705 E0.0 
G1 X147.885 Y247.508 Z-39.5705 E0.0 
G1 X147.901 Y247.526 Z-39.5705 E0.0 
G1 X147.974 Y247.599 Z-39.5705 E0.0 
G1 X148.047 Y247.672 Z-39.5706 E0.0 
G1 X148.12 Y247.746 Z-39.5706 E0.0 
G1 X148.194 Y247.819 Z-39.5707 E0.0 
G1 X148.267 Y247.892 Z-39.5708 E0.0 
G1 X148.34 Y247.965 Z-39.5709 E0.0 
G1 X148.413 Y248.039 Z-39.571 E0.0 
G1 X148.486 Y248.112 Z-39.5711 E0.0 
G1 X148.559 Y248.185 Z-39.5713 E0.0 
G1 X148.632 Y248.258 Z-39.571400000000004 E0.0 
G1 X148.706 Y248.331 Z-39.571600000000004 E0.0 
G1 X148.779 Y248.405 Z-39.5717 E0.0 
G1 X148.852 Y248.478 Z-39.5719 E0.0 
G1 X148.925 Y248.551 Z-39.5721 E0.0 
G1 X148.998 Y248.624 Z-39.5722 E0.0 
