;START
;%
;(VECTRIC POST REVISION)
;(2913AB479EA3000D32B9C42F7F010597)
;O0001
;G17 G90 G21 G40 G80
;G08 P1
;T0
;(TOOL#1)
;T1
;M11
;G0 G90 X0.000 Y0.000 M13 S12000
;G0 G43 Z20.000 H1
G0 X6.100 Y8.437 
G0   Z1.000
G1   Z-0.100F180.0
G1 X6.096 Y8.463 
G1 X6.131 Y8.526 
G1 X6.206 Y8.689 
G1 X6.297 Y8.956 
G1 X6.400 Y9.236 
G1 X6.502 Y9.431 
G1 X6.587 Y9.527 
G1 X6.689 Y9.614 
G1 X6.809 Y9.691 
G1 X6.947 Y9.759 
G1 X7.278 Y9.867 
G1 X7.683 Y9.938 
G1 X7.845 Y9.951 
G1 X7.913 Y9.943 
G1  Y9.920 
G1 X7.717 Y9.502 
G1 X7.599 Y9.267 
G1 X7.481 Y9.072 
G1 X7.359 Y8.914 
G1 X7.225 Y8.786 
G1 X7.074 Y8.685 
G1 X6.900 Y8.606 
G1 X6.697 Y8.544 
G1 X6.460 Y8.494 
G1 X6.133 Y8.437 
G1 X6.100 Y8.437 
G0   Z1.000
G0 X5.513 Y9.161 
G1   Z-0.100F180.0
G1 X5.341 Y9.200 
G1 X5.186 Y9.247 
G1 X5.063 Y9.305 
G1 X4.976 Y9.372 
G1 X4.930 Y9.445 
G1 X4.927 Y9.498 
G1 X4.949 Y9.554 
G1 X4.996 Y9.613 
G1 X5.067 Y9.674 
G1 X5.277 Y9.803 
G1 X5.572 Y9.938 
G1 X5.945 Y10.075 
G1 X6.389 Y10.213 
G1 X6.897 Y10.347 
G1 X7.462 Y10.476 
G1 X8.032 Y10.597 
G1 X8.092  
G1 X8.130 Y10.579 
G1 X8.150 Y10.531 
G1 X8.149 Y10.461 
G1 X8.128 Y10.378 
G1 X8.054 Y10.304 
G1 X7.913 Y10.217 
G1 X7.723 Y10.121 
G1 X6.105 Y9.678 
G1 X5.899 Y9.567 
G1 X5.724 Y9.447 
G1 X5.661 Y9.380 
G1 X5.613 Y9.307 
G1 X5.550 Y9.202 
G1 X5.513 Y9.161 
G0   Z1.000
G0 X5.339 Y10.277 
G1   Z-0.100F180.0
G1 X5.093 Y10.285 
G1 X5.373 Y10.340 
G1 X5.955 Y10.473 
G1 X6.191 Y10.545 
G1 X6.400 Y10.626 
G1 X6.590 Y10.718 
G1 X6.771 Y10.826 
G1 X6.949 Y10.953 
G1 X7.133 Y11.103 
G1 X7.446 Y11.358 
G1 X7.693 Y11.539 
G1 X7.928 Y11.666 
G1 X8.205 Y11.776 
G1 X8.504 Y11.862 
G1 X8.809 Y11.919 
G1 X9.151 Y11.965 
G1 X9.185 Y11.951 
G1 X9.203 Y11.932 
G1 X9.206 Y11.895 
G1 X9.173 Y11.786 
G1 X9.098 Y11.647 
G1 X8.991 Y11.505 
G1 X8.767 Y11.296 
G1 X8.477 Y11.099 
G1 X8.128 Y10.916 
G1 X7.728 Y10.751 
G1 X7.284 Y10.606 
G1 X6.806 Y10.483 
G1 X6.301 Y10.387 
G1 X5.776 Y10.320 
G1 X5.339 Y10.277 
G0   Z1.000
G0 X6.099 Y11.184 
G1   Z-0.100F180.0
G1 X6.080 Y11.247 
G1 X6.073 Y11.361 
G1 X6.079 Y11.444 
G1 X6.105 Y11.512 
G1 X6.160 Y11.582 
G1 X6.254 Y11.670 
G1 X6.462 Y11.816 
G1 X6.784 Y11.979 
G1 X7.238 Y12.169 
G1 X7.842 Y12.395 
G1 X8.948 Y12.816 
G1 X9.403 Y13.004 
G1 X9.447 Y12.960 
G1 X9.481 Y12.879 
G1 X9.489 Y12.756 
G1 X9.473 Y12.631 
G1 X9.434 Y12.540 
G1 X9.326 Y12.457 
G1 X9.144 Y12.353 
G1 X8.911 Y12.236 
G1 X7.413 Y11.800 
G1 X7.038 Y11.653 
G1 X6.697 Y11.499 
G1 X6.403 Y11.332 
G1 X6.142 Y11.157 
G1 X6.134  
G1 X6.099 Y11.184 
G0   Z1.000
G0 X8.258 Y9.436 
G1   Z-0.100F180.0
G1 X8.326 Y9.493 
G1 X8.412 Y9.514 
G1 X8.552 Y9.517 
G1 X8.753 Y9.501 
G1 X8.916 Y9.451 
G1 X9.052 Y9.361 
G1 X9.170 Y9.227 
G1 X9.266 Y9.048 
G1 X9.306 Y8.852 
G1 X9.289 Y8.634 
G1 X9.216 Y8.386 
G1 X9.148 Y8.186 
G1 X9.118 Y8.037 
G1 X9.126 Y7.917 
G1 X9.169 Y7.804 
G1 X9.237 Y7.706 
G1 X9.341 Y7.592 
G1 X9.592 Y7.382 
G1 X9.658 Y7.325 
G1 X9.532 Y7.319 
G1 X9.373 Y7.321 
G1 X8.917 Y7.416 
G1 X8.511 Y7.511 
G1 X8.207 Y7.610 
G1 X7.980 Y7.722 
G1 X7.805 Y7.857 
G1 X7.663 Y8.022 
G1 X7.639 Y8.095 
G1 X7.633 Y8.186 
G1 X7.646 Y8.275 
G1 X7.683 Y8.396 
G1 X7.812 Y8.703 
G1 X7.986 Y9.037 
G1 X8.173 Y9.327 
G1 X8.258 Y9.436 
G0   Z1.000
G0 X9.776 Y8.238 
G1   Z-0.100F180.0
G1 X9.865 Y8.322 
G1 X9.941 Y8.356 
G1 X10.113 Y8.312 
G1 X10.401 Y8.194 
G1 X10.752 Y8.026 
G1 X11.113 Y7.834 
G1 X11.613 Y7.550 
G1 X11.841 Y7.433 
G1 X12.017 Y7.315 
G1 X12.186 Y7.154 
G1 X12.325 Y6.976 
G1 X12.409 Y6.807 
G1 X12.417 Y6.748 
G1 X12.405 Y6.683 
G1 X12.330 Y6.542 
G1 X12.192 Y6.397 
G1 X12.003 Y6.261 
G1 X11.979 Y6.256 
G1 X11.964 Y6.278 
G1 X11.953 Y6.411 
G1 X11.947 Y6.507 
G1 X11.927 Y6.583 
G1 X11.886 Y6.654 
G1 X11.817 Y6.734 
G1 X11.682 Y6.877 
G1 X11.207 Y7.100 
G1 X10.184 Y7.594 
G1 X9.963 Y7.721 
G1 X9.831 Y7.823 
G1 X9.719 Y7.948 
G1 X9.673 Y8.049 
G1 X9.703 Y8.137 
G1 X9.776 Y8.238 
G0   Z1.000
G0 X9.023 Y6.885 
G1   Z-0.100F180.0
G1 X9.553 Y6.675 
G1 X10.133 Y6.465 
G1 X10.308 Y6.383 
G1 X10.479 Y6.284 
G1 X10.621 Y6.159 
G1 X10.735 Y6.005 
G1 X10.824 Y5.821 
G1 X10.920 Y5.608 
G1 X11.042 Y5.406 
G1 X11.190 Y5.215 
G1 X11.368 Y5.034 
G1 X11.575 Y4.859 
G1 X11.814 Y4.691 
G1 X12.086 Y4.528 
G1 X12.393 Y4.368 
G1 X12.761 Y4.204 
G1 X13.113 Y4.070 
G1 X13.453 Y3.958 
G1 X13.273 Y3.960 
G1 X13.019 Y3.989 
G1 X12.661 Y4.056 
G1 X11.986 Y4.226 
G1 X11.356 Y4.427 
G1 X10.813 Y4.643 
G1 X10.588 Y4.753 
G1 X10.401 Y4.861 
G1 X10.158 Y5.053 
G1 X9.894 Y5.311 
G1 X9.492 Y5.737 
G1 X9.185 Y6.034 
G1 X8.936 Y6.236 
G1 X8.709 Y6.374 
G1 X8.433 Y6.500 
G1 X8.367 Y6.495 
G1 X8.299 Y6.456 
G1 X8.204 Y6.372 
G1 X8.130 Y6.270 
G1 X8.091 Y6.154 
G1 X8.126 Y6.024 
G1 X8.182 Y5.892 
G1 X8.953 Y5.183 
G1 X8.921 Y5.151 
G1 X8.478 Y5.373 
G1 X8.110 Y5.565 
G1 X7.826 Y5.732 
G1 X7.593 Y5.896 
G1 X7.381 Y6.075 
G1 X7.187 Y6.282 
G1 X7.051 Y6.494 
G1 X6.974 Y6.706 
G1 X6.960 Y6.809 
G1 X6.961 Y6.911 
G1 X6.996 Y7.088 
G1 X7.065 Y7.269 
G1 X7.165 Y7.445 
G1 X7.292 Y7.611 
G1 X7.404 Y7.715 
G1 X7.456 Y7.738 
G1 X7.510 Y7.741 
G1 X7.571 Y7.722 
G1 X7.642 Y7.682 
G1 X7.833 Y7.535 
G1 X8.123 Y7.334 
G1 X8.533 Y7.111 
G1 X9.023 Y6.885 
G0   Z1.000
G0 X13.433 Y3.955 
G1   Z-0.100F180.0
G1 X13.513  
G1 X13.593  
G1  Y3.915 
G1 X13.513  
G1 X13.433  
G1  Y3.955 
G0   Z1.000
G0 X13.997 Y6.264 
G1   Z-0.100F180.0
G1 X13.725 Y6.378 
G1 X13.486 Y6.496 
G1 X13.283 Y6.616 
G1 X13.123 Y6.736 
G1 X13.030 Y6.821 
G1 X12.979 Y6.890 
G1 X12.957 Y6.968 
G1 X12.953 Y7.080 
G1 X12.955 Y7.193 
G1 X12.974 Y7.249 
G1 X13.024 Y7.264 
G1 X13.123 Y7.252 
G1 X13.433 Y7.200 
G1 X13.703 Y7.137 
G1 X13.948 Y7.058 
G1 X14.186 Y6.960 
G1 X14.633 Y6.776 
G1 X14.722 Y6.723 
G1 X14.793 Y6.624 
G1 X14.894 Y6.486 
G1 X15.069 Y6.334 
G1 X15.309 Y6.176 
G1 X15.603 Y6.019 
G1 X15.953 Y5.849 
G1 X15.926 Y5.822 
G1 X15.877 Y5.804 
G1 X15.796 Y5.799 
G1 X15.693 Y5.801 
G1 X15.313 Y5.881 
G1 X14.618 Y6.054 
G1 X13.997 Y6.264 
G0   Z1.000
G0 X16.293 Y6.369 
G1   Z-0.100F180.0
G1 X16.673 Y6.340 
G1 X17.098 Y6.291 
G1 X17.461 Y6.214 
G1 X17.756 Y6.113 
G1 X17.977 Y5.992 
G1 X18.059 Y5.926 
G1 X18.120 Y5.855 
G1 X18.160 Y5.782 
G1 X18.178 Y5.705 
G1 X18.174 Y5.627 
G1 X18.147 Y5.547 
G1 X18.096 Y5.466 
G1 X18.020 Y5.384 
G1 X17.924 Y5.308 
G1 X17.801 Y5.236 
G1 X17.490 Y5.106 
G1 X17.118 Y5.004 
G1 X16.713 Y4.940 
G1 X16.453 Y4.913 
G1 X16.733 Y5.078 
G1 X16.957 Y5.219 
G1 X17.103 Y5.326 
G1 X17.160 Y5.393 
G1 X17.189 Y5.461 
G1 X17.189 Y5.534 
G1 X17.158 Y5.612 
G1 X17.096 Y5.698 
G1 X17.002 Y5.793 
G1 X16.713 Y6.018 
G1 X16.403 Y6.235 
G1 X16.293 Y6.369 
G0   Z1.000
G0 X15.797 Y4.189 
G1   Z-0.100F180.0
G1 X16.219 Y4.041 
G1 X16.625 Y3.879 
G1 X19.074 Y2.635 
G1 X18.853 Y2.641 
G1 X18.419 Y2.718 
G1 X17.848 Y2.830 
G1 X17.275 Y2.965 
G1 X16.711 Y3.120 
G1 X16.165 Y3.291 
G1 X15.649 Y3.474 
G1 X15.173 Y3.666 
G1 X14.747 Y3.864 
G1 X14.381 Y4.064 
G1 X14.153 Y4.220 
G1 X13.959 Y4.385 
G1 X13.838 Y4.520 
G1 X13.817 Y4.565 
G1 X13.830 Y4.588 
G1 X13.872 Y4.602 
G1 X14.321 Y4.536 
G1 X14.801 Y4.449 
G1 X15.308 Y4.330 
G1 X15.797 Y4.189 
G0   Z1.000
G0 X19.242 Y3.338 
G1   Z-0.100F180.0
G1 X19.266 Y3.361 
G1 X19.659 Y3.317 
G1 X20.395 Y3.208 
G1 X20.738 Y3.136 
G1 X21.074 Y3.050 
G1 X21.408 Y2.948 
G1 X21.749 Y2.827 
G1 X22.475 Y2.524 
G1 X23.093 Y2.245 
G1 X23.393 Y2.119 
G1 X23.738 Y1.963 
G1 X23.785 Y1.928 
G1 X23.753 Y1.919 
G1 X23.693 Y1.923 
G1 X23.273 Y1.979 
G1 X22.730 Y2.058 
G1 X22.208 Y2.150 
G1 X21.713 Y2.252 
G1 X21.249 Y2.362 
G1 X20.823 Y2.480 
G1 X20.438 Y2.605 
G1 X20.100 Y2.735 
G1 X19.815 Y2.868 
G1 X19.604 Y2.995 
G1 X19.409 Y3.140 
G1 X19.274 Y3.266 
G1 X19.243 Y3.311 
G1 X19.242 Y3.338 
G0   Z1.000
G0 X19.729 Y4.685 
G1   Z-0.100F180.0
G1 X19.361 Y4.856 
G1 X19.061 Y5.029 
G1 X18.874 Y5.180 
G1 X18.794 Y5.290 
G1 X18.759 Y5.392 
G1 X18.766 Y5.490 
G1 X18.816 Y5.589 
G1 X18.859 Y5.638 
G1 X18.913 Y5.662 
G1 X19.007 Y5.665 
G1 X19.166 Y5.652 
G1 X19.451 Y5.612 
G1 X19.735 Y5.554 
G1 X20.016 Y5.483 
G1 X20.535 Y5.223 
G1 X21.106 Y4.966 
G1 X21.753 Y4.714 
G1 X22.453 Y4.465 
G1 X22.853 Y4.307 
G1 X23.251 Y4.138 
G1 X23.623 Y3.961 
G1 X23.939 Y3.789 
G1 X24.173 Y3.636 
G1 X24.320 Y3.507 
G1 X24.434 Y3.376 
G1 X24.490 Y3.276 
G1 X24.489 Y3.247 
G1 X24.465 Y3.238 
G1 X24.173 Y3.353 
G1 X23.863 Y3.486 
G1 X23.497 Y3.626 
G1 X22.693 Y3.888 
G1 X22.213 Y4.027 
G1 X20.533 Y4.404 
G1 X20.121 Y4.538 
G1 X19.729 Y4.685 
G0   Z1.000
G0 X26.553 Y3.195 
G1   Z-0.100F180.0
G1 X26.633  
G1  Y3.155 
G1 X26.553  
G1  Y3.195 
G0   Z1.000
G0 X26.298 Y1.856 
G1   Z-0.100F180.0
G1 X26.773 Y1.633 
G1 X26.959 Y1.522 
G1 X27.105 Y1.413 
G1 X27.198 Y1.328 
G1 X27.248 Y1.262 
G1 X27.266 Y1.193 
G1 X27.265 Y1.100 
G1 X27.253 Y1.011 
G1 X27.228 Y0.949 
G1 X27.178 Y0.899 
G1 X27.093 Y0.846 
G1 X26.953 Y0.782 
G1 X26.843 Y0.755 
G1 X26.779 Y0.765 
G1 X26.753 Y0.790 
G1 X26.738 Y0.830 
G1 X26.697 Y0.882 
G1 X26.552 Y1.012 
G1 X26.352 Y1.152 
G1 X26.131 Y1.276 
G1 X25.810 Y1.433 
G1 X24.125 Y1.986 
G1 X23.895 Y2.095 
G1 X23.716 Y2.193 
G1 X23.555 Y2.305 
G1 X23.438 Y2.409 
G1 X23.393 Y2.483 
G1 X23.434 Y2.503 
G1 X23.551 Y2.505 
G1 X23.953 Y2.463 
G1 X24.495 Y2.372 
G1 X25.071 Y2.248 
G1 X25.718 Y2.066 
G1 X26.298 Y1.856 
G0   Z1.000
G0 X27.818 Y1.305 
G1   Z-0.100F180.0
G1 X27.872 Y1.427 
G1 X27.937 Y1.506 
G1 X28.029 Y1.579 
G1 X28.149 Y1.647 
G1 X28.296 Y1.708 
G1 X28.668 Y1.814 
G1 X29.143 Y1.895 
G1 X29.312 Y1.905 
G1 X29.344 Y1.891 
G1 X29.353 Y1.861 
G1 X29.335 Y1.811 
G1 X29.284 Y1.736 
G1 X29.098 Y1.528 
G1 X28.825 Y1.269 
G1 X28.493 Y0.987 
G1 X28.053 Y0.634 
G1 X28.021  
G1 X27.974 Y0.689 
G1 X27.906 Y0.820 
G1 X27.835 Y1.010 
G1 X27.806 Y1.169 
G1 X27.818 Y1.305 
G0   Z1.000
G0 X29.316 Y1.107 
G1   Z-0.100F180.0
G1 X29.337 Y1.226 
G1 X29.378 Y1.340 
G1 X29.469 Y1.479 
G1 X29.612 Y1.625 
G1 X29.803 Y1.776 
G1 X30.036 Y1.928 
G1 X30.308 Y2.081 
G1 X30.615 Y2.230 
G1 X30.951 Y2.372 
G1 X31.313 Y2.507 
G1 X31.773 Y2.666 
G1 X32.733 Y2.934 
G1 X34.853 Y3.495 
G1 X36.013 Y3.788 
G1 X36.203 Y3.816 
G1 X36.363 Y3.827 
G1 X36.388 Y3.806 
G1 X36.393 Y3.761 
G1 X36.373 Y3.674 
G1 X36.315 Y3.583 
G1 X36.220 Y3.489 
G1 X36.088 Y3.393 
G1 X35.921 Y3.295 
G1 X35.719 Y3.196 
G1 X35.218 Y2.998 
G1 X34.863 Y2.874 
G1 X32.773 Y2.309 
G1 X32.153 Y2.128 
G1 X31.507 Y1.919 
G1 X30.825 Y1.669 
G1 X30.116 Y1.390 
G1 X29.820 Y1.196 
G1 X29.443 Y0.960 
G1 X29.379 Y0.937 
G1 X29.338 Y0.942 
G1 X29.315 Y1.005 
G1 X29.316 Y1.107 
G0   Z1.000
G0 X28.541 Y3.730 
G1   Z-0.100F180.0
G1 X28.105 Y3.567 
G1 X27.645 Y3.420 
G1 X27.173 Y3.292 
G1 X26.773 Y3.195 
G1 X26.613 Y3.196 
G1 X27.710 Y3.669 
G1 X27.887 Y3.791 
G1 X28.048 Y3.917 
G1 X28.174 Y4.049 
G1 X28.264 Y4.188 
G1 X28.321 Y4.336 
G1 X28.351 Y4.433 
G1 X28.389 Y4.489 
G1 X28.455 Y4.522 
G1 X28.570 Y4.549 
G1 X28.773 Y4.592 
G1 X29.813 Y4.826 
G1 X29.963 Y4.853 
G1 X30.070 Y4.860 
G1 X30.099 Y4.848 
G1 X30.110 Y4.825 
G1 X30.084 Y4.741 
G1 X29.991 Y4.599 
G1 X29.834 Y4.435 
G1 X29.600 Y4.261 
G1 X29.300 Y4.082 
G1 X28.943 Y3.903 
G1 X28.541 Y3.730 
G0   Z1.000
G0 X28.142 Y4.568 
G1   Z-0.100F180.0
G1 X27.295 Y4.270 
G1 X26.897 Y4.115 
G1 X26.866  
G1 X26.851 Y4.136 
G1 X26.860 Y4.185 
G1 X26.911 Y4.291 
G1 X26.989 Y4.398 
G1 X27.092 Y4.505 
G1 X27.220 Y4.611 
G1 X27.545 Y4.821 
G1 X27.955 Y5.023 
G1 X28.440 Y5.213 
G1 X28.990 Y5.387 
G1 X29.598 Y5.542 
G1 X30.253 Y5.673 
G1 X30.991 Y5.783 
G1 X31.147 Y5.783 
G1 X31.182 Y5.770 
G1 X31.193 Y5.748 
G1 X31.177 Y5.687 
G1 X31.130 Y5.623 
G1 X31.053 Y5.555 
G1 X30.948 Y5.485 
G1 X30.659 Y5.343 
G1 X30.271 Y5.201 
G1 X29.893 Y5.079 
G1 X29.233 Y4.894 
G1 X28.142 Y4.568 
G0   Z1.000
G0 X29.193 Y5.711 
G1   Z-0.100F180.0
G1 X29.240 Y5.777 
G1 X29.363 Y5.872 
G1 X29.537 Y5.979 
G1 X29.736 Y6.080 
G1 X30.042 Y6.195 
G1 X30.440 Y6.311 
G1 X30.882 Y6.414 
G1 X31.319 Y6.493 
G1 X31.743 Y6.556 
G1 X31.858 Y6.555 
G1 X31.915 Y6.551 
G1 X31.922 Y6.533 
G1 X31.754 Y6.414 
G1 X31.525 Y6.288 
G1 X31.236 Y6.161 
G1 X30.907 Y6.037 
G1 X30.557 Y5.922 
G1 X30.205 Y5.823 
G1 X29.869 Y5.745 
G1 X29.568 Y5.694 
G1 X29.323 Y5.676 
G1 X29.231 Y5.686 
G1 X29.193 Y5.711 
G0   Z1.000
G0 X31.185 Y5.088 
G1   Z-0.100F180.0
G1 X31.266 Y5.199 
G1 X31.390 Y5.311 
G1 X31.557 Y5.423 
G1 X31.769 Y5.535 
G1 X32.004 Y5.638 
G1 X32.282 Y5.740 
G1 X32.918 Y5.931 
G1 X33.586 Y6.085 
G1 X34.193 Y6.177 
G1 X34.405 Y6.188 
G1 X34.397 Y6.167 
G1 X34.330 Y6.119 
G1 X34.207 Y6.037 
G1 X33.632 Y5.794 
G1 X32.935 Y5.487 
G1 X32.434 Y5.232 
G1 X32.063 Y4.991 
G1 X31.755 Y4.727 
G1 X31.588 Y4.577 
G1 X31.492 Y4.515 
G1 X31.418 Y4.555 
G1 X31.300 Y4.651 
G1 X31.206 Y4.758 
G1 X31.155 Y4.867 
G1 X31.148 Y4.977 
G1 X31.185 Y5.088 
G0   Z1.000
G0 X32.825 Y1.746 
G1   Z-0.100F180.0
G1 X33.041 Y1.858 
G1 X33.316 Y1.975 
G1 X33.644 Y2.095 
G1 X34.437 Y2.337 
G1 X35.373 Y2.569 
G1 X36.013 Y2.712 
G1 X38.533 Y3.229 
G1 X38.993 Y3.334 
G1 X39.799 Y3.541 
G1 X40.436 Y3.750 
G1 X40.690 Y3.839 
G1 X40.883 Y3.891 
G1 X41.011 Y3.900 
G1 X41.029 Y3.872 
G1 X41.033 Y3.815 
G1 X41.024 Y3.731 
G1 X40.999 Y3.648 
G1 X40.956 Y3.569 
G1 X40.896 Y3.491 
G1 X40.724 Y3.341 
G1 X40.482 Y3.198 
G1 X40.310 Y3.112 
G1 X39.762 Y2.956 
G1 X39.221 Y2.816 
G1 X38.693 Y2.698 
G1 X38.173 Y2.595 
G1 X34.933 Y2.074 
G1 X34.093 Y1.908 
G1 X32.676 Y1.554 
G1 X32.624 Y1.556 
G1 X32.612 Y1.563 
G1 X32.617 Y1.582 
G1 X32.673 Y1.642 
G1 X32.825 Y1.746 
G0   Z1.000
G0 X34.365 Y5.468 
G1   Z-0.100F180.0
G1 X34.353 Y5.479 
G1 X34.363 Y5.537 
G1 X34.421 Y5.637 
G1 X34.522 Y5.755 
G1 X34.663 Y5.870 
G1 X34.843 Y5.982 
G1 X35.062 Y6.092 
G1 X35.323 Y6.201 
G1 X35.624 Y6.307 
G1 X36.353 Y6.515 
G1 X36.719 Y6.601 
G1 X37.068 Y6.668 
G1 X37.949 Y6.778 
G1 X38.885 Y6.875 
G1 X39.911 Y6.958 
G1 X39.987 Y6.911 
G1 X40.028 Y6.881 
G1 X40.042 Y6.852 
G1 X39.983 Y6.728 
G1 X39.877 Y6.592 
G1 X39.733 Y6.454 
G1 X39.563 Y6.315 
G1 X37.213 Y5.189 
G1 X37.062 Y5.070 
G1 X36.914 Y4.979 
G1 X36.771 Y4.927 
G1 X36.654 Y4.921 
G1 X36.650 Y4.950 
G1 X36.670 Y5.010 
G1 X36.777 Y5.216 
G1 X36.843 Y5.318 
G1 X37.702 Y6.034 
G1 X37.770 Y6.137 
G1 X37.814 Y6.236 
G1 X37.825 Y6.328 
G1 X37.811 Y6.377 
G1 X37.766 Y6.402 
G1 X37.473 Y6.405 
G1 X37.121 Y6.374 
G1 X36.719 Y6.308 
G1 X36.290 Y6.212 
G1 X35.854 Y6.093 
G1 X35.432 Y5.957 
G1 X35.046 Y5.811 
G1 X34.718 Y5.660 
G1 X34.468 Y5.512 
G1 X34.388 Y5.469 
G1 X34.365 Y5.468 
G0   Z1.000
G0 X40.133 Y2.721 
G1   Z-0.100F180.0
G1 X40.852 Y3.071 
G1 X42.133 Y3.548 
G1 X44.051 Y4.199 
G1 X44.412 Y4.370 
G1 X44.749 Y4.553 
G1 X44.993 Y4.741 
G1 X45.080 Y4.834 
G1 X45.142 Y4.928 
G1 X45.180 Y5.021 
G1 X45.193 Y5.112 
G1 X45.197 Y5.154 
G1 X45.216 Y5.175 
G1 X45.323 Y5.170 
G1 X45.552 Y5.113 
G1 X45.807 Y5.027 
G1 X46.037 Y4.931 
G1 X46.193 Y4.844 
G1 X46.312 Y4.747 
G1 X46.385 Y4.665 
G1 X46.421 Y4.584 
G1 X46.431 Y4.485 
G1 X46.414 Y4.386 
G1 X46.363 Y4.285 
G1 X46.278 Y4.184 
G1 X46.162 Y4.082 
G1 X46.016 Y3.982 
G1 X45.841 Y3.885 
G1 X45.413 Y3.704 
G1 X45.133 Y3.604 
G1 X43.893 Y3.350 
G1 X42.853 Y3.174 
G1 X41.017 Y2.856 
G1 X40.222 Y2.715 
G1 X40.133 Y2.721 
G0   Z1.000
G0 X40.073 Y5.756 
G1   Z-0.100F180.0
G1 X39.993  
G1  Y5.796 
G1 X40.073  
G1  Y5.756 
G0   Z1.000
G0 X40.093 Y5.798 
G1   Z-0.100F180.0
G1 X40.509 Y5.957 
G1 X41.042 Y6.180 
G1 X41.489 Y6.410 
G1 X41.828 Y6.632 
G1 X41.951 Y6.737 
G1 X42.039 Y6.836 
G1 X42.115 Y6.969 
G1 X42.139 Y7.095 
G1 X42.109 Y7.226 
G1 X42.025 Y7.377 
G1 X41.943 Y7.492 
G1 X41.877 Y7.550 
G1 X41.791 Y7.569 
G1 X41.651 Y7.567 
G1 X41.411 Y7.559 
G1 X40.293 Y7.361 
G1 X38.493 Y6.989 
G1 X37.533 Y6.961 
G1 X37.911 Y6.998 
G1 X38.280 Y7.050 
G1 X38.684 Y7.135 
G1 X39.082 Y7.243 
G1 X39.433 Y7.364 
G1 X39.733 Y7.483 
G1 X41.773 Y8.500 
G1 X42.120 Y8.593 
G1 X42.393 Y8.652 
G1 X42.562 Y8.663 
G1 X42.656 Y8.639 
G1 X43.041 Y8.318 
G1 X43.350 Y8.048 
G1 X43.573 Y7.825 
G1 X43.707 Y7.652 
G1 X43.741 Y7.584 
G1 X43.753 Y7.529 
G1 X43.734 Y7.409 
G1 X43.679 Y7.276 
G1 X43.586 Y7.129 
G1 X43.456 Y6.969 
G1 X43.272 Y6.762 
G1 X41.853 Y6.202 
G1 X41.513 Y6.100 
G1 X40.703 Y5.897 
G1 X40.234 Y5.796 
G1 X40.093 Y5.798 
G0   Z1.000
G0 X38.952 Y8.797 
G1   Z-0.100F180.0
G1 X38.920 Y8.835 
G1 X38.891 Y8.927 
G1 X38.853 Y9.057 
G1 X38.798 Y9.181 
G1 X38.731 Y9.288 
G1 X38.657 Y9.371 
G1 X38.519 Y9.463 
G1 X38.295 Y9.582 
G1 X37.699 Y9.840 
G1 X37.346 Y9.977 
G1 X37.739 Y9.989 
G1 X38.063 Y9.986 
G1 X38.353 Y9.959 
G1 X38.600 Y9.909 
G1 X38.791 Y9.838 
G1 X38.898 Y9.774 
G1 X38.996 Y9.699 
G1 X39.154 Y9.526 
G1 X39.209 Y9.434 
G1 X39.247 Y9.344 
G1 X39.263 Y9.257 
G1 X39.257 Y9.178 
G1 X39.206 Y9.075 
G1 X39.116 Y8.948 
G1 X39.020 Y8.842 
G1 X38.952 Y8.797 
G0   Z1.000
G0 X38.513 Y10.076 
G1   Z-0.100F180.0
G1 X37.933 Y10.115 
G1 X35.173 Y10.196 
G1 X34.773 Y10.220 
G1 X34.301 Y10.256 
G1 X33.836 Y10.308 
G1 X33.423 Y10.369 
G1 X33.106 Y10.434 
G1 X32.871 Y10.507 
G1 X32.633 Y10.600 
G1 X32.456 Y10.686 
G1 X32.409 Y10.718 
G1 X32.400 Y10.738 
G1 X32.415 Y10.753 
G1 X33.413 Y10.679 
G1 X35.213 Y10.554 
G1 X38.053 Y10.357 
G1 X38.653 Y10.296 
G1 X39.226 Y10.230 
G1 X39.740 Y10.155 
G1 X40.165 Y10.076 
G1 X40.473 Y9.998 
G1 X40.813 Y9.866 
G1 X40.892 Y9.819 
G1 X40.897 Y9.806 
G1 X40.873 Y9.803 
G1 X40.533 Y9.857 
G1 X40.253 Y9.908 
G1 X39.673 Y9.972 
G1 X38.513 Y10.076 
G0   Z1.000
G0 X39.654 Y10.678 
G1   Z-0.100F180.0
G1 X39.570 Y10.832 
G1 X39.515 Y11.008 
G1 X39.422 Y11.423 
G1 X39.338 Y11.656 
G1 X39.282 Y11.737 
G1 X39.205 Y11.811 
G1 X38.965 Y11.995 
G1 X38.584 Y12.278 
G1 X38.684  
G1 X38.877 Y12.257 
G1 X39.151 Y12.207 
G1 X39.434 Y12.140 
G1 X39.654 Y12.074 
G1 X39.816 Y12.004 
G1 X39.955 Y11.926 
G1 X40.072 Y11.837 
G1 X40.167 Y11.734 
G1 X40.244 Y11.617 
G1 X40.302 Y11.483 
G1 X40.345 Y11.331 
G1 X40.373 Y11.157 
G1 X40.401 Y10.973 
G1 X40.444 Y10.814 
G1 X40.504 Y10.677 
G1 X40.583 Y10.559 
G1 X40.685 Y10.456 
G1 X40.811 Y10.366 
G1 X40.964 Y10.285 
G1 X41.147 Y10.210 
G1 X41.453 Y10.097 
G1 X41.293 Y10.091 
G1 X40.905 Y10.119 
G1 X40.598 Y10.175 
G1 X40.333 Y10.244 
G1 X40.108 Y10.327 
G1 X39.922 Y10.427 
G1 X39.771 Y10.543 
G1 X39.654 Y10.678 
G0   Z1.000
G0 X39.573 Y12.938 
G1   Z-0.100F180.0
G1 X39.253 Y12.961 
G1 X38.804 Y13.019 
G1 X38.386 Y13.110 
G1 X37.891 Y13.260 
G1 X37.213 Y13.497 
G1 X36.704 Y13.670 
G1 X36.213 Y13.821 
G1 X35.733 Y13.957 
G1 X36.133 Y13.934 
G1 X36.550 Y13.900 
G1 X36.964 Y13.851 
G1 X37.349 Y13.788 
G1 X37.680 Y13.716 
G1 X38.009 Y13.632 
G1 X39.493 Y13.089 
G1 X40.213 Y12.938 
G1 X39.893 Y12.932 
G1 X39.573 Y12.938 
G0   Z1.000
G0 X37.530 Y10.548 
G1   Z-0.100F180.0
G1 X37.486 Y10.537 
G1 X37.373 Y10.532 
G1 X37.173 Y10.528 
G1 X36.673 Y10.558 
G1 X36.248 Y10.592 
G1 X35.928 Y10.633 
G1 X35.650 Y10.702 
G1 X35.304 Y10.808 
G1 X34.970 Y10.927 
G1 X34.723 Y11.032 
G1 X34.594 Y11.114 
G1 X34.563 Y11.148 
G1 X34.553 Y11.179 
G1 X34.565 Y11.203 
G1 X34.599 Y11.222 
G1 X34.731 Y11.237 
G1 X34.909  
G1 X35.378 Y11.176 
G1 X36.013 Y11.071 
G1 X36.607 Y10.934 
G1 X37.101 Y10.780 
G1 X37.291 Y10.703 
G1 X37.433 Y10.627 
G1 X37.530 Y10.548 
G0   Z1.000
G0 X13.299 Y15.942 
G1   Z-0.100F180.0
G1 X13.301 Y16.005 
G1 X13.270 Y16.079 
G1 X13.214 Y16.150 
G1 X13.142 Y16.205 
G1 X13.067 Y16.232 
G1 X12.966 Y16.247 
G1 X12.703 Y16.248 
G1 X12.385 Y16.215 
G1 X12.048 Y16.155 
G1 X11.725 Y16.075 
G1 X11.452 Y15.984 
G1 X11.263 Y15.888 
G1 X11.211 Y15.840 
G1 X11.193 Y15.794 
G1 X11.213 Y15.739 
G1 X11.267 Y15.719 
G1 X11.517 Y15.702 
G1 X11.735 Y15.711 
G1 X12.013 Y15.759 
G1 X12.378 Y15.821 
G1 X12.806 Y15.862 
G1 X13.280 Y15.890 
G1 X13.299 Y15.942 
G0   Z1.000
G0 X15.553 Y15.916 
G1   Z-0.100F180.0
G1 X15.560 Y15.876 
G1 X15.589 Y15.854 
G1 X15.763 Y15.848 
G1 X15.973 Y15.857 
G1 X18.053 Y15.836 
G1 X18.173 Y15.891 
G1 X18.240 Y15.923 
G1 X18.262 Y15.947 
G1 X18.172 Y16.009 
G1 X17.812 Y16.139 
G1 X17.573 Y16.206 
G1 X16.212 Y16.248 
G1 X15.985 Y16.201 
G1 X15.810 Y16.151 
G1 X15.673 Y16.082 
G1 X15.584 Y16.002 
G1 X15.553 Y15.916 
G0   Z1.000
G0 X26.473 Y14.681 
G1   Z-0.100F180.0
G1 X26.510 Y14.642 
G1 X26.613 Y14.603 
G1 X26.766 Y14.569 
G1 X26.953 Y14.544 
G1 X27.173 Y14.524 
G1 X26.873 Y14.621 
G1 X26.523 Y14.718 
G1 X26.487 Y14.707 
G1 X26.473 Y14.681 
G0   Z1.000
G0 X27.388 Y14.478 
G1   Z-0.100F180.0
G1 X28.428  
G1 X28.451 Y14.516 
G1 X28.456 Y14.549 
G1 X28.437 Y14.575 
G1 X28.401 Y14.598 
G1 X27.430 Y14.546 
G1 X27.388 Y14.478 
G0   Z1.000
G0 X27.533 Y14.277 
G1   Z-0.100F180.0
G1 X27.047 Y14.319 
G1 X26.600 Y14.377 
G1 X26.209 Y14.458 
G1 X25.877 Y14.539 
G1 X25.574 Y14.597 
G1 X25.293 Y14.639 
G1 X24.651 Y14.674 
G1 X24.275 Y14.697 
G1 X24.052 Y14.728 
G1 X23.893 Y14.788 
G1 X23.711 Y14.897 
G1 X23.413 Y15.086 
G1 X24.973 Y15.044 
G1 X23.053 Y15.237 
G1 X20.525 Y15.557 
G1 X19.133 Y15.649 
G1 X17.013 Y15.600 
G1 X16.433 Y15.540 
G1 X15.553 Y15.437 
G1 X15.253 Y15.394 
G1 X14.593 Y15.272 
G1 X14.100 Y15.194 
G1 X13.681 Y15.171 
G1 X13.207 Y15.205 
G1 X12.553 Y15.297 
G1 X11.933 Y15.393 
G1 X11.526 Y15.444 
G1 X10.197 Y15.501 
G1 X10.170 Y15.528 
G1 X10.155 Y15.557 
G1 X10.153 Y15.597 
G1 X10.189 Y15.703 
G1 X10.270 Y15.830 
G1 X10.388 Y15.961 
G1 X10.517 Y16.069 
G1 X10.672 Y16.164 
G1 X10.855 Y16.247 
G1 X11.070 Y16.320 
G1 X11.320 Y16.383 
G1 X11.609 Y16.438 
G1 X12.318 Y16.526 
G1 X12.853 Y16.576 
G1 X16.613 Y16.579 
G1 X17.193 Y16.527 
G1 X18.133 Y16.419 
G1 X18.931 Y16.277 
G1 X19.304 Y16.196 
G1 X20.813 Y15.713 
G1 X21.133 Y15.637 
G1 X21.492 Y15.562 
G1 X21.894 Y15.497 
G1 X22.813 Y15.401 
G1 X23.373 Y15.359 
G1 X24.234 Y15.359 
G1 X25.040 Y15.342 
G1 X25.289 Y15.306 
G1 X25.578 Y15.241 
G1 X26.061 Y15.123 
G1 X26.373 Y15.001 
G1 X29.173 Y14.917 
G1 X29.596 Y14.861 
G1 X29.962 Y14.804 
G1 X30.268 Y14.736 
G1 X30.549 Y14.649 
G1 X30.840 Y14.532 
G1 X31.245 Y14.373 
G1 X31.753 Y14.195 
G1 X32.333 Y14.004 
G1 X32.113 Y14.008 
G1 X31.733 Y14.026 
G1 X31.573 Y14.041 
G1 X30.373 Y14.203 
G1 X27.533 Y14.277 
G0   Z1.000
G0 X27.893 Y13.617 
G1   Z-0.100F180.0
G1 X29.853 Y13.682 
G1 X33.133 Y13.646 
G1 X33.853 Y13.538 
G1 X33.473 Y13.513 
G1 X32.533 Y13.480 
G1 X31.566 Y13.443 
G1 X31.324 Y13.421 
G1 X31.156 Y13.380 
G1 X30.986 Y13.292 
G1 X30.735 Y13.125 
G1 X30.312 Y12.838 
G1 X30.302 Y12.839 
G1 X30.217 Y12.944 
G1 X30.142 Y13.025 
G1 X30.036 Y13.099 
G1 X29.891 Y13.169 
G1 X29.698 Y13.237 
G1 X29.138 Y13.379 
G1 X28.293 Y13.544 
G1 X27.893 Y13.617 
G0   Z1.000
G0 X27.444 Y12.075 
G1   Z-0.100F180.0
G1 X27.841 Y11.975 
G1 X28.293 Y11.868 
G1 X28.533 Y11.805 
G1 X28.213 Y11.807 
G1 X27.773 Y11.823 
G1 X27.281 Y11.881 
G1 X26.649 Y11.978 
G1 X26.005 Y12.123 
G1 X25.365 Y12.311 
G1 X24.749 Y12.538 
G1 X24.326 Y12.711 
G1 X22.333 Y13.708 
G1 X21.853 Y13.887 
G1 X21.224 Y14.104 
G1 X20.558 Y14.296 
G1 X19.844 Y14.465 
G1 X19.073 Y14.616 
G1 X18.493 Y14.718 
G1 X16.253 Y15.003 
G1 X15.953 Y15.064 
G1 X15.762 Y15.113 
G1 X15.596 Y15.177 
G1 X15.477 Y15.242 
G1 X15.433 Y15.299 
G1 X15.488 Y15.324 
G1 X15.623 Y15.357 
G1 X15.813 Y15.395 
G1 X16.553 Y15.437 
G1 X17.277 Y15.465 
G1 X18.057 Y15.475 
G1 X18.862 Y15.466 
G1 X19.664 Y15.441 
G1 X20.432 Y15.400 
G1 X21.138 Y15.345 
G1 X21.751 Y15.276 
G1 X22.243 Y15.196 
G1 X22.640 Y15.101 
G1 X23.041 Y14.977 
G1 X23.434 Y14.831 
G1 X23.809 Y14.666 
G1 X24.154 Y14.489 
G1 X24.460 Y14.304 
G1 X24.716 Y14.116 
G1 X24.911 Y13.931 
G1 X25.062 Y13.731 
G1 X25.062 Y13.690 
G1 X25.015 Y13.678 
G1 X24.957  
G1 X24.293 Y13.886 
G1 X23.020 Y14.525 
G1 X22.616 Y14.659 
G1 X22.162 Y14.793 
G1 X21.695 Y14.893 
G1 X21.172 Y14.966 
G1 X20.553 Y15.021 
G1 X20.173 Y15.047 
G1 X20.233 Y14.985 
G1 X20.364 Y14.906 
G1 X20.595 Y14.803 
G1 X20.897 Y14.682 
G1 X23.506 Y14.040 
G1 X23.891 Y13.917 
G1 X24.274 Y13.783 
G1 X24.585 Y13.646 
G1 X24.871 Y13.481 
G1 X25.181 Y13.264 
G1 X25.895 Y12.759 
G1 X26.199 Y12.571 
G1 X26.490 Y12.417 
G1 X26.784 Y12.288 
G1 X27.097 Y12.176 
G1 X27.444 Y12.075 
G0   Z1.000
G0 X28.410 Y9.246 
G1   Z-0.100F180.0
G1 X28.961 Y9.359 
G1 X29.571 Y9.444 
G1 X30.237 Y9.500 
G1 X30.953 Y9.526 
G1 X31.733 Y9.537 
G1 X31.293 Y9.394 
G1 X29.333 Y9.033 
G1 X28.833 Y8.918 
G1 X28.237 Y8.762 
G1 X27.715 Y8.588 
G1 X27.287 Y8.405 
G1 X27.114 Y8.312 
G1 X26.973 Y8.219 
G1 X26.806 Y8.103 
G1 X26.768 Y8.099 
G1 X26.742 Y8.126 
G1 X26.738 Y8.213 
G1 X26.771 Y8.321 
G1 X26.834 Y8.437 
G1 X26.922 Y8.547 
G1 X27.039 Y8.655 
G1 X27.176 Y8.757 
G1 X27.513 Y8.944 
G1 X27.926 Y9.108 
G1 X28.410 Y9.246 
G0   Z1.000
G0 X27.613 Y10.674 
G1   Z-0.100F180.0
G1 X26.933 Y10.450 
G1 X25.513 Y9.947 
G1 X24.254 Y9.492 
G1 X23.736 Y9.317 
G1 X23.724  
G1 X23.713 Y9.407 
G1 X23.728 Y9.499 
G1 X23.772 Y9.593 
G1 X23.845 Y9.688 
G1 X23.947 Y9.783 
G1 X24.077 Y9.880 
G1 X24.236 Y9.976 
G1 X24.636 Y10.170 
G1 X24.980 Y10.316 
G1 X26.573 Y10.844 
G1 X26.862 Y10.982 
G1 X27.071 Y11.095 
G1 X27.187 Y11.194 
G1 X27.211 Y11.239 
G1 X27.213 Y11.282 
G1 X27.194 Y11.324 
G1 X27.153 Y11.365 
G1 X27.063 Y11.438 
G1 X26.678 Y11.558 
G1 X26.414 Y11.648 
G1 X26.210 Y11.735 
G1 X26.079 Y11.812 
G1 X26.044 Y11.845 
G1 X26.033 Y11.873 
G1  Y11.910 
G1 X26.373 Y11.816 
G1 X26.796 Y11.717 
G1 X27.238 Y11.649 
G1 X27.719 Y11.610 
G1 X28.258 Y11.597 
G1 X28.961  
G1 X31.042 Y11.762 
G1 X31.073 Y11.731 
G1 X29.853 Y11.386 
G1 X27.613 Y10.674 
G0   Z1.000
G0 X24.215 Y7.337 
G1   Z-0.100F180.0
G1 X24.264 Y7.288 
G1 X24.173 Y7.281 
G1 X23.713 Y7.361 
G1 X23.320 Y7.422 
G1 X22.838 Y7.455 
G1 X22.347 Y7.486 
G1 X22.229 Y7.527 
G1 X22.108 Y7.603 
G1 X21.913 Y7.757 
G1 X21.913 Y7.778 
G1 X22.343 Y7.747 
G1 X22.957 Y7.682 
G1 X23.508 Y7.584 
G1 X23.944 Y7.466 
G1 X24.103 Y7.402 
G1 X24.215 Y7.337 
G0   Z1.000
G0 X22.233 Y7.151 
G1   Z-0.100F180.0
G1 X22.199 Y7.039 
G1 X22.117 Y6.909 
G1 X22.019 Y6.801 
G1 X21.935 Y6.756 
G1 X21.884 Y6.787 
G1 X21.830 Y6.861 
G1 X21.758 Y6.967 
G1 X21.658 Y7.071 
G1 X21.534 Y7.173 
G1 X21.390 Y7.269 
G1 X21.060 Y7.432 
G1 X20.882 Y7.495 
G1 X20.701 Y7.541 
G1 X20.487 Y7.594 
G1 X20.374 Y7.635 
G1 X20.268 Y7.678 
G1 X20.072 Y7.730 
G1 X19.713 Y7.831 
G1 X19.613 Y7.871 
G1 X20.245 Y7.874 
G1 X20.797 Y7.861 
G1 X21.218 Y7.812 
G1 X21.391 Y7.773 
G1 X21.545 Y7.722 
G1 X21.684 Y7.659 
G1 X21.813 Y7.583 
G1 X22.024 Y7.437 
G1 X22.152 Y7.329 
G1 X22.216 Y7.240 
G1 X22.233 Y7.151 
G0   Z1.000
G0 X20.764 Y7.260 
G1   Z-0.100F180.0
G1 X20.751 Y7.249 
G1 X20.688 Y7.230 
G1 X20.573 Y7.201 
G1 X20.060 Y7.159 
G1 X19.170 Y7.116 
G1 X18.793  
G1  Y7.151 
G1 X18.832 Y7.179 
G1 X18.955 Y7.214 
G1 X19.482 Y7.314 
G1 X19.658 Y7.354 
G1 X19.809 Y7.407 
G1 X19.913 Y7.464 
G1 X19.953 Y7.517 
G1 X20.014 Y7.545 
G1 X20.162 Y7.556 
G1 X20.278 Y7.551 
G1 X20.373 Y7.529 
G1 X20.469 Y7.484 
G1 X20.588 Y7.408 
G1 X20.762 Y7.274 
G1 X20.764 Y7.260 
G0   Z1.000
G0 X20.213 Y9.665 
G1   Z-0.100F180.0
G1 X19.093 Y9.631 
G1 X18.963 Y9.713 
G1 X18.877 Y9.785 
G1 X18.839 Y9.859 
G1 X18.847 Y9.934 
G1 X18.903 Y10.006 
G1 X18.973 Y10.067 
G1 X19.811 Y10.494 
G1 X19.955 Y10.624 
G1 X20.131 Y10.762 
G1 X20.205 Y10.798 
G1 X20.275 Y10.812 
G1 X20.343 Y10.804 
G1 X20.413 Y10.775 
G1 X20.575 Y10.652 
G1 X20.687 Y10.532 
G1 X20.760 Y10.412 
G1 X20.793 Y10.293 
G1 X20.787 Y10.177 
G1 X20.741 Y10.064 
G1 X20.657 Y9.954 
G1 X20.534 Y9.849 
G1 X20.373 Y9.750 
G1 X20.213 Y9.665 
G0   Z1.000
G0 X19.493 Y8.694 
G1   Z-0.100F180.0
G1 X22.373 Y8.698 
G1 X22.753 Y8.827 
G1 X23.286 Y8.984 
G1 X23.856 Y9.111 
G1 X24.419 Y9.199 
G1 X24.933 Y9.241 
G1 X25.155 Y9.241 
G1 X25.132 Y9.219 
G1 X25.033 Y9.176 
G1 X24.698 Y9.025 
G1 X24.430 Y8.883 
G1 X24.240 Y8.753 
G1 X24.137 Y8.643 
G1 X24.097 Y8.564 
G1 X24.082 Y8.497 
G1 X24.091 Y8.414 
G1 X24.123 Y8.290 
G1 X24.165 Y8.101 
G1 X24.147 Y8.082 
G1 X24.101 Y8.091 
G1 X24.017 Y8.113 
G1 X22.933 Y8.205 
G1 X22.818 Y8.160 
G1 X22.733 Y8.107 
G1 X22.720 Y8.075 
G1 X22.725 Y8.033 
G1 X22.732 Y7.988 
G1 X22.711 Y7.967 
G1 X22.520 Y7.981 
G1 X22.293 Y8.010 
G1 X21.053 Y8.010 
G1 X18.493 Y7.987 
G1 X17.173 Y7.964 
G1 X16.653 Y7.997 
G1 X16.260 Y8.031 
G1 X15.925 Y8.082 
G1 X15.656 Y8.147 
G1 X15.461 Y8.226 
G1 X15.391 Y8.267 
G1 X15.381 Y8.290 
G1 X15.593 Y8.321 
G1 X16.236 Y8.352 
G1 X16.679 Y8.371 
G1 X17.257 Y8.419 
G1 X18.688 Y8.586 
G1 X19.493 Y8.694 
G0   Z1.000
G0 X18.533 Y9.389 
G1   Z-0.100F180.0
G1 X18.173 Y9.312 
G1 X17.718 Y9.227 
G1 X17.213 Y9.150 
G1 X16.717 Y9.091 
G1 X16.293 Y9.057 
G1 X15.593 Y9.020 
G1 X15.380 Y9.019 
G1 X15.233 Y9.036 
G1 X15.166 Y9.071 
G1 X15.285 Y9.133 
G1 X15.449 Y9.184 
G1 X15.698 Y9.232 
G1 X16.381 Y9.317 
G1 X17.203 Y9.375 
G1 X18.033 Y9.393 
G1 X18.533 Y9.389 
G0   Z1.000
G0 X18.773 Y9.234 
G1   Z-0.100F180.0
G1 X19.253 Y9.295 
G1 X19.797 Y9.350 
G1 X20.433 Y9.398 
G1 X21.133 Y9.440 
G1 X21.433 Y9.522 
G1 X21.736 Y9.623 
G1 X22.038 Y9.763 
G1 X22.353 Y9.947 
G1 X22.693 Y10.182 
G1 X23.006 Y10.400 
G1 X23.293 Y10.568 
G1 X23.557 Y10.690 
G1 X23.800 Y10.766 
G1 X23.948 Y10.815 
G1 X24.022 Y10.867 
G1 X24.026 Y10.921 
G1 X24.010 Y11.001 
G1 X23.930 Y11.217 
G1 X23.803 Y11.467 
G1 X23.651 Y11.703 
G1 X23.455 Y11.934 
G1 X23.211 Y12.166 
G1 X22.923 Y12.397 
G1 X22.591 Y12.626 
G1 X22.218 Y12.853 
G1 X21.804 Y13.075 
G1 X21.353 Y13.292 
G1 X20.866 Y13.503 
G1 X20.422 Y13.684 
G1 X20.326 Y13.578 
G1 X19.759 Y12.658 
G1 X19.621 Y12.498 
G1 X19.488 Y12.370 
G1 X19.441 Y12.367 
G1 X19.381 Y12.393 
G1 X19.279 Y12.448 
G1 X18.932 Y12.708 
G1 X18.673 Y12.919 
G1 X18.493 Y13.105 
G1 X18.387 Y13.271 
G1 X18.361 Y13.348 
G1 X18.353 Y13.421 
G1 X18.361 Y13.500 
G1 X18.388 Y13.570 
G1 X18.435 Y13.631 
G1 X18.502 Y13.684 
G1 X18.707 Y13.772 
G1 X19.016 Y13.841 
G1 X19.344 Y13.915 
G1 X19.396 Y13.943 
G1 X18.904 Y14.011 
G1 X17.857 Y14.137 
G1 X17.301 Y14.196 
G1 X16.437 Y14.242 
G1 X15.649 Y14.269 
G1 X14.866 Y14.267 
G1 X14.099 Y14.236 
G1 X13.359 Y14.178 
G1 X12.658 Y14.094 
G1 X12.007 Y13.985 
G1 X11.417 Y13.852 
G1 X10.900 Y13.696 
G1 X10.684 Y13.613 
G1 X10.503 Y13.524 
G1 X10.347 Y13.424 
G1 X10.209 Y13.310 
G1 X10.123 Y13.242 
G1 X10.061 Y13.233 
G1 X10.009 Y13.289 
G1 X9.954 Y13.415 
G1 X9.932 Y13.502 
G1 X9.934 Y13.589 
G1 X9.959 Y13.676 
G1 X10.006 Y13.763 
G1 X10.076 Y13.850 
G1 X10.169 Y13.937 
G1 X10.421 Y14.110 
G1 X10.760 Y14.280 
G1 X11.186 Y14.448 
G1 X11.697 Y14.613 
G1 X12.293 Y14.773 
G1 X12.900 Y14.917 
G1 X13.378 Y15.015 
G1 X13.744 Y15.069 
G1 X14.013 Y15.083 
G1 X14.701 Y15.044 
G1 X15.607 Y14.960 
G1 X16.644 Y14.841 
G1 X17.721 Y14.696 
G1 X18.669 Y14.558 
G1 X19.321 Y14.436 
G1 X19.903 Y14.321 
G1 X20.412 Y14.205 
G1 X20.868 Y14.080 
G1 X21.291 Y13.939 
G1 X21.702 Y13.774 
G1 X22.120 Y13.578 
G1 X22.566 Y13.344 
G1 X23.060 Y13.064 
G1 X23.482 Y12.827 
G1 X23.911 Y12.605 
G1 X24.973 Y12.117 
G1 X25.533 Y11.873 
G1 X25.797 Y11.716 
G1 X25.999 Y11.581 
G1 X26.162 Y11.439 
G1 X26.272 Y11.307 
G1 X26.313 Y11.201 
G1 X26.288 Y11.110 
G1 X26.218 Y11.014 
G1 X26.114 Y10.923 
G1 X25.984 Y10.847 
G1 X25.813 Y10.766 
G1 X24.453 Y10.352 
G1 X24.131 Y10.197 
G1 X23.914 Y10.078 
G1 X23.725 Y9.936 
G1 X23.542 Y9.751 
G1 X23.341 Y9.503 
G1 X23.218 Y9.379 
G1 X23.048 Y9.269 
G1 X22.828 Y9.172 
G1 X22.553 Y9.085 
G1 X22.253 Y9.003 
G1 X20.093 Y8.961 
G1 X19.253 Y8.841 
G1 X17.373 Y8.520 
G1 X16.757 Y8.458 
G1 X16.139 Y8.416 
G1 X15.517 Y8.402 
G1 X14.893 Y8.407 
G1 X14.613 Y8.442 
G1 X14.181 Y8.522 
G1 X14.006 Y8.577 
G1 X13.860 Y8.640 
G1 X13.745 Y8.711 
G1 X13.661 Y8.789 
G1 X13.610 Y8.874 
G1 X13.593 Y8.966 
G1 X13.596 Y9.034 
G1 X13.619 Y9.066 
G1 X13.681 Y9.070 
G1 X13.802 Y9.055 
G1 X14.044 Y9.007 
G1 X14.332 Y8.932 
G1 X14.720 Y8.836 
G1 X15.101 Y8.782 
G1 X15.496 Y8.768 
G1 X15.927 Y8.792 
G1 X16.453 Y8.841 
G1 X18.773 Y9.234 
G0   Z1.000
G0 X14.987 Y9.492 
G1   Z-0.100F180.0
G1 X14.969 Y9.443 
G1 X14.919 Y9.404 
G1 X14.825 Y9.359 
G1 X14.662 Y9.300 
G1 X14.513 Y9.265 
G1 X14.314 Y9.260 
G1 X14.033 Y9.275 
G1 X13.806 Y9.304 
G1 X13.552 Y9.353 
G1 X12.973 Y9.508 
G1 X12.317 Y9.734 
G1 X11.608 Y10.023 
G1 X11.202 Y10.202 
G1 X11.127 Y10.260 
G1 X11.092 Y10.291 
G1 X11.093 Y10.306 
G1 X11.233 Y10.295 
G1 X11.413 Y10.270 
G1 X14.973 Y9.696 
G1 X14.985 Y9.565 
G1 X14.987 Y9.492 
G0   Z1.000
G0 X14.993 Y9.957 
G1   Z-0.100F180.0
G1 X14.583 Y9.961 
G1 X14.211 Y9.978 
G1 X13.893 Y10.015 
G1 X13.650 Y10.069 
G1 X13.467 Y10.132 
G1 X13.329 Y10.212 
G1 X13.221 Y10.315 
G1 X13.156 Y10.404 
G1 X13.121 Y10.499 
G1 X13.109 Y10.634 
G1 X13.112 Y10.843 
G1 X13.106 Y11.026 
G1 X13.071 Y11.192 
G1 X13.006 Y11.344 
G1 X12.906 Y11.486 
G1 X12.768 Y11.623 
G1 X12.589 Y11.758 
G1 X12.366 Y11.894 
G1 X12.095 Y12.037 
G1 X11.589 Y12.287 
G1 X11.601 Y12.352 
G1 X11.621 Y12.384 
G1 X11.670 Y12.420 
G1 X11.831 Y12.490 
G1 X11.963 Y12.530 
G1 X12.068 Y12.538 
G1 X12.199 Y12.507 
G1 X12.411 Y12.434 
G1 X12.809 Y12.282 
G1 X13.172 Y12.118 
G1 X13.501 Y11.944 
G1 X13.795 Y11.761 
G1 X14.054 Y11.567 
G1 X14.277 Y11.363 
G1 X14.465 Y11.150 
G1 X14.616 Y10.928 
G1 X14.727 Y10.694 
G1 X14.854 Y10.370 
G1 X14.993 Y9.982 
G1  Y9.957 
G0   Z1.000
G0 X15.233 Y9.765 
G1   Z-0.100F180.0
G1 X15.552 Y9.737 
G1 X15.849 Y9.728 
G1 X15.959 Y9.746 
G1 X16.073 Y9.781 
G1 X16.285 Y9.833 
G1 X16.395 Y9.829 
G1 X16.543 Y9.807 
G1 X16.793 Y9.781 
G1 X16.993 Y9.805 
G1 X17.208 Y9.839 
G1 X17.473 Y9.861 
G1 X18.013 Y9.898 
G1 X18.153 Y9.911 
G1 X18.232 Y9.903 
G1 X18.281 Y9.863 
G1 X18.329 Y9.780 
G1 X18.378 Y9.674 
G1 X18.389 Y9.620 
G1 X18.372 Y9.603 
G1 X17.972 Y9.560 
G1 X16.863 Y9.477 
G1 X15.790 Y9.437 
G1 X15.412 Y9.455 
G1 X15.346 Y9.496 
G1 X15.300 Y9.578 
G1 X15.233 Y9.742 
G1  Y9.765 
G0   Z1.000
G0 X15.293 Y9.987 
G1   Z-0.100F180.0
G1 X15.263 Y10.019 
G1 X15.241 Y10.096 
G1 X15.233 Y10.236 
G1 X15.254 Y10.406 
G1 X15.288 Y10.467 
G1 X15.343 Y10.528 
G1 X15.437 Y10.604 
G1 X15.559 Y10.677 
G1 X15.878 Y10.815 
G1 X16.286 Y10.936 
G1 X16.773 Y11.036 
G1 X17.013 Y11.077 
G1 X18.173 Y11.156 
G1 X18.693 Y11.154 
G1 X18.473 Y11.037 
G1 X18.321 Y10.947 
G1 X18.323 Y10.935 
G1 X18.373 Y10.939 
G1 X18.493 Y10.958 
G1 X19.004 Y11.018 
G1 X20.078 Y11.138 
G1 X20.641 Y11.197 
G1 X23.133 Y11.196 
G1 X23.013 Y11.118 
G1 X22.653 Y10.978 
G1 X22.285 Y10.849 
G1 X21.914 Y10.740 
G1 X21.589 Y10.665 
G1 X21.360 Y10.637 
G1 X21.265 Y10.645 
G1 X21.174 Y10.671 
G1 X20.945 Y10.802 
G1 X20.799 Y10.897 
G1 X20.684 Y10.944 
G1 X20.544 Y10.957 
G1 X20.317 Y10.949 
G1 X19.982 Y10.915 
G1 X19.753 Y10.850 
G1 X19.573 Y10.770 
G1 X18.685 Y10.166 
G1 X18.373 Y10.115 
G1 X17.453 Y10.036 
G1 X15.293 Y9.987 
G0   Z1.000
G0 X15.545 Y11.011 
G1   Z-0.100F180.0
G1 X15.507 Y11.045 
G1 X15.474 Y11.113 
G1 X15.407 Y11.230 
G1 X15.301 Y11.348 
G1 X15.153 Y11.469 
G1 X14.963 Y11.593 
G1 X14.727 Y11.722 
G1 X14.443 Y11.858 
G1 X13.724 Y12.153 
G1 X13.196 Y12.354 
G1 X12.980 Y12.456 
G1 X12.813 Y12.543 
G1 X12.692 Y12.627 
G1 X12.618 Y12.706 
G1 X12.589 Y12.781 
G1 X12.607 Y12.853 
G1 X12.671 Y12.922 
G1 X12.781 Y12.988 
G1 X12.937 Y13.052 
G1 X13.039 Y13.081 
G1 X13.155 Y13.088 
G1 X13.596 Y13.037 
G1 X14.254 Y12.922 
G1 X14.867 Y12.778 
G1 X15.428 Y12.610 
G1 X15.930 Y12.418 
G1 X16.368 Y12.207 
G1 X16.734 Y11.978 
G1 X16.889 Y11.858 
G1 X17.023 Y11.735 
G1 X17.136 Y11.609 
G1 X17.227 Y11.481 
G1 X17.318 Y11.303 
G1 X17.294 Y11.275 
G1 X17.221 Y11.259 
G1 X17.093 Y11.238 
G1 X15.933 Y11.042 
G1 X15.729 Y11.017 
G1 X15.545 Y11.011 
G0   Z1.000
G0 X15.346 Y13.616 
G1   Z-0.100F180.0
G1 X15.193 Y13.635 
G1 X15.007 Y13.688 
G1 X14.934 Y13.706 
G1 X14.855 Y13.708 
G1 X14.627 Y13.660 
G1 X14.362 Y13.609 
G1 X14.230 Y13.614 
G1 X14.053 Y13.638 
G1 X13.751 Y13.667 
G1 X13.640 Y13.655 
G1 X13.515 Y13.623 
G1 X13.251 Y13.558 
G1 X13.181 Y13.593 
G1 X13.079 Y13.678 
G1 X13.006 Y13.755 
G1 X12.964 Y13.820 
G1 X12.954 Y13.874 
G1 X12.979 Y13.918 
G1 X13.040 Y13.955 
G1 X13.139 Y13.987 
G1 X13.458 Y14.039 
G1 X13.813 Y14.082 
G1 X16.453 Y14.129 
G1 X16.873 Y14.081 
G1 X17.495 Y13.988 
G1 X17.716 Y13.942 
G1 X17.818 Y13.906 
G1 X17.822 Y13.858 
G1 X17.782 Y13.786 
G1 X17.712 Y13.707 
G1 X17.625 Y13.639 
G1 X17.517 Y13.594 
G1 X17.390 Y13.583 
G1 X17.230 Y13.608 
G1 X17.024 Y13.669 
G1 X16.833 Y13.712 
G1 X16.631 Y13.685 
G1 X16.452 Y13.651 
G1 X16.307 Y13.642 
G1 X16.171 Y13.659 
G1 X16.018 Y13.702 
G1 X15.908 Y13.736 
G1 X15.828 Y13.745 
G1 X15.746 Y13.727 
G1 X15.630 Y13.681 
G1 X15.485 Y13.631 
G1 X15.346 Y13.616 
G0   Z1.000
G0 X12.920 Y13.529 
G1   Z-0.100F180.0
G1 X12.904 Y13.484 
G1 X12.832 Y13.409 
G1 X12.643 Y13.269 
G1 X12.376 Y13.113 
G1 X12.053 Y12.947 
G1 X10.874 Y12.312 
G1 X10.751 Y12.277 
G1 X10.683 Y12.262 
G1 X10.636 Y12.268 
G1 X10.596 Y12.302 
G1 X10.551 Y12.370 
G1 X10.488 Y12.535 
G1 X10.464 Y12.740 
G1 X10.480 Y12.947 
G1 X10.534 Y13.121 
G1 X10.623 Y13.245 
G1 X10.753 Y13.366 
G1 X10.916 Y13.474 
G1 X11.099 Y13.562 
G1 X11.242 Y13.611 
G1 X11.393 Y13.638 
G1 X11.933 Y13.650 
G1 X12.533 Y13.645 
G1 X12.748 Y13.592 
G1 X12.871 Y13.559 
G1 X12.920 Y13.529 
G0   Z1.000
G0 X11.421 Y15.041 
G1   Z-0.100F180.0
G1 X11.440 Y15.063 
G1 X11.230 Y15.075 
G1 X10.879 Y15.056 
G1 X10.561 Y14.992 
G1 X10.291 Y14.888 
G1 X10.178 Y14.822 
G1 X10.083 Y14.747 
G1 X10.021 Y14.682 
G1 X9.997 Y14.635 
G1 X10.011 Y14.608 
G1 X10.063 Y14.601 
G1 X10.133 Y14.604 
G1 X11.172 Y14.924 
G1 X11.332 Y14.998 
G1 X11.421 Y15.041 
G0   Z1.000
G0 X11.973 Y15.298 
G1   Z-0.100F180.0
G1 X12.200 Y15.246 
G1 X12.390 Y15.191 
G1 X12.476 Y15.134 
G1 X12.481 Y15.104 
G1 X12.461 Y15.071 
G1 X12.347 Y14.996 
G1 X12.176 Y14.908 
G1 X10.424 Y14.318 
G1 X10.092 Y14.163 
G1 X9.829 Y14.019 
G1 X9.607 Y13.860 
G1 X9.449 Y13.702 
G1 X9.400 Y13.629 
G1 X9.374 Y13.562 
G1 X9.368 Y13.453 
G1 X9.390 Y13.345 
G1 X9.410 Y13.269 
G1 X9.400 Y13.238 
G1 X9.158 Y13.343 
G1 X8.969 Y13.464 
G1 X8.895 Y13.534 
G1 X8.836 Y13.611 
G1 X8.791 Y13.696 
G1 X8.759 Y13.788 
G1 X8.735 Y13.995 
G1 X8.757 Y14.194 
G1 X8.822 Y14.374 
G1 X8.936 Y14.548 
G1 X9.104 Y14.726 
G1 X9.289 Y14.879 
G1 X9.496 Y15.006 
G1 X9.735 Y15.113 
G1 X10.020 Y15.208 
G1 X10.333 Y15.299 
G1 X11.973 Y15.298 
G0   Z1.000
G0 X7.766 Y18.477 
G1   Z-0.100F180.0
G1 X7.793 Y18.514 
G1 X7.766 Y18.547 
G1 X7.703 Y18.577 
G1 X7.613 Y18.603 
G1 X6.633 Y18.651 
G1  Y18.400 
G1 X7.613 Y18.405 
G1 X7.703 Y18.441 
G1 X7.766 Y18.477 
G0   Z1.000
G0 X8.053 Y18.272 
G1   Z-0.100F180.0
G1 X6.637 Y18.229 
G1 X6.625 Y18.084 
G1 X6.613 Y18.000 
G1 X6.573 Y17.956 
G1 X6.474 Y17.937 
G1 X6.283 Y17.928 
G1 X5.953 Y17.916 
G1  Y18.766 
G1 X8.133 Y18.735 
G1 X8.293 Y18.677 
G1 X8.422 Y18.609 
G1 X8.452 Y18.567 
G1 X8.465 Y18.512 
G1 X8.466 Y18.452 
G1 X8.442 Y18.411 
G1 X8.380 Y18.377 
G1 X8.265 Y18.338 
G1 X8.053 Y18.272 
G0   Z1.000
G0 X9.534 Y18.299 
G1   Z-0.100F180.0
G1 X10.369 Y18.276 
G1 X10.211 Y18.390 
G1 X10.001 Y18.535 
G1 X9.965 Y18.538 
G1 X9.907 Y18.521 
G1 X9.742 Y18.433 
G1 X9.534 Y18.299 
G0   Z1.000
G0 X9.293 Y18.117 
G1   Z-0.100F180.0
G1 X9.133 Y18.018 
G1 X9.038 Y17.968 
G1 X8.942 Y17.938 
G1 X8.643 Y17.920 
G1 X8.313 Y17.919 
G1  Y17.936 
G1 X8.463 Y18.044 
G1 X8.613 Y18.135 
G1 X9.096 Y18.447 
G1 X9.382 Y18.628 
G1 X9.566 Y18.721 
G1 X9.727 Y18.755 
G1 X9.947 Y18.760 
G1 X10.169 Y18.754 
G1 X10.348 Y18.711 
G1 X10.577 Y18.595 
G1 X10.952 Y18.370 
G1 X11.591 Y17.979 
G1 X11.593 Y17.919 
G1 X11.262  
G1 X10.963 Y17.937 
G1 X10.872 Y17.967 
G1 X10.784 Y18.019 
G1 X10.637 Y18.119 
G1 X9.293 Y18.117 
G0   Z1.000
G0 X11.806 Y18.108 
G1   Z-0.100F180.0
G1 X11.925 Y18.141 
G1 X12.058 Y18.154 
G1 X12.230 Y18.149 
G1 X12.733 Y18.081 
G1 X13.050 Y18.057 
G1 X13.355 Y18.078 
G1 X13.566 Y18.133 
G1 X13.610 Y18.169 
G1 X13.599 Y18.209 
G1 X13.558 Y18.250 
G1 X12.790 Y18.291 
G1 X12.804 Y18.335 
G1 X12.896 Y18.375 
G1 X13.096 Y18.409 
G1 X13.321 Y18.444 
G1 X13.473 Y18.485 
G1 X13.543 Y18.532 
G1 X13.433 Y18.589 
G1 X13.348 Y18.616 
G1 X13.246 Y18.630 
G1 X12.933 Y18.620 
G1 X12.193 Y18.585 
G1 X11.813 Y18.580 
G1 X12.133 Y18.740 
G1 X13.893  
G1 X14.043 Y18.686 
G1 X14.149 Y18.632 
G1 X14.193 Y18.574 
G1 X14.156 Y18.520 
G1 X14.063 Y18.463 
G1 X13.943 Y18.417 
G1 X13.824 Y18.395 
G1 X13.733 Y18.391 
G1 X13.953 Y18.341 
G1 X14.246 Y18.255 
G1 X14.299 Y18.214 
G1 X14.313 Y18.162 
G1 X14.291 Y18.106 
G1 X14.226 Y18.058 
G1 X14.118 Y18.016 
G1 X13.970 Y17.982 
G1 X13.556 Y17.938 
G1 X12.993 Y17.925 
G1 X12.453 Y17.929 
G1 X12.223 Y17.963 
G1 X12.028 Y18.004 
G1 X11.883 Y18.054 
G1 X11.806 Y18.108 
G0   Z1.000
G0 X14.913 Y17.916 
G1   Z-0.100F180.0
G1  Y18.760 
G1 X15.416  
G1 X15.712 Y18.756 
G1 X15.892 Y18.727 
G1 X16.032 Y18.650 
G1 X16.205 Y18.500 
G1 X16.489 Y18.239 
G1 X16.573 Y18.240 
G1 X16.833 Y18.499 
G1 X16.991 Y18.648 
G1 X17.127 Y18.725 
G1 X17.313 Y18.753 
G1 X17.624 Y18.758 
G1 X18.155 Y18.760 
G1 X18.133 Y17.939 
G1 X17.823 Y17.928 
G1 X17.643 Y17.926 
G1 X17.588 Y17.935 
G1 X17.551 Y17.955 
G1 X17.529 Y17.990 
G1 X17.517 Y18.043 
G1 X17.513 Y18.218 
G1  Y18.520 
G1 X17.444  
G1 X17.137 Y18.219 
G1 X16.954 Y18.046 
G1 X16.829 Y17.957 
G1 X16.703 Y17.924 
G1 X16.520 Y17.919 
G1 X16.336 Y17.924 
G1 X16.209 Y17.960 
G1 X16.081 Y18.055 
G1 X15.892 Y18.241 
G1 X15.573 Y18.562 
G1 X15.553 Y18.251 
G1 X15.536 Y18.071 
G1 X15.521 Y18.015 
G1 X15.496 Y17.977 
G1 X15.458 Y17.953 
G1 X15.402 Y17.939 
G1 X15.223 Y17.928 
G1 X14.913 Y17.916 
G0   Z1.000
G0 X18.793 Y17.973 
G1   Z-0.100F180.0
G1  Y18.760 
G1 X21.273  
G1  Y18.640 
G1 X19.473  
G1  Y18.440 
G1 X21.159  
G1 X21.132 Y18.299 
G1 X19.473 Y18.278 
G1  Y18.079 
G1 X21.359  
G1 X21.332 Y17.939 
G1 X18.847 Y17.918 
G1 X18.793 Y17.973 
G0   Z1.000
G0 X22.593 Y18.400 
G1   Z-0.100F180.0
G1 X23.573 Y18.405 
G1 X23.663 Y18.441 
G1 X23.726 Y18.477 
G1 X23.753 Y18.514 
G1 X23.732 Y18.548 
G1 X23.683 Y18.579 
G1 X23.613 Y18.607 
G1 X22.593 Y18.651 
G1  Y18.400 
G0   Z1.000
G0 X22.597 Y18.229 
G1   Z-0.100F180.0
G1 X22.585 Y18.084 
G1 X22.573 Y18.000 
G1 X22.533 Y17.956 
G1 X22.434 Y17.937 
G1 X22.243 Y17.928 
G1 X21.913 Y17.916 
G1  Y18.760 
G1 X23.806  
G1 X24.060 Y18.715 
G1 X24.216 Y18.681 
G1 X24.334 Y18.639 
G1 X24.415 Y18.591 
G1 X24.457 Y18.540 
G1 X24.460 Y18.488 
G1 X24.423 Y18.435 
G1 X24.345 Y18.384 
G1 X24.225 Y18.338 
G1 X24.013 Y18.272 
G1 X22.597 Y18.229 
G0   Z1.000
G0 X25.073 Y18.438 
G1   Z-0.100F180.0
G1 X25.081 Y18.482 
G1 X25.122 Y18.507 
G1 X25.396 Y18.520 
G1 X25.662 Y18.508 
G1 X25.702 Y18.487 
G1 X25.705 Y18.450 
G1 X25.686 Y18.414 
G1 X25.636 Y18.390 
G1 X25.382 Y18.368 
G1 X25.119 Y18.370 
G1 X25.080 Y18.393 
G1 X25.073 Y18.438 
G0   Z1.000
G0 X25.122 Y18.067 
G1   Z-0.100F180.0
G1 X25.396 Y18.079 
G1 X25.662 Y18.068 
G1 X25.702 Y18.046 
G1 X25.705 Y18.009 
G1 X25.686 Y17.973 
G1 X25.636 Y17.950 
G1 X25.382 Y17.928 
G1 X25.119 Y17.930 
G1 X25.080 Y17.953 
G1 X25.073 Y17.998 
G1 X25.081 Y18.042 
G1 X25.122 Y18.067 
G0   Z1.000
G0 X27.833 Y18.478 
G1   Z-0.100F180.0
G1  Y18.542 
G1 X28.263 Y18.634 
G1 X28.652 Y18.704 
G1 X28.983 Y18.746 
G1 X29.273 Y18.766 
G1  Y17.919 
G1 X28.973  
G1 X28.799 Y17.924 
G1 X28.746 Y17.935 
G1 X28.710 Y17.957 
G1 X28.688 Y17.994 
G1 X28.677 Y18.048 
G1 X28.673 Y18.224 
G1 X28.670 Y18.400 
G1 X28.654 Y18.487 
G1 X28.637 Y18.506 
G1 X28.610 Y18.512 
G1 X28.525 Y18.501 
G1 X28.105 Y18.444 
G1 X27.881 Y18.431 
G1 X27.842 Y18.446 
G1 X27.833 Y18.478 
G0   Z1.000
G0 X30.773 Y18.259 
G1   Z-0.100F180.0
G1 X31.144 Y18.248 
G1 X31.359 Y18.244 
G1 X31.468 Y18.256 
G1 X31.493 Y18.272 
G1 X31.505 Y18.297 
G1 X31.506 Y18.379 
G1 X31.486 Y18.481 
G1 X31.469 Y18.502 
G1 X31.446 Y18.503 
G1 X31.085 Y18.372 
G1 X30.773 Y18.259 
G0   Z1.000
G0 X30.173 Y18.125 
G1   Z-0.100F180.0
G1 X30.135 Y18.162 
G1 X30.116 Y18.195 
G1 X30.122 Y18.222 
G1 X30.146 Y18.247 
G1 X31.563 Y18.760 
G1 X31.838  
G1 X31.997 Y18.756 
G1 X32.078 Y18.727 
G1 X32.098 Y18.696 
G1 X32.108 Y18.650 
G1 X32.113 Y18.500 
G1 X32.116 Y18.349 
G1 X32.140 Y18.272 
G1 X32.205 Y18.244 
G1 X32.333 Y18.239 
G1 X32.506 Y18.227 
G1 X32.542 Y18.208 
G1 X32.553 Y18.179 
G1 X32.544 Y18.152 
G1 X32.517 Y18.133 
G1 X32.396 Y18.119 
G1 X32.264 Y18.113 
G1 X32.176 Y18.092 
G1 X32.128 Y18.053 
G1 X32.113 Y17.995 
G1 X32.103 Y17.955 
G1 X32.063 Y17.932 
G1 X31.813 Y17.919 
G1 X31.562 Y17.932 
G1 X31.522 Y17.955 
G1 X31.513 Y17.995 
G1 X31.498 Y18.054 
G1 X31.463 Y18.089 
G1 X31.413 Y18.106 
G1 X30.173 Y18.125 
G0   Z1.000
G0 X32.953 Y17.999 
G1   Z-0.100F180.0
G1 X32.961 Y18.043 
G1 X33.003 Y18.067 
G1 X33.273 Y18.079 
G1 X33.551 Y18.066 
G1 X33.587 Y18.036 
G1 X33.593 Y17.978 
G1 X33.570 Y17.900 
G1 X33.496 Y17.842 
G1 X33.363 Y17.800 
G1 X33.163 Y17.770 
G1 X33.004 Y17.765 
G1 X32.965 Y17.775 
G1 X32.953 Y17.794 
G1 X32.985 Y17.826 
G1 X33.063 Y17.840 
G1 X33.158 Y17.852 
G1 X33.233 Y17.879 
G1 X33.251 Y17.897 
G1 X33.241 Y17.910 
G1 X33.123 Y17.919 
G1 X32.984 Y17.934 
G1 X32.959 Y17.958 
G1 X32.953 Y17.999 
G0   Z1.000
G0 X34.144 Y18.166 
G1   Z-0.100F180.0
G1 X34.478 Y18.147 
G1 X34.774 Y18.119 
G1 X35.017 Y18.077 
G1 X35.157 Y18.053 
G1 X35.298 Y18.049 
G1 X35.430 Y18.062 
G1 X35.546 Y18.089 
G1 X35.637 Y18.127 
G1 X35.695 Y18.175 
G1 X35.712 Y18.230 
G1 X35.679 Y18.288 
G1 X35.628 Y18.339 
G1 X34.223  
G1 X34.554 Y18.760 
G1 X36.233  
G1  Y18.600 
G1 X35.001  
G1 X34.959 Y18.490 
G1 X36.013 Y18.451 
G1 X36.180 Y18.382 
G1 X36.275 Y18.336 
G1 X36.340 Y18.289 
G1 X36.374 Y18.241 
G1 X36.379 Y18.194 
G1 X36.353 Y18.147 
G1 X36.298 Y18.101 
G1 X36.098 Y18.016 
G1 X35.893 Y17.953 
G1 X34.813 Y17.924 
G1 X34.613 Y17.957 
G1 X34.318 Y18.030 
G1 X34.224 Y18.074 
G1 X34.172 Y18.120 
G1 X34.144 Y18.166 
G0   Z1.000
G0 X37.853 Y17.922 
G1   Z-0.100F180.0
G1 X37.973 Y17.975 
G1 X38.362 Y18.116 
G1 X38.558 Y18.188 
G1 X38.650 Y18.235 
G1 X38.668 Y18.264 
G1 X37.973 Y18.500 
G1 X38.338 Y18.511 
G1 X38.667 Y18.504 
G1 X38.786 Y18.482 
G1 X38.898 Y18.446 
G1 X39.091 Y18.389 
G1 X39.167 Y18.402 
G1 X39.273 Y18.442 
G1 X39.498 Y18.498 
G1 X39.833 Y18.514 
G1 X40.213 Y18.513 
G1 X39.506 Y18.270 
G1 X39.573 Y18.212 
G1 X40.333 Y17.939 
G1 X39.978 Y17.928 
G1 X39.639 Y17.937 
G1 X39.506 Y17.966 
G1 X39.355 Y18.019 
G1 X39.196 Y18.076 
G1 X39.087 Y18.096 
G1 X38.978 Y18.077 
G1 X38.819 Y18.020 
G1 X38.534 Y17.940 
G1 X38.202 Y17.921 
G1 X37.853 Y17.922 
G0   Z1.000
G0 X42.073 Y18.470 
G1   Z-0.100F180.0
G1  Y18.542 
G1 X42.503 Y18.634 
G1 X42.898 Y18.705 
G1 X43.244 Y18.746 
G1 X43.556 Y18.766 
G1 X43.533 Y17.939 
G1 X43.231 Y17.928 
G1 X43.009 Y17.928 
G1 X42.901 Y17.945 
G1 X42.881 Y18.046 
G1 X42.873 Y18.250 
G1 X42.860 Y18.487 
G1 X42.833 Y18.513 
G1 X42.783 Y18.506 
G1 X42.473 Y18.459 
G1 X42.163 Y18.416 
G1 X42.093 Y18.418 
G1 X42.077 Y18.437 
G1 X42.073 Y18.470 
G0   Z1.000
G0 X44.473 Y18.600 
G1   Z-0.100F180.0
G1  Y18.760 
G1 X46.673  
G1  Y18.653 
G1 X46.339 Y18.526 
G1 X46.077 Y18.413 
G1 X45.863 Y18.292 
G1 X45.703 Y18.165 
G1 X45.599 Y18.037 
G1 X45.556 Y17.971 
G1 X45.501 Y17.936 
G1 X45.407 Y17.922 
G1 X45.243 Y17.920 
G1 X45.008 Y17.932 
G1 X44.964 Y17.951 
G1 X44.953 Y17.983 
G1 X44.970 Y18.040 
G1 X45.020 Y18.107 
G1 X45.198 Y18.257 
G1 X45.454 Y18.410 
G1 X45.751 Y18.542 
G1 X45.893 Y18.594 
G1 X44.473 Y18.600 
G0   Z1.000
G0 X48.364 Y18.236 
G1   Z-0.100F180.0
G1 X48.386 Y18.300 
G1 X48.452 Y18.362 
G1 X48.566 Y18.421 
G1 X48.835 Y18.492 
G1 X49.194 Y18.536 
G1 X49.592 Y18.550 
G1 X49.977 Y18.528 
G1 X50.393 Y18.482 
G1 X50.498 Y18.427 
G1 X50.550 Y18.396 
G1 X50.556 Y18.385 
G1 X50.546 Y18.376 
G1 X50.312 Y18.348 
G1 X50.074 Y18.341 
G1 X49.937 Y18.369 
G1 X49.778 Y18.403 
G1 X49.530 Y18.413 
G1 X49.282 Y18.401 
G1 X49.123 Y18.366 
G1 X49.059 Y18.310 
G1 X49.036 Y18.241 
G1 X49.054 Y18.173 
G1 X49.113 Y18.119 
G1 X49.267 Y18.072 
G1 X49.476 Y18.051 
G1 X49.693 Y18.058 
G1 X49.873 Y18.095 
G1 X50.078 Y18.140 
G1 X50.318 Y18.159 
G1 X50.513 Y18.151 
G1 X50.569 Y18.135 
G1 X50.584 Y18.113 
G1 X50.526 Y18.063 
G1 X50.410 Y18.009 
G1 X50.253 Y17.953 
G1 X49.093 Y17.923 
G1 X48.878 Y17.962 
G1 X48.697 Y18.003 
G1 X48.554 Y18.053 
G1 X48.450 Y18.110 
G1 X48.386 Y18.171 
G1 X48.364 Y18.236 
G0   Z1.000
G0 X51.113 Y18.246 
G1   Z-0.100F180.0
G1  Y18.520 
G1 X51.526  
G1 X51.770 Y18.516 
G1 X51.924 Y18.494 
G1 X52.055 Y18.434 
G1 X52.228 Y18.318 
G1 X52.398 Y18.204 
G1 X52.460 Y18.176 
G1 X52.515 Y18.166 
G1 X52.570 Y18.176 
G1 X52.631 Y18.204 
G1 X52.802 Y18.318 
G1 X52.974 Y18.434 
G1 X53.104 Y18.494 
G1 X53.258 Y18.516 
G1 X53.502 Y18.520 
G1 X53.916  
G1 X53.904 Y18.229 
G1 X53.894 Y18.062 
G1 X53.862 Y17.976 
G1 X53.830 Y17.955 
G1 X53.783 Y17.944 
G1 X53.633 Y17.939 
G1 X53.482 Y17.942 
G1 X53.404 Y17.961 
G1 X53.371 Y18.013 
G1 X53.360 Y18.113 
G1 X53.345 Y18.226 
G1 X53.329 Y18.253 
G1 X53.301 Y18.261 
G1 X53.195 Y18.213 
G1 X52.994 Y18.080 
G1 X52.859 Y17.994 
G1 X52.754 Y17.945 
G1 X52.647 Y17.924 
G1 X52.503 Y17.919 
G1 X52.356 Y17.924 
G1 X52.248 Y17.947 
G1 X52.139 Y18.001 
G1 X51.993 Y18.099 
G1 X51.737 Y18.279 
G1 X51.705  
G1 X51.682 Y18.227 
G1 X51.673 Y18.099 
G1 X51.669 Y17.995 
G1 X51.641 Y17.942 
G1 X51.566 Y17.922 
G1 X51.419 Y17.919 
G1 X51.233 Y17.927 
G1 X51.139 Y17.946 
G1 X51.120 Y18.045 
G1 X51.113 Y18.246 
G0   Z1.000
G0 X49.293 Y14.199 
G1   Z-0.100F180.0
G1 X51.413 Y13.804 
G1 X51.093 Y13.797 
G1 X50.685 Y13.761 
G1 X50.594 Y13.737 
G1 X50.653 Y13.722 
G1 X50.733 Y13.719 
G1 X52.533 Y13.556 
G1 X52.673 Y13.531 
G1 X52.781 Y13.506 
G1 X52.705 Y13.477 
G1 X52.597 Y13.446 
G1 X52.145 Y13.426 
G1 X51.685 Y13.421 
G1 X51.216 Y13.440 
G1 X50.681 Y13.489 
G1 X50.300 Y13.547 
G1 X50.087 Y13.612 
G1 X50.049 Y13.646 
G1 X50.058 Y13.680 
G1 X50.153 Y13.719 
G1 X50.333 Y13.767 
G1 X50.573 Y13.820 
G1 X49.773 Y13.870 
G1 X48.153 Y13.999 
G1 X46.613 Y14.145 
G1 X45.822 Y14.194 
G1 X44.913 Y14.214 
G1 X43.933 Y14.215 
G1 X43.537 Y14.145 
G1 X43.147 Y14.060 
G1 X42.768 Y13.952 
G1 X42.542 Y13.882 
G1 X42.360 Y13.855 
G1 X42.126 Y13.868 
G1 X41.744 Y13.917 
G1 X40.173 Y14.160 
G1 X39.253 Y14.315 
G1 X39.013 Y14.385 
G1 X39.973 Y14.411 
G1 X42.093 Y14.496 
G1 X43.253 Y14.553 
G1 X44.113 Y14.579 
G1 X45.179 Y14.583 
G1 X46.299 Y14.537 
G1 X47.450 Y14.441 
G1 X48.613 Y14.297 
G1 X49.293 Y14.199 
G0   Z1.000
G0 X51.679 Y13.258 
G1   Z-0.100F180.0
G1 X53.053 Y13.306 
G1 X53.084 Y13.279 
G1 X53.103 Y13.235 
G1 X53.085 Y13.181 
G1 X53.035 Y13.126 
G1 X52.960 Y13.079 
G1 X52.790 Y13.040 
G1 X52.533 Y13.016 
G1 X52.252 Y13.016 
G1 X52.026 Y13.032 
G1 X51.865 Y13.078 
G1 X51.806 Y13.114 
G1 X51.759 Y13.159 
G1 X51.679 Y13.258 
G0   Z1.000
G0 X51.803 Y12.815 
G1   Z-0.100F180.0
G1 X51.893 Y12.833 
G1 X52.293 Y12.856 
G1 X52.998 Y12.903 
G1 X53.262 Y12.911 
G1 X53.308 Y12.889 
G1 X53.331 Y12.844 
G1 X53.337 Y12.765 
G1 X53.310 Y12.678 
G1 X53.250 Y12.587 
G1 X53.158 Y12.493 
G1 X53.037 Y12.411 
G1 X52.862 Y12.324 
G1 X52.381 Y12.148 
G1 X51.781 Y11.987 
G1 X51.128 Y11.860 
G1 X50.723 Y11.798 
G1 X50.653 Y11.800 
G1 X50.940 Y11.935 
G1 X51.293 Y12.123 
G1 X51.427 Y12.214 
G1 X51.533 Y12.306 
G1 X51.613 Y12.398 
G1 X51.669 Y12.492 
G1 X51.702 Y12.590 
G1 X51.713 Y12.693 
G1 X51.733 Y12.777 
G1 X51.761 Y12.801 
G1 X51.803 Y12.815 
G0   Z1.000
G0 X49.308 Y12.346 
G1   Z-0.100F180.0
G1 X49.314 Y12.297 
G1 X49.283 Y12.282 
G1 X49.093 Y12.319 
G1 X48.693 Y12.442 
G1 X48.549 Y12.487 
G1 X48.391 Y12.517 
G1 X47.893 Y12.544 
G1 X47.374 Y12.574 
G1 X47.173 Y12.606 
G1 X46.973 Y12.654 
G1 X46.613 Y12.751 
G1 X47.973 Y12.757 
G1 X48.333 Y12.717 
G1 X48.635 Y12.674 
G1 X48.882 Y12.619 
G1 X49.072 Y12.553 
G1 X49.206 Y12.476 
G1 X49.269 Y12.412 
G1 X49.308 Y12.346 
G0   Z1.000
G0 X49.002 Y11.863 
G1   Z-0.100F180.0
G1 X48.833 Y11.836 
G1 X48.577 Y11.815 
G1 X48.273 Y11.809 
G1 X47.733 Y11.825 
G1 X47.171 Y11.875 
G1 X46.679 Y11.952 
G1 X46.259 Y12.053 
G1 X45.919 Y12.179 
G1 X45.720 Y12.286 
G1 X45.541 Y12.412 
G1 X45.406 Y12.536 
G1 X45.341 Y12.638 
G1 X45.333 Y12.684 
G1 X45.350 Y12.706 
G1 X45.506 Y12.697 
G1 X45.866 Y12.642 
G1 X46.194 Y12.575 
G1 X46.503 Y12.492 
G1 X46.806 Y12.392 
G1 X47.478 Y12.161 
G1 X48.026 Y12.003 
G1 X48.479 Y11.909 
G1 X48.870 Y11.872 
G1 X49.002 Y11.863 
G0   Z1.000
G0 X49.333 Y12.958 
G1   Z-0.100F180.0
G1 X47.813 Y12.879 
G1 X47.413 Y12.890 
G1 X46.849 Y12.921 
G1 X46.415 Y12.954 
G1 X46.009 Y13.003 
G1 X45.677 Y13.059 
G1 X45.469 Y13.118 
G1 X45.373 Y13.160 
G1 X46.093 Y13.118 
G1 X47.133 Y13.093 
G1 X48.203 Y13.089 
G1 X49.346 Y13.136 
G1 X50.520 Y13.204 
G1 X50.559 Y13.165 
G1 X50.266 Y13.102 
G1 X49.653 Y12.999 
G1 X49.333 Y12.958 
G0   Z1.000
G0 X48.093 Y13.458 
G1   Z-0.100F180.0
G1 X47.876 Y13.407 
G1 X47.575 Y13.352 
G1 X47.213 Y13.312 
G1 X46.801 Y13.289 
G1 X46.353 Y13.284 
G1 X45.313 Y13.323 
G1 X44.812 Y13.367 
G1 X44.334 Y13.426 
G1 X43.920 Y13.492 
G1 X43.612 Y13.560 
G1 X43.333 Y13.637 
G1 X43.613 Y13.617 
G1 X44.333 Y13.553 
G1 X44.773 Y13.509 
G1 X48.093 Y13.458 
G0   Z1.000
G0 X45.054 Y12.516 
G1   Z-0.100F180.0
G1 X45.071 Y12.408 
G1 X45.058 Y12.293 
G1 X45.022 Y12.201 
G1 X44.971 Y12.141 
G1 X44.908 Y12.121 
G1 X44.853 Y12.124 
G1 X44.435 Y12.302 
G1 X43.899 Y12.518 
G1 X43.335 Y12.717 
G1 X42.735 Y12.902 
G1 X42.090 Y13.076 
G1 X41.392 Y13.240 
G1 X40.632 Y13.396 
G1 X39.802 Y13.547 
G1 X38.893 Y13.695 
G1 X37.973 Y13.837 
G1 X33.133 Y14.480 
G1 X31.053 Y14.761 
G1 X30.713 Y14.877 
G1 X30.361 Y14.971 
G1 X29.993 Y15.036 
G1 X29.613 Y15.079 
G1 X27.373 Y15.159 
G1 X26.793 Y15.201 
G1 X26.357 Y15.243 
G1 X25.984 Y15.295 
G1 X25.696 Y15.356 
G1 X25.513 Y15.422 
G1 X25.465 Y15.451 
G1 X25.468 Y15.467 
G1 X25.673 Y15.476 
G1 X25.933 Y15.476 
G1 X28.933 Y15.402 
G1 X29.493 Y15.340 
G1 X30.413 Y15.215 
G1 X30.773 Y15.153 
G1 X31.492 Y14.993 
G1 X32.061 Y14.874 
G1 X32.618 Y14.776 
G1 X33.203 Y14.694 
G1 X33.853 Y14.620 
G1 X34.453 Y14.558 
G1 X38.053 Y14.278 
G1 X38.853 Y14.196 
G1 X39.553 Y14.114 
G1 X40.551 Y13.986 
G1 X41.457 Y13.845 
G1 X42.280 Y13.690 
G1 X43.033 Y13.519 
G1 X43.653 Y13.364 
G1 X43.953 Y13.257 
G1 X44.208 Y13.158 
G1 X44.433 Y13.055 
G1 X44.625 Y12.950 
G1 X44.784 Y12.843 
G1 X44.909 Y12.734 
G1 X44.999 Y12.625 
G1 X45.054 Y12.516 
G0   Z1.000
G0 X43.893 Y11.725 
G1   Z-0.100F180.0
G1 X44.921 Y11.034 
G1 X45.125 Y10.931 
G1 X45.383 Y10.811 
G1 X45.666 Y10.703 
G1 X45.991 Y10.599 
G1 X46.373 Y10.495 
G1 X46.893 Y10.363 
G1 X46.753 Y10.365 
G1 X46.213 Y10.402 
G1 X45.754 Y10.450 
G1 X45.312 Y10.514 
G1 X44.885 Y10.596 
G1 X44.471 Y10.695 
G1 X44.069 Y10.811 
G1 X43.677 Y10.946 
G1 X43.294 Y11.100 
G1 X42.918 Y11.273 
G1 X42.533 Y11.461 
G1 X40.914 Y12.281 
G1 X39.914 Y12.612 
G1 X39.942 Y12.641 
G1 X40.558 Y12.598 
G1 X41.018 Y12.558 
G1 X41.453 Y12.505 
G1 X41.862 Y12.437 
G1 X42.249 Y12.355 
G1 X42.614 Y12.258 
G1 X42.959 Y12.147 
G1 X43.285 Y12.019 
G1 X43.593 Y11.876 
G1 X43.893 Y11.725 
G0   Z1.000
G0 X43.757 Y10.568 
G1   Z-0.100F180.0
G1 X44.059 Y10.476 
G1 X44.343 Y10.374 
G1 X44.607 Y10.261 
G1 X44.852 Y10.139 
G1 X45.075 Y10.009 
G1 X45.276 Y9.871 
G1 X45.453 Y9.725 
G1 X45.606 Y9.573 
G1 X45.733 Y9.415 
G1 X45.834 Y9.252 
G1 X45.908 Y9.084 
G1 X45.952 Y8.912 
G1 X45.967 Y8.737 
G1 X45.958 Y8.615 
G1 X45.932 Y8.486 
G1 X45.839 Y8.226 
G1 X45.708 Y7.999 
G1 X45.633 Y7.911 
G1 X45.557 Y7.846 
G1 X45.389 Y7.756 
G1 X45.340 Y7.786 
G1 X45.294 Y7.947 
G1 X45.271 Y8.013 
G1 X45.230 Y8.079 
G1 X45.088 Y8.214 
G1 X44.918 Y8.321 
G1 X44.752 Y8.373 
G1 X44.571 Y8.371 
G1 X44.352 Y8.319 
G1 X44.148 Y8.259 
G1 X44.022 Y8.246 
G1 X43.931 Y8.285 
G1 X43.830 Y8.380 
G1 X43.693 Y8.525 
G1 X43.293 Y8.811 
G1 X42.864 Y9.143 
G1 X42.717 Y9.283 
G1 X42.611 Y9.409 
G1 X42.545 Y9.523 
G1 X42.518 Y9.628 
G1 X42.528 Y9.727 
G1 X42.572 Y9.821 
G1 X42.614 Y9.877 
G1 X42.658 Y9.905 
G1 X42.723 Y9.910 
G1 X42.826 Y9.898 
G1 X43.050 Y9.851 
G1 X43.325 Y9.774 
G1 X43.574 Y9.705 
G1 X43.737 Y9.677 
G1 X43.792 Y9.680 
G1 X43.809 Y9.699 
G1 X43.716 Y9.853 
G1 X43.554 Y10.049 
G1 X43.332 Y10.264 
G1 X43.082 Y10.470 
G1 X42.833 Y10.642 
G1 X42.628 Y10.776 
G1 X42.653 Y10.786 
G1 X42.753 Y10.774 
G1 X43.103 Y10.718 
G1 X43.438 Y10.649 
G1 X43.757 Y10.568 
G0   Z1.000
G0 X46.080 Y10.072 
G1   Z-0.100F180.0
G1 X46.130 Y10.090 
G1 X46.261 Y10.086 
G1 X46.589 Y10.045 
G1 X46.972 Y9.957 
G1 X47.357 Y9.837 
G1 X47.693 Y9.699 
G1 X48.103 Y9.459 
G1 X48.587 Y9.124 
G1 X49.122 Y8.724 
G1 X49.376 Y8.595 
G1 X49.629 Y8.483 
G1 X49.881 Y8.394 
G1 X50.074 Y8.332 
G1 X49.913 Y8.326 
G1 X49.553 Y8.344 
G1 X48.894 Y8.441 
G1 X48.293 Y8.577 
G1 X47.905 Y8.708 
G1 X47.549 Y8.873 
G1 X47.200 Y9.085 
G1 X46.833 Y9.358 
G1 X46.373 Y9.725 
G1 X46.201 Y9.911 
G1 X46.106 Y10.018 
G1 X46.080 Y10.072 
G0   Z1.000
G0 X47.284 Y5.590 
G1   Z-0.100F180.0
G1 X47.464 Y5.633 
G1 X47.664 Y5.660 
G1 X47.840 Y5.673 
G1 X47.898 Y5.659 
G1 X47.947 Y5.617 
G1 X47.995 Y5.539 
G1 X48.049 Y5.413 
G1 X48.210 Y4.982 
G1 X48.417 Y4.471 
G1 X48.510 Y4.290 
G1 X48.602 Y4.143 
G1 X48.654 Y4.060 
G1 X48.667 Y4.018 
G1 X48.653 Y4.006 
G1 X48.283 Y4.100 
G1 X47.933 Y4.199 
G1 X47.625 Y4.307 
G1 X47.360 Y4.422 
G1 X47.139 Y4.545 
G1 X46.965 Y4.673 
G1 X46.838 Y4.807 
G1 X46.761 Y4.944 
G1 X46.734 Y5.083 
G1 X46.752 Y5.190 
G1 X46.802 Y5.290 
G1 X46.882 Y5.381 
G1 X46.991 Y5.462 
G1 X47.126 Y5.532 
G1 X47.284 Y5.590 
G0   Z1.000
G0 X49.202 Y5.977 
G1   Z-0.100F180.0
G1 X49.202 Y6.102 
G1 X49.230 Y6.221 
G1 X49.284 Y6.334 
G1 X49.363 Y6.439 
G1 X49.466 Y6.535 
G1 X49.593 Y6.621 
G1 X49.743 Y6.696 
G1 X49.913 Y6.759 
G1 X50.158 Y6.819 
G1 X50.462 Y6.869 
G1 X50.783 Y6.903 
G1 X51.079 Y6.916 
G1 X51.286 Y6.896 
G1 X51.347 Y6.859 
G1 X51.409 Y6.793 
G1 X51.474 Y6.693 
G1 X51.507 Y6.584 
G1 X51.508 Y6.469 
G1 X51.477 Y6.348 
G1 X51.441 Y6.256 
G1 X50.742 Y5.576 
G1 X50.603 Y5.436 
G1 X50.490 Y5.300 
G1 X50.398 Y5.149 
G1 X50.337 Y4.998 
G1 X50.314 Y4.865 
G1 X50.298 Y4.788 
G1 X50.263 Y4.757 
G1 X50.164 Y4.800 
G1 X49.997 Y4.901 
G1 X49.837 Y5.016 
G1 X49.691 Y5.140 
G1 X49.561 Y5.273 
G1 X49.449 Y5.411 
G1 X49.355 Y5.552 
G1 X49.281 Y5.695 
G1 X49.230 Y5.838 
G1 X49.202 Y5.977 
G0   Z1.000
G0 X51.825 Y5.236 
G1   Z-0.100F180.0
G1 X52.019 Y5.448 
G1 X52.145 Y5.600 
G1 X52.248 Y5.751 
G1 X52.328 Y5.903 
G1 X52.384 Y6.055 
G1 X52.417 Y6.209 
G1 X52.427 Y6.364 
G1 X52.414 Y6.521 
G1 X52.379 Y6.680 
G1 X52.315 Y6.896 
G1 X51.686 Y7.896 
G1 X51.639 Y8.032 
G1 X51.607 Y8.165 
G1 X51.594 Y8.292 
G1 X51.615 Y8.415 
G1 X51.665 Y8.569 
G1 X51.724 Y8.701 
G1 X51.770 Y8.757 
G1 X52.047 Y8.599 
G1 X52.693 Y8.190 
G1 X53.332 Y7.798 
G1 X53.686 Y7.580 
G1 X53.955 Y7.367 
G1 X54.055 Y7.264 
G1 X54.132 Y7.165 
G1 X54.186 Y7.069 
G1 X54.215 Y6.977 
G1 X54.223 Y6.880 
G1 X54.210 Y6.779 
G1 X54.178 Y6.675 
G1 X54.127 Y6.570 
G1 X53.972 Y6.356 
G1 X53.750 Y6.141 
G1 X53.469 Y5.931 
G1 X53.132 Y5.731 
G1 X52.747 Y5.545 
G1 X52.319 Y5.379 
G1 X51.905 Y5.236 
G1 X51.825  
G0   Z1.000
G0 X53.313 Y8.637 
G1   Z-0.100F180.0
G1 X53.013 Y8.768 
G1 X51.767 Y9.384 
G1 X51.517 Y9.554 
G1 X51.306 Y9.722 
G1 X51.155 Y9.901 
G1 X51.063 Y10.088 
G1 X51.040 Y10.184 
G1 X51.033 Y10.283 
G1 X51.044 Y10.424 
G1 X51.072 Y10.497 
G1 X51.111 Y10.521 
G1 X52.062 Y10.241 
G1 X53.741 Y9.759 
G1 X54.470 Y9.557 
G1 X54.661 Y9.492 
G1 X55.089 Y9.326 
G1 X55.468 Y9.135 
G1 X55.771 Y8.934 
G1 X55.887 Y8.835 
G1 X55.974 Y8.738 
G1 X56.044 Y8.625 
G1 X56.082 Y8.508 
G1 X56.089 Y8.386 
G1 X56.063 Y8.257 
G1 X56.005 Y8.120 
G1 X55.914 Y7.974 
G1 X55.790 Y7.817 
G1 X55.632 Y7.647 
G1 X55.459 Y7.489 
G1 X55.276 Y7.344 
G1 X55.117 Y7.237 
G1 X55.019 Y7.196 
G1 X54.997 Y7.231 
G1 X54.973 Y7.316 
G1 X54.908 Y7.470 
G1 X54.790 Y7.670 
G1 X54.698 Y7.793 
G1 X54.587 Y7.910 
G1 X54.453 Y8.024 
G1 X54.293 Y8.138 
G1 X53.879 Y8.373 
G1 X53.313 Y8.637 
G0   Z1.000
G0 X53.732 Y10.317 
G1   Z-0.100F180.0
G1 X53.291 Y10.431 
G1 X51.813 Y10.677 
G1 X48.893 Y11.080 
G1 X48.353 Y11.161 
G1 X47.479 Y11.311 
G1 X46.732 Y11.473 
G1 X46.153 Y11.638 
G1 X45.942 Y11.718 
G1 X45.789 Y11.794 
G1 X45.692 Y11.867 
G1 X45.833 Y11.877 
G1 X46.013 Y11.877 
G1 X47.813 Y11.718 
G1 X48.973 Y11.596 
G1 X49.853 Y11.494 
G1 X50.827 Y11.374 
G1 X51.688 Y11.251 
G1 X52.440 Y11.124 
G1 X53.090 Y10.992 
G1 X53.641 Y10.854 
G1 X54.100 Y10.708 
G1 X54.471 Y10.553 
G1 X54.759 Y10.389 
G1 X54.882 Y10.293 
G1 X54.967 Y10.197 
G1 X55.017 Y10.099 
G1 X55.033 Y9.995 
G1 X55.018 Y9.941 
G1 X54.983 Y9.920 
G1 X54.933 Y9.922 
G1 X54.553 Y10.063 
G1 X54.155 Y10.195 
G1 X53.732 Y10.317 
G0   Z1.000
M92
;%
