;START
;%
;(VECTRIC POST REVISION)
;(2913AB479EA3000D32B9C42F7F010597)
;O0001
;G17 G90 G21 G40 G80
;G08 P1
;T0
;(TOOL#1)
;T1
;M11
;G0 G90 X0.000 Y0.000 M13 S12000
;G0 G43 Z20.000 H1
G0 X4.683 Y5.125 
G0   Z1.000
G1   Z-0.150F90.0
G1 X4.820 Y5.015 F120.0
G1 X4.980 Y4.938 
G1 X5.157 Y4.901 
G1 X5.350 Y4.910 
G1 X5.454 Y4.938 
G1 X5.557 Y4.979 
G1 X5.659 Y5.047 
G1 X5.764 Y5.139 
G1 X5.873 Y5.284 
G1 X5.938 Y5.441 
G1 X5.964 Y5.609 
G1 X5.951 Y5.779 
G1 X5.900 Y5.943 
G1 X5.814 Y6.094 
G1 X5.693 Y6.223 
G1 X5.542 Y6.322 
G1 X5.399 Y6.365 
G1 X5.212 Y6.381 
G1 X5.027 Y6.365 
G1 X4.890 Y6.322 
G1 X4.745 Y6.226 
G1 X4.627 Y6.103 
G1 X4.540 Y5.956 
G1 X4.487 Y5.788 
G1 X4.472 Y5.599 
G1 X4.504 Y5.424 
G1 X4.576 Y5.264 
G1 X4.683 Y5.125 
G0   Z1.000
G0 X4.363 Y4.755 
G1   Z-0.150F90.0
G1 X4.233 Y4.903 F120.0
G1 X4.129 Y5.071 
G1 X4.054 Y5.257 
G1 X4.009 Y5.456 
G1 X3.995 Y5.667 
G1 X4.016 Y5.923 
G1 X4.099 Y6.155 
G1 X4.207 Y6.345 
G1 X4.347 Y6.515 
G1 X4.513 Y6.659 
G1 X4.695 Y6.767 
G1 X4.810 Y6.815 
G1 X4.926 Y6.844 
G1 X5.227 Y6.858 
G1 X5.539 Y6.843 
G1 X5.758 Y6.758 
G1 X5.945 Y6.636 
G1 X6.114 Y6.481 
G1 X6.255 Y6.306 
G1 X6.356 Y6.122 
G1 X6.419 Y5.903 
G1 X6.434 Y5.636 
G1 X6.419 Y5.359 
G1 X6.338 Y5.132 
G1 X6.258 Y4.986 
G1 X6.162 Y4.856 
G1 X6.049 Y4.739 
G1 X5.922 Y4.639 
G1 X5.783 Y4.555 
G1 X5.634 Y4.490 
G1 X5.476 Y4.443 
G1 X5.308 Y4.416 
G1 X5.105 Y4.417 
G1 X4.891 Y4.459 
G1 X4.695 Y4.530 
G1 X4.518 Y4.630 
G1 X4.363 Y4.755 
G0   Z1.000
G0 X11.133 Y7.962 
G1   Z-0.150F90.0
G1 X11.150 Y7.939 F120.0
G1 X11.179 Y7.919 
G1 X11.201 Y7.915 
G1 X11.222 Y7.919 
G1 X11.250 Y7.938 
G1 X11.269 Y7.966 
G1 X11.271 Y7.971 
G1 X11.268 Y7.981 
G1 X11.247 Y8.015 
G1 X11.218 Y8.038 
G1 X11.201 Y8.042 
G1 X11.183 Y8.038 
G1 X11.153 Y8.014 
G1 X11.134 Y7.984 
G1 X11.131 Y7.971 
G1 X11.133 Y7.962 
G0   Z1.000
G0 X6.911 Y12.250 
G1   Z-0.150F90.0
G1 X6.935 Y12.274 F120.0
G1 X6.956 Y12.310 
G1 X6.959 Y12.324 
G1 X6.959 Y12.330 
G1 X6.929 Y12.386 
G1 X6.918 Y12.396 
G1 X6.901 Y12.405 
G1 X6.888 Y12.407 
G1 X6.874 Y12.406 
G1 X6.840 Y12.390 
G1 X6.817 Y12.371 
G1 X6.804 Y12.351 
G1 X6.799 Y12.332 
G1 X6.799 Y12.313 
G1 X6.806 Y12.295 
G1 X6.820 Y12.275 
G1 X6.851 Y12.253 
G1 X6.876 Y12.243 
G1 X6.889 Y12.241 
G1 X6.898 Y12.243 
G1 X6.911 Y12.250 
G0   Z1.000
G0 X6.873 Y18.672 
G1   Z-0.150F90.0
G1 X6.925 Y18.677 F120.0
G1 X6.943 Y18.683 
G1 X6.953 Y18.692 
G1 X6.980 Y18.733 
G1 X6.998 Y18.777 
G1 X7.000 Y18.793 
G1 X6.997 Y18.803 
G1 X6.977 Y18.835 
G1 X6.939 Y18.873 
G1 X6.911 Y18.889 
G1 X6.885 Y18.892 
G1 X6.843 Y18.885 
G1 X6.812 Y18.870 
G1 X6.791 Y18.853 
G1 X6.778 Y18.836 
G1 X6.770 Y18.816 
G1 X6.767 Y18.794 
G1 X6.771 Y18.768 
G1 X6.783 Y18.738 
G1 X6.803 Y18.707 
G1 X6.837 Y18.678 
G1 X6.873 Y18.672 
G0   Z1.000
G0 X6.457 Y18.275 
G1   Z-0.150F90.0
G1 X6.409 Y18.327 F120.0
G1 X6.323 Y18.440 
G1 X6.263 Y18.575 
G1 X6.233 Y18.720 
G1 X6.235 Y18.870 
G1 X6.258 Y18.988 
G1 X6.302 Y19.096 
G1 X6.364 Y19.191 
G1 X6.443 Y19.273 
G1 X6.537 Y19.337 
G1 X6.643 Y19.383 
G1 X6.758 Y19.411 
G1 X6.881 Y19.420 
G1 X7.050 Y19.405 
G1 X7.203 Y19.353 
G1 X7.333 Y19.262 
G1 X7.434 Y19.134 
G1 X7.519 Y18.932 
G1 X7.533 Y18.718 
G1 X7.473 Y18.512 
G1 X7.353 Y18.335 
G1 X7.286 Y18.261 
G1  Y12.798 
G1 X7.337 Y12.739 
G1 X7.405 Y12.647 
G1 X7.457 Y12.540 
G1 X7.489 Y12.428 
G1 X7.499 Y12.314 
G1 X7.488 Y12.200 
G1 X7.455 Y12.090 
G1 X7.400 Y11.987 
G1 X7.336 Y11.911 
G1 X7.295 Y11.858 
G1 X7.286 Y11.825 
G1 X10.690 Y8.407 
G1 X10.723 Y8.433 
G1 X10.822 Y8.517 
G1 X10.939 Y8.584 
G1 X11.066 Y8.621 
G1 X11.205 Y8.632 
G1 X11.346 Y8.618 
G1 X11.480 Y8.575 
G1 X11.600 Y8.504 
G1 X11.704 Y8.406 
G1 X11.807 Y8.242 
G1 X11.859 Y8.065 
G1 X11.861 Y7.887 
G1 X11.815 Y7.717 
G1 X11.726 Y7.566 
G1 X11.597 Y7.443 
G1 X11.434 Y7.358 
G1 X11.247 Y7.320 
G1 X11.062 Y7.326 
G1 X10.909 Y7.373 
G1 X10.792 Y7.451 
G1 X10.710 Y7.529 
G1 X10.666 Y7.565 
G1 X10.598 Y7.575 
G1 X10.480 Y7.588 
G1 X10.370 Y7.624 
G1 X10.281 Y7.679 
G1 X6.521 Y11.451 
G1 X6.476 Y11.549 
G1 X6.464 Y11.723 
G1 X6.442 Y11.855 
G1 X6.385 Y11.949 
G1 X6.333 Y12.021 
G1 X6.288 Y12.118 
G1 X6.269 Y12.328 
G1 X6.289 Y12.549 
G1 X6.392 Y12.715 
G1 X6.457 Y12.797 
G1  Y18.275 
G0   Z1.000
G0 X11.171 Y9.696 
G1   Z-0.150F90.0
G1 X11.153 Y9.683 F120.0
G1 X11.131 Y9.651 
G1 X11.129 Y9.639 
G1 X11.133 Y9.626 
G1 X11.163 Y9.591 
G1 X11.201 Y9.565 
G1 X11.239 Y9.596 
G1 X11.265 Y9.630 
G1 X11.265 Y9.645 
G1 X11.259 Y9.665 
G1 X11.247 Y9.683 
G1 X11.233 Y9.695 
G1 X11.219 Y9.702 
G1 X11.204 Y9.705 
G1 X11.188 Y9.703 
G1 X11.171 Y9.696 
G0   Z1.000
G0 X14.284 Y10.774 
G1   Z-0.150F90.0
G1 X14.293 Y10.967 F120.0
G1 X14.283 Y11.176 
G1 X14.282 Y11.182 
G1 X14.279 Y11.172 
G1 X14.265 Y10.993 
G1 X14.276 Y10.811 
G1 X14.284 Y10.774 
G0   Z1.000
G0 X17.468 Y7.856 
G1   Z-0.150F90.0
G1 X17.453 Y7.807 F120.0
G1 X17.443 Y7.656 
G1 X17.452 Y7.505 
G1 X17.467 Y7.452 
G1 X17.472 Y7.454 
G1 X17.472 Y7.455 
G1 X17.482 Y7.669 
G1  Y7.860 
G1 X17.468 Y7.856 
G0   Z1.000
G0 X17.468 Y8.401 
G1   Z-0.150F90.0
G1 X17.608 Y8.389 F120.0
G1 X17.735 Y8.346 
G1 X17.843 Y8.268 
G1 X17.929 Y8.164 
G1 X17.980 Y8.074 
G1 X18.010 Y7.966 
G1 X18.022 Y7.661 
G1 X18.010 Y7.362 
G1 X17.984 Y7.255 
G1 X17.937 Y7.163 
G1 X17.849 Y7.052 
G1 X17.734 Y6.970 
G1 X17.600 Y6.923 
G1 X17.449 Y6.908 
G1 X17.278 Y6.932 
G1 X17.132 Y7.021 
G1 X17.029 Y7.132 
G1 X16.959 Y7.247 
G1 X16.954 Y7.259 
G1 X16.025 Y7.245 
G1 X15.825 Y7.354 
G1 X13.890 Y9.308 
G1 X13.875 Y9.327 
G1 X13.862 Y9.347 
G1 X13.853 Y9.370 
G1 X13.847 Y9.394 
G1 X13.845 Y9.417 
G1 X13.846 Y10.418 
G1 X13.773 Y10.570 
G1 X12.664 Y10.572 
G1 X11.854 Y9.762 
G1 X11.857 Y9.748 
G1 X11.868 Y9.632 
G1 X11.852 Y9.510 
G1 X11.814 Y9.394 
G1 X11.756 Y9.287 
G1 X11.681 Y9.190 
G1 X11.591 Y9.106 
G1 X11.486 Y9.039 
G1 X11.369 Y8.994 
G1 X11.255 Y8.975 
G1 X11.137 Y8.979 
G1 X10.928 Y9.039 
G1 X10.748 Y9.160 
G1 X10.667 Y9.249 
G1 X10.603 Y9.352 
G1 X10.551 Y9.543 
G1 X10.555 Y9.750 
G1 X10.611 Y9.947 
G1 X10.719 Y10.108 
G1 X10.830 Y10.190 
G1 X10.950 Y10.249 
G1 X11.076 Y10.290 
G1 X11.194 Y10.305 
G1 X11.231  
G1 X12.232 Y11.312 
G1 X12.399 Y11.401 
G1 X13.764  
G1 X13.779 Y11.437 
G1 X13.872 Y11.549 
G1 X13.983 Y11.644 
G1 X14.104 Y11.710 
G1 X14.222 Y11.735 
G1 X14.333 Y11.735 
G1 X14.441 Y11.713 
G1 X14.541 Y11.671 
G1 X14.631 Y11.609 
G1 X14.707 Y11.531 
G1 X14.768 Y11.437 
G1 X14.810 Y11.329 
G1 X14.836 Y11.175 
G1 X14.845 Y10.996 
G1 X14.839 Y10.814 
G1 X14.816 Y10.650 
G1 X14.769 Y10.522 
G1 X14.702 Y10.418 
G1 X14.674 Y10.388 
G1  Y9.681 
G1 X16.300 Y8.055 
G1 X16.956  
G1 X16.975 Y8.099 
G1 X17.051 Y8.226 
G1 X17.167 Y8.327 
G1 X17.310 Y8.385 
G1 X17.468 Y8.401 
G0   Z1.000
G0 X23.922 Y4.450 
G1   Z-0.150F90.0
G1 X23.898 Y4.411 F120.0
G1 X23.888 Y4.366 
G1 X23.890 Y4.319 
G1 X23.908 Y4.271 
G1 X23.946 Y4.223 
G1 X24.000 Y4.185 
G1 X24.051 Y4.171 
G1 X24.102 Y4.176 
G1 X24.165 Y4.206 
G1 X24.217 Y4.249 
G1 X24.222 Y4.256 
G1 X24.233 Y4.353 
G1 X24.224 Y4.406 
G1 X24.181 Y4.461 
G1 X24.125 Y4.504 
G1 X24.064 Y4.513 
G1 X24.003 Y4.505 
G1 X23.956 Y4.483 
G1 X23.922 Y4.450 
G0   Z1.000
G0 X26.046 Y9.334 
G1   Z-0.150F90.0
G1 X26.095 Y9.326 F120.0
G1 X26.142 Y9.333 
G1 X26.170 Y9.352 
G1 X26.188 Y9.379 
G1 X26.196 Y9.422 
G1 X26.191 Y9.473 
G1 X26.181 Y9.498 
G1 X26.168 Y9.513 
G1 X26.132 Y9.533 
G1 X26.092 Y9.544 
G1 X26.053 Y9.533 
G1 X26.010 Y9.506 
G1 X25.989 Y9.478 
G1 X25.980 Y9.446 
G1 X25.982 Y9.411 
G1 X25.994 Y9.378 
G1 X26.015 Y9.352 
G1 X26.046 Y9.334 
G0   Z1.000
G0 X21.394 Y9.434 
G1   Z-0.150F90.0
G1 X21.384 Y9.466 F120.0
G1 X21.360 Y9.500 
G1 X21.322 Y9.529 
G1 X21.282 Y9.544 
G1 X21.253 Y9.542 
G1 X21.223 Y9.527 
G1 X21.195 Y9.500 
G1 X21.175 Y9.463 
G1 X21.169 Y9.425 
G1 X21.175 Y9.390 
G1 X21.197 Y9.355 
G1 X21.227 Y9.334 
G1 X21.269 Y9.325 
G1 X21.316 Y9.331 
G1 X21.357 Y9.351 
G1 X21.380 Y9.378 
G1 X21.393 Y9.407 
G1 X21.394 Y9.434 
G0   Z1.000
G0 X14.286 Y6.524 
G1   Z-0.150F90.0
G1 X14.274 Y6.528 F120.0
G1 X14.270 Y6.528 
G1  Y6.125 
G1 X14.273 Y6.125 
G1 X14.281 Y6.126 
G1 X14.286 Y6.144 
G1 X14.301 Y6.303 
G1 X14.299 Y6.459 
G1 X14.286 Y6.524 
G0   Z1.000
G0 X11.266 Y6.302 
G1   Z-0.150F90.0
G1 X11.264 Y6.312 F120.0
G1 X11.237 Y6.358 
G1 X11.199 Y6.382 
G1 X11.197 Y6.382 
G1 X11.151 Y6.355 
G1 X11.137 Y6.331 
G1 X11.138 Y6.295 
G1 X11.141 Y6.289 
G1 X11.154 Y6.271 
G1 X11.185 Y6.249 
G1 X11.206 Y6.242 
G1 X11.223 Y6.244 
G1 X11.242 Y6.253 
G1 X11.254 Y6.266 
G1 X11.264 Y6.288 
G1 X11.266 Y6.302 
G0   Z1.000
G0 X6.957 Y8.925 
G1   Z-0.150F90.0
G1 X6.959 Y8.934 F120.0
G1 X6.958 Y8.943 
G1 X6.929 Y8.998 
G1 X6.883 Y9.032 
G1 X6.882 Y9.032 
G1 X6.874 Y9.031 
G1 X6.847 Y9.019 
G1 X6.824 Y9.002 
G1 X6.809 Y8.983 
G1 X6.800 Y8.964 
G1 X6.797 Y8.945 
G1 X6.799 Y8.928 
G1 X6.806 Y8.909 
G1 X6.820 Y8.891 
G1 X6.846 Y8.873 
G1 X6.869 Y8.867 
G1 X6.894 Y8.869 
G1 X6.922 Y8.883 
G1 X6.944 Y8.904 
G1 X6.957 Y8.925 
G0   Z1.000
G0 X22.616 Y19.029 
G1   Z-0.150F90.0
G1 X22.631 Y19.012 F120.0
G1 X22.658 Y18.995 
G1 X22.681 Y19.010 
G1 X22.699 Y19.030 
G1 X22.702 Y19.048 
G1 X22.698 Y19.067 
G1 X22.692 Y19.077 
G1 X22.681 Y19.085 
G1 X22.655 Y19.089 
G1 X22.638 Y19.087 
G1 X22.626 Y19.081 
G1 X22.618 Y19.072 
G1 X22.612 Y19.061 
G1 X22.610 Y19.050 
G1 X22.611 Y19.039 
G1 X22.616 Y19.029 
G0   Z1.000
G0 X26.271 Y19.049 
G1   Z-0.150F90.0
G1 X26.272 Y19.023 F120.0
G1 X26.279 Y19.002 
G1 X26.290 Y18.986 
G1 X26.306 Y18.973 
G1 X26.326 Y18.965 
G1 X26.352 Y18.963 
G1 X26.369 Y18.967 
G1 X26.409 Y19.000 
G1 X26.417 Y19.016 
G1 X26.423 Y19.050 
G1 X26.420 Y19.081 
G1 X26.414 Y19.095 
G1 X26.405 Y19.103 
G1 X26.396 Y19.108 
G1 X26.341 Y19.115 
G1 X26.292 Y19.098 
G1 X26.288 Y19.095 
G1 X26.280 Y19.082 
G1 X26.271 Y19.049 
G0   Z1.000
G0 X26.899 Y21.867 
G1   Z-0.150F90.0
G1 X26.947 Y21.861 F120.0
G1 X27.002 Y21.874 
G1 X27.035 Y21.898 
G1 X27.064 Y21.944 
G1 X27.079 Y21.997 
G1 X27.070 Y22.052 
G1 X27.049 Y22.098 
G1 X27.031 Y22.118 
G1 X27.000 Y22.131 
G1 X26.937 Y22.138 
G1 X26.877 Y22.129 
G1 X26.837 Y22.100 
G1 X26.804 Y22.053 
G1 X26.794 Y22.011 
G1 X26.800 Y21.968 
G1 X26.822 Y21.925 
G1 X26.857 Y21.889 
G1 X26.899 Y21.867 
G0   Z1.000
G0 X23.702 Y21.997 
G1   Z-0.150F90.0
G1 X23.695 Y22.046 F120.0
G1 X23.668 Y22.096 
G1 X23.636 Y22.124 
G1 X23.592 Y22.139 
G1 X23.541 Y22.139 
G1 X23.492 Y22.124 
G1 X23.455 Y22.097 
G1 X23.431 Y22.061 
G1 X23.420 Y22.003 
G1 X23.425 Y21.968 
G1 X23.438 Y21.934 
G1 X23.459 Y21.906 
G1 X23.485 Y21.884 
G1 X23.517 Y21.868 
G1 X23.551 Y21.861 
G1 X23.588 Y21.862 
G1 X23.622 Y21.872 
G1 X23.659 Y21.898 
G1 X23.687 Y21.944 
G1 X23.702 Y21.997 
G0   Z1.000
G0 X22.143 Y30.328 
G1   Z-0.150F90.0
G1 X22.161 Y30.333 F120.0
G1 X22.220 Y30.374 
G1 X22.238 Y30.400 
G1 X22.244 Y30.438 
G1 X22.234 Y30.485 
G1 X22.205 Y30.528 
G1 X22.173 Y30.553 
G1 X22.132 Y30.560 
G1 X22.083 Y30.551 
G1 X22.060 Y30.536 
G1 X22.044 Y30.508 
G1 X22.035 Y30.445 
G1 X22.042 Y30.394 
G1 X22.072 Y30.359 
G1 X22.102 Y30.338 
G1 X22.125 Y30.329 
G1 X22.143 Y30.328 
G0   Z1.000
G0 X17.477 Y30.252 
G1   Z-0.150F90.0
G1 X17.475 Y30.291 F120.0
G1 X17.463 Y30.332 
G1 X17.443 Y30.371 
G1 X17.346 Y30.476 
G1 X17.283 Y30.514 
G1 X17.218 Y30.532 
G1 X17.150 Y30.531 
G1 X17.084 Y30.513 
G1 X17.022 Y30.477 
G1 X16.969 Y30.426 
G1 X16.929 Y30.360 
G1 X16.907 Y30.284 
G1 X16.909 Y30.226 
G1 X16.934 Y30.148 
G1 X16.979 Y30.072 
G1 X17.024 Y30.026 
G1 X17.076 Y30.003 
G1 X17.167 Y29.986 
G1 X17.258 Y29.986 
G1 X17.304 Y29.998 
G1 X17.346 Y30.033 
G1 X17.417 Y30.113 
G1 X17.451 Y30.165 
G1 X17.469 Y30.211 
G1 X17.477 Y30.252 
G0   Z1.000
G0 X17.973 Y29.842 
G1   Z-0.150F90.0
G1 X17.869 Y29.678 F120.0
G1 X17.710 Y29.535 
G1 X17.522 Y29.437 
G1 X17.319 Y29.384 
G1 X17.109 Y29.377 
G1 X16.900 Y29.418 
G1 X16.704 Y29.510 
G1 X16.536 Y29.652 
G1 X16.424 Y29.804 
G1 X16.348 Y29.966 
G1 X16.308 Y30.137 
G1 X16.302 Y30.311 
G1 X16.330 Y30.483 
G1 X16.392 Y30.647 
G1 X16.488 Y30.799 
G1 X16.618 Y30.934 
G1 X16.783 Y31.044 
G1 X16.966 Y31.111 
G1 X17.156 Y31.136 
G1 X17.346 Y31.122 
G1 X17.529 Y31.070 
G1 X17.699 Y30.981 
G1 X17.846 Y30.854 
G1 X17.956 Y30.701 
G1 X17.972 Y30.669 
G1 X21.526  
G1 X21.535 Y30.697 
G1 X21.610 Y30.837 
G1 X21.728 Y30.959 
G1 X21.872 Y31.048 
G1 X22.025 Y31.090 
G1 X22.110 Y31.101 
G1 X23.011 Y31.994 
G1 X23.029 Y32.010 
G1 X23.050 Y32.022 
G1 X23.072 Y32.032 
G1 X23.096 Y32.037 
G1 X23.119 Y32.039 
G1 X26.854 Y32.055 
G1 X26.874 Y32.054 
G1 X26.894 Y32.050 
G1 X26.914 Y32.043 
G1 X26.932 Y32.034 
G1 X26.949 Y32.023 
G1 X26.964 Y32.010 
G1 X34.012 Y24.969 
G1 X34.097 Y24.817 
G1 X34.097 Y19.741 
G1 X34.096 Y19.619 
G1 X34.094 Y19.595 
G1 X34.088 Y19.571 
G1 X34.079 Y19.549 
G1 X34.066 Y19.528 
G1 X34.051 Y19.510 
G1 X31.962 Y17.431 
G1 X31.946 Y15.428 
G1 X31.944 Y15.404 
G1 X31.938 Y15.381 
G1 X31.929 Y15.358 
G1 X31.916 Y15.338 
G1 X31.901 Y15.320 
G1 X27.605 Y11.022 
G1 X27.588 Y10.406 
G1 X27.586 Y10.383 
G1 X27.580 Y10.360 
G1 X27.571 Y10.339 
G1 X27.558 Y10.319 
G1 X27.543 Y10.301 
G1 X26.745 Y9.502 
G1 X26.746 Y9.373 
G1 X26.706 Y9.223 
G1 X26.640 Y9.079 
G1 X26.555 Y8.966 
G1 X26.506 Y8.919 
G1 X26.502 Y7.914 
G1 X26.439 Y7.754 
G1 X24.457 Y5.773 
G1  Y4.913 
G1 X24.518 Y4.858 
G1 X24.630 Y4.731 
G1 X24.708 Y4.579 
G1 X24.746 Y4.417 
G1 X24.745 Y4.254 
G1 X24.704 Y4.096 
G1 X24.625 Y3.951 
G1 X24.509 Y3.827 
G1 X24.362 Y3.735 
G1 X24.210 Y3.677 
G1 X24.069 Y3.648 
G1 X23.834 Y3.703 
G1 X23.706 Y3.765 
G1 X23.596 Y3.841 
G1 X23.508 Y3.947 
G1 X23.439 Y4.071 
G1 X23.389 Y4.203 
G1 X23.367 Y4.340 
G1 X23.395 Y4.491 
G1 X23.457 Y4.644 
G1 X23.541 Y4.785 
G1 X23.636 Y4.885 
G1 X23.657 Y4.899 
G1  Y6.067 
G1 X23.659 Y6.091 
G1 X23.665 Y6.114 
G1 X23.674 Y6.137 
G1 X23.687 Y6.158 
G1 X23.703 Y6.176 
G1 X25.678 Y8.153 
G1  Y8.917 
G1 X25.582 Y9.015 
G1 X21.785  
G1 X21.687 Y8.920 
G1  Y6.012 
G1 X21.685 Y5.992 
G1 X21.681 Y5.972 
G1 X21.675 Y5.953 
G1 X21.666 Y5.934 
G1 X21.655 Y5.917 
G1 X21.641 Y5.902 
G1 X19.548 Y3.810 
G1 X19.530 Y3.795 
G1 X19.509 Y3.782 
G1 X19.487 Y3.773 
G1 X19.463 Y3.767 
G1 X19.439 Y3.765 
G1 X16.325  
G1 X16.301 Y3.767 
G1 X16.278 Y3.773 
G1 X16.255 Y3.782 
G1 X16.234 Y3.795 
G1 X16.216 Y3.810 
G1 X14.429 Y5.593 
G1 X14.324 Y5.588 
G1 X14.152 Y5.597 
G1 X13.992 Y5.653 
G1 X13.862 Y5.760 
G1 X13.780 Y5.899 
G1 X13.767 Y5.928 
G1 X11.747 Y5.928 
G1 X11.739 Y5.916 
G1 X11.639 Y5.807 
G1 X11.506 Y5.724 
G1 X11.360 Y5.676 
G1 X11.208 Y5.658 
G1 X11.055 Y5.670 
G1 X10.909 Y5.713 
G1 X10.776 Y5.793 
G1 X10.681 Y5.900 
G1 X9.421  
G1 X9.397 Y5.901 
G1 X9.373 Y5.907 
G1 X9.351 Y5.917 
G1 X9.330 Y5.929 
G1 X9.312 Y5.945 
G1 X6.933 Y8.323 
G1 X6.880  
G1 X6.721 Y8.344 
G1 X6.570 Y8.407 
G1 X6.444 Y8.503 
G1 X6.347 Y8.626 
G1 X6.283 Y8.768 
G1 X6.256 Y8.924 
G1 X6.272 Y9.086 
G1 X6.334 Y9.243 
G1 X6.432 Y9.379 
G1 X6.557 Y9.481 
G1 X6.705 Y9.543 
G1 X6.866 Y9.562 
G1 X6.993 Y9.552 
G1 X7.109 Y9.522 
G1 X7.215 Y9.472 
G1 X7.308 Y9.401 
G1 X7.384 Y9.312 
G1 X7.442 Y9.208 
G1 X7.481 Y9.093 
G1 X7.502 Y8.973 
G1 X7.510 Y8.892 
G1 X9.663 Y6.728 
G1 X10.689  
G1 X10.700 Y6.743 
G1 X10.793 Y6.837 
G1 X10.909 Y6.911 
G1 X11.035 Y6.958 
G1 X11.167 Y6.978 
G1 X11.300 Y6.970 
G1 X11.430 Y6.936 
G1 X11.552 Y6.873 
G1 X11.655 Y6.788 
G1 X11.713 Y6.729 
G1 X13.767 Y6.729 
G1 X13.779 Y6.757 
G1 X13.841 Y6.864 
G1 X13.931 Y6.956 
G1 X14.038 Y7.023 
G1 X14.155 Y7.064 
G1 X14.278 Y7.079 
G1 X14.403 Y7.065 
G1 X14.524 Y7.022 
G1 X14.634 Y6.948 
G1 X14.732 Y6.839 
G1 X14.799 Y6.710 
G1 X14.836 Y6.563 
G1 X14.847 Y6.406 
G1 X14.847 Y6.335 
G1 X16.589 Y4.593 
G1 X19.175  
G1 X20.887 Y6.308 
G1  Y8.886 
G1 X20.807 Y8.977 
G1 X20.698 Y9.138 
G1 X20.638 Y9.321 
G1 X20.630 Y9.506 
G1 X20.672 Y9.682 
G1 X20.761 Y9.839 
G1 X20.894 Y9.964 
G1 X21.065 Y10.047 
G1 X21.258 Y10.075 
G1 X21.407 Y10.064 
G1 X21.538 Y10.028 
G1 X21.656 Y9.962 
G1 X21.754 Y9.874 
G1 X21.782 Y9.843 
G1 X25.097  
G1 X24.280 Y10.665 
G1 X24.264 Y10.683 
G1 X24.251 Y10.704 
G1 X24.242 Y10.726 
G1 X24.236 Y10.750 
G1 X24.235 Y10.774 
G1  Y12.701 
G1 X24.347 Y12.911 
G1 X25.937 Y14.498 
G1 X25.937 Y18.580 
G1 X25.882 Y18.636 
G1 X25.781 Y18.778 
G1 X25.745 Y18.956 
G1 X25.734 Y19.032 
G1 X25.722 Y19.061 
G1 X25.565 Y19.239 
G1 X25.408 Y19.399 
G1 X23.601  
G1 X23.444 Y19.239 
G1 X23.288 Y19.062 
G1 X23.274 Y19.032 
G1 X23.263 Y18.962 
G1 X23.210 Y18.763 
G1 X23.150 Y18.661 
G1 X23.076 Y18.580 
G1 X22.986 Y18.515 
G1 X22.879 Y18.466 
G1 X22.663 Y18.433 
G1 X22.498 Y18.446 
G1 X22.354 Y18.497 
G1 X22.233 Y18.591 
G1 X22.126 Y18.724 
G1 X22.052 Y18.880 
G1 X22.047 Y19.080 
G1 X22.095 Y19.298 
G1 X22.151 Y19.404 
G1 X22.221 Y19.490 
G1 X22.307 Y19.561 
G1 X22.406 Y19.613 
G1 X22.515 Y19.645 
G1 X22.619 Y19.657 
G1 X22.665 Y19.663 
G1 X22.693 Y19.677 
G1 X22.919 Y19.884 
G1 X23.138 Y20.102 
G1  Y21.374 
G1 X23.091 Y21.409 
G1 X22.998 Y21.497 
G1 X22.919 Y21.605 
G1 X22.862 Y21.724 
G1 X22.825 Y21.850 
G1 X22.809 Y21.982 
G1 X22.816 Y22.114 
G1 X22.845 Y22.245 
G1 X22.900 Y22.371 
G1 X22.994 Y22.505 
G1 X23.113 Y22.613 
G1 X23.249 Y22.691 
G1 X23.396 Y22.740 
G1 X23.550 Y22.758 
G1 X23.706 Y22.743 
G1 X23.858 Y22.694 
G1 X23.999 Y22.611 
G1 X24.131 Y22.488 
G1 X24.227 Y22.345 
G1 X24.288 Y22.189 
G1 X24.311 Y22.025 
G1 X24.297 Y21.860 
G1 X24.245 Y21.700 
G1 X24.156 Y21.552 
G1 X24.038 Y21.427 
G1 X23.967 Y21.366 
G1  Y20.198 
G1 X25.713  
G1 X25.733 Y20.197 
G1 X25.753 Y20.193 
G1 X25.773 Y20.186 
G1 X25.791 Y20.177 
G1 X25.808 Y20.165 
G1 X25.823 Y20.152 
G1 X26.296 Y19.667 
G1 X26.334 Y19.664 
G1 X26.360 Y19.664 
G1 X26.452 Y19.743 
G1 X26.530 Y19.822 
G1 X26.545 Y21.337 
G1 X26.463 Y21.415 
G1 X26.342 Y21.544 
G1 X26.253 Y21.684 
G1 X26.202 Y21.839 
G1 X26.187 Y22.004 
G1 X26.198 Y22.142 
G1 X26.229 Y22.270 
G1 X26.282 Y22.388 
G1 X26.355 Y22.493 
G1 X26.447 Y22.583 
G1 X26.554 Y22.655 
G1 X26.676 Y22.709 
G1 X26.810 Y22.745 
G1 X26.929 Y22.757 
G1 X27.055 Y22.747 
G1 X27.273 Y22.674 
G1 X27.461 Y22.537 
G1 X27.544 Y22.441 
G1 X27.608 Y22.336 
G1 X27.656 Y22.217 
G1 X27.683 Y22.094 
G1 X27.688 Y21.970 
G1 X27.671 Y21.848 
G1 X27.634 Y21.729 
G1 X27.577 Y21.618 
G1 X27.502 Y21.514 
G1 X27.413 Y21.426 
G1 X27.343 Y21.366 
G1  Y19.531 
G1 X27.342 Y19.511 
G1 X27.338 Y19.491 
G1 X27.331 Y19.472 
G1 X27.322 Y19.454 
G1 X27.311 Y19.437 
G1 X27.297 Y19.422 
G1 X27.113 Y19.238 
G1 X26.977 Y19.087 
G1 X26.971 Y19.073 
G1 X26.967 Y19.036 
G1 X26.955 Y18.923 
G1 X26.918 Y18.799 
G1 X26.859 Y18.685 
G1 X26.784 Y18.597 
G1 X26.766 Y18.581 
G1  Y14.234 
G1 X26.764 Y14.210 
G1 X26.758 Y14.186 
G1 X26.749 Y14.164 
G1 X26.736 Y14.143 
G1 X26.721 Y14.125 
G1 X25.063 Y12.465 
G1  Y11.037 
G1 X26.025 Y10.074 
G1 X26.158  
G1 X26.463 Y10.381 
G1 X26.659 Y10.583 
G1 X26.742 Y10.694 
G1 X26.770 Y10.790 
G1 X26.780 Y10.971 
G1 X26.789 Y11.308 
G1 X26.791 Y11.331 
G1 X26.797 Y11.354 
G1 X26.806 Y11.376 
G1 X26.819 Y11.396 
G1 X26.834 Y11.413 
G1 X31.132 Y15.709 
G1  Y17.677 
G1 X31.133 Y17.697 
G1 X31.137 Y17.717 
G1 X31.144 Y17.737 
G1 X31.153 Y17.755 
G1 X31.164 Y17.772 
G1 X31.177 Y17.787 
G1 X33.296 Y19.904 
G1  Y24.522 
G1 X26.591 Y31.225 
G1 X23.399  
G1 X22.774 Y30.599 
G1 X22.788 Y30.546 
G1 X22.786 Y30.403 
G1 X22.759 Y30.261 
G1 X22.709 Y30.131 
G1 X22.608 Y29.991 
G1 X22.481 Y29.887 
G1 X22.331 Y29.824 
G1 X22.178 Y29.808 
G1 X22.034 Y29.814 
G1 X17.973 Y29.842 
G0   Z1.000
G0 X27.368 Y4.505 
G1   Z-0.150F90.0
G1 X27.327 Y4.475 F120.0
G1 X27.277 Y4.408 
G1 X27.264 Y4.356 
G1 X27.276 Y4.301 
G1 X27.326 Y4.226 
G1 X27.369 Y4.191 
G1 X27.414 Y4.174 
G1 X27.460 Y4.173 
G1 X27.505 Y4.188 
G1 X27.592 Y4.255 
G1 X27.600 Y4.272 
G1 X27.609 Y4.328 
G1 X27.606 Y4.393 
G1 X27.592 Y4.438 
G1 X27.569 Y4.472 
G1 X27.543 Y4.493 
G1 X27.504 Y4.507 
G1 X27.440 Y4.514 
G1 X27.368 Y4.505 
G0   Z1.000
G0 X27.077 Y4.923 
G1   Z-0.150F90.0
G1 X27.272 Y5.010 F120.0
G1 X27.481 Y5.032 
G1 X27.599 Y5.015 
G1 X27.708 Y4.980 
G1 X27.813 Y4.923 
G1 X27.914 Y4.844 
G1 X28.022 Y4.713 
G1 X28.093 Y4.562 
G1 X28.125 Y4.403 
G1 X28.118 Y4.243 
G1 X28.075 Y4.088 
G1 X27.995 Y3.947 
G1 X27.881 Y3.825 
G1 X27.739 Y3.735 
G1 X27.586 Y3.677 
G1 X27.446 Y3.648 
G1 X27.209 Y3.704 
G1 X27.068 Y3.773 
G1 X26.950 Y3.870 
G1 X26.858 Y3.993 
G1 X26.794 Y4.136 
G1 X26.765 Y4.258 
G1 X26.757 Y4.384 
G1 X26.802 Y4.598 
G1 X26.915 Y4.784 
G1 X27.077 Y4.923 
G0   Z1.000
G0 X25.921 Y4.405 
G1   Z-0.150F90.0
G1 X25.881 Y4.460 F120.0
G1 X25.827 Y4.505 
G1 X25.775 Y4.513 
G1 X25.684 Y4.499 
G1 X25.629 Y4.467 
G1 X25.598 Y4.422 
G1 X25.585 Y4.346 
G1 X25.591 Y4.299 
G1 X25.610 Y4.256 
G1 X25.640 Y4.220 
G1 X25.684 Y4.191 
G1 X25.735 Y4.171 
G1 X25.763 Y4.166 
G1 X25.788 Y4.170 
G1 X25.830 Y4.187 
G1 X25.877 Y4.220 
G1 X25.909 Y4.259 
G1 X25.932 Y4.314 
G1 X25.935 Y4.359 
G1 X25.921 Y4.405 
G0   Z1.000
G0 X31.683 Y7.502 
G1   Z-0.150F90.0
G1 X31.737 Y7.428 F120.0
G1 X31.783 Y7.376 
G1 X33.595 Y7.361 
G1 X33.647 Y7.396 
G1 X33.709 Y7.449 
G1 X33.734 Y7.480 
G1 X33.753 Y7.555 
G1 X33.741 Y7.640 
G1 X33.698 Y7.722 
G1 X33.676 Y7.745 
G1 X33.640 Y7.769 
G1 X33.600 Y7.789 
G1 X31.975 Y7.807 
G1 X31.876 Y7.792 
G1 X31.795 Y7.767 
G1 X31.727 Y7.715 
G1 X31.683 Y7.657 
G1 X31.673 Y7.582 
G1 X31.683 Y7.502 
G0   Z1.000
G0 X29.783 Y8.788 
G1   Z-0.150F90.0
G1 X29.804 Y8.829 F120.0
G1  Y10.577 
G1 X29.784 Y10.616 
G1 X29.737 Y10.681 
G1 X29.686 Y10.718 
G1 X29.627 Y10.738 
G1 X29.565 Y10.742 
G1 X29.505 Y10.729 
G1 X29.454 Y10.702 
G1 X29.416 Y10.662 
G1 X29.384 Y10.594 
G1 X29.364 Y10.519 
G1 X29.366 Y8.864 
G1 X29.389 Y8.797 
G1 X29.411 Y8.753 
G1 X29.438 Y8.722 
G1 X29.473 Y8.696 
G1 X29.515 Y8.677 
G1 X29.561 Y8.667 
G1 X29.608 Y8.666 
G1 X29.653 Y8.676 
G1 X29.694 Y8.694 
G1 X29.743 Y8.735 
G1 X29.783 Y8.788 
G0   Z1.000
G0 X31.783 Y11.501 
G1   Z-0.150F90.0
G1 X33.602 Y11.487 F120.0
G1 X33.626 Y11.500 
G1 X33.672 Y11.536 
G1 X33.718 Y11.590 
G1 X33.739 Y11.631 
G1 X33.751 Y11.672 
G1 X33.753 Y11.714 
G1 X33.746 Y11.755 
G1 X33.731 Y11.794 
G1 X33.708 Y11.831 
G1 X33.675 Y11.863 
G1 X33.628 Y11.894 
G1 X33.555 Y11.931 
G1 X31.812 Y11.914 
G1 X31.790 Y11.898 
G1 X31.736 Y11.850 
G1 X31.701 Y11.800 
G1 X31.681 Y11.745 
G1 X31.674 Y11.689 
G1 X31.684 Y11.626 
G1 X31.736 Y11.553 
G1 X31.783 Y11.501 
G0   Z1.000
G0 X31.527 Y13.583 
G1   Z-0.150F90.0
G1 X31.544 Y13.592 F120.0
G1 X31.582 Y13.627 
G1 X31.614 Y13.682 
G1 X31.622 Y13.731 
G1 X31.613 Y13.775 
G1 X31.579 Y13.824 
G1 X31.532 Y13.862 
G1 X31.502 Y13.875 
G1 X31.475 Y13.875 
G1 X31.429 Y13.859 
G1 X31.372 Y13.818 
G1 X31.347 Y13.778 
G1 X31.339 Y13.732 
G1 X31.349 Y13.681 
G1 X31.375 Y13.635 
G1 X31.415 Y13.600 
G1 X31.466 Y13.582 
G1 X31.527 Y13.583 
G0   Z1.000
G0 X31.751 Y13.021 
G1   Z-0.150F90.0
G1 X31.609 Y12.984 F120.0
G1 X31.471 Y12.968 
G1 X31.339 Y12.982 
G1 X31.206 Y13.025 
G1 X31.031 Y13.124 
G1 X30.891 Y13.260 
G1 X30.793 Y13.421 
G1 X30.739 Y13.600 
G1 X30.730 Y13.786 
G1 X30.769 Y13.970 
G1 X30.856 Y14.144 
G1 X30.991 Y14.298 
G1 X31.162 Y14.410 
G1 X31.349 Y14.471 
G1 X31.539 Y14.480 
G1 X31.724 Y14.444 
G1 X31.894 Y14.363 
G1 X32.039 Y14.241 
G1 X32.151 Y14.081 
G1 X32.209 Y13.907 
G1 X32.242 Y13.808 
G1 X32.281 Y13.747 
G1 X32.304 Y13.727 
G1 X32.343 Y13.736 
G1 X32.742 Y13.779 
G1 X33.539 Y13.868 
G1 X33.996 Y13.921 
G1 X34.159 Y13.830 
G1 X35.321 Y12.670 
G1 X35.334 Y12.655 
G1 X35.345 Y12.638 
G1 X35.354 Y12.620 
G1 X35.361 Y12.600 
G1 X35.365 Y12.580 
G1 X35.366 Y12.561 
G1  Y9.648 
G1 X35.364 Y9.624 
G1 X35.358 Y9.600 
G1 X35.349 Y9.578 
G1 X35.336 Y9.557 
G1 X35.321 Y9.539 
G1 X34.034 Y8.249 
G1 X34.143 Y8.158 
G1 X34.253 Y8.039 
G1 X34.315 Y7.949 
G1 X34.356 Y7.844 
G1 X34.370 Y7.583 
G1 X34.355 Y7.316 
G1 X34.267 Y7.129 
G1 X34.154 Y6.995 
G1 X34.029 Y6.890 
G1 X33.863 Y6.780 
G1 X31.644 Y6.766 
G1 X31.503 Y6.828 
G1 X31.322 Y6.941 
G1 X31.173 Y7.108 
G1 X31.072 Y7.312 
G1 X31.025 Y7.533 
G1 X31.015 Y7.651 
G1 X30.272 Y8.392 
G1 X30.240 Y8.344 
G1 X30.111 Y8.208 
G1 X29.954 Y8.107 
G1 X29.777 Y8.047 
G1 X29.582 Y8.027 
G1 X29.342 Y8.058 
G1 X29.224 Y8.101 
G1 X29.120 Y8.160 
G1 X29.027 Y8.234 
G1 X28.943 Y8.327 
G1 X28.825 Y8.532 
G1 X28.765 Y8.675 
G1  Y10.758 
G1 X28.866 Y10.951 
G1 X28.932 Y11.057 
G1 X29.018 Y11.156 
G1 X29.129 Y11.236 
G1 X29.086  
G1 X28.699 Y10.852 
G1  Y6.792 
G1 X28.588 Y6.581 
G1 X26.448 Y4.447 
G1 X26.448 Y4.373 
G1 X26.433 Y4.235 
G1 X26.390 Y4.098 
G1 X26.324 Y3.975 
G1 X26.236 Y3.866 
G1 X26.130 Y3.776 
G1 X26.008 Y3.708 
G1 X25.874 Y3.664 
G1 X25.716 Y3.648 
G1 X25.494 Y3.716 
G1 X25.354 Y3.802 
G1 X25.234 Y3.915 
G1 X25.140 Y4.047 
G1 X25.086 Y4.189 
G1 X25.072 Y4.356 
G1 X25.092 Y4.509 
G1 X25.143 Y4.651 
G1 X25.223 Y4.776 
G1 X25.328 Y4.881 
G1 X25.456 Y4.960 
G1 X25.601 Y5.010 
G1 X25.751 Y5.026 
G1 X25.841  
G1 X27.870 Y7.056 
G1 X27.885 Y11.133 
G1 X27.887 Y11.153 
G1 X27.891 Y11.173 
G1 X27.897 Y11.192 
G1 X27.906 Y11.211 
G1 X27.918 Y11.227 
G1 X27.931 Y11.242 
G1 X28.714 Y12.019 
G1 X28.733 Y12.035 
G1 X28.753 Y12.048 
G1 X28.776 Y12.057 
G1 X28.799 Y12.062 
G1 X28.823 Y12.064 
G1 X31.109  
G1 X31.170 Y12.157 
G1 X31.301 Y12.315 
G1 X31.459 Y12.422 
G1 X31.639 Y12.511 
G1 X33.587 Y12.529 
G1 X33.762 Y12.493 
G1 X33.889 Y12.454 
G1 X34.011 Y12.393 
G1 X34.119 Y12.312 
G1 X34.210 Y12.214 
G1 X34.284 Y12.101 
G1 X34.339 Y11.977 
G1 X34.373 Y11.842 
G1 X34.385 Y11.697 
G1 X34.358 Y11.470 
G1 X34.274 Y11.263 
G1 X34.134 Y11.089 
G1 X33.954 Y10.962 
G1 X33.793 Y10.875 
G1 X31.637  
G1 X31.476 Y10.962 
G1 X31.345 Y11.053 
G1 X31.225 Y11.168 
G1 X31.166 Y11.236 
G1 X30.074  
G1 X30.095 Y11.221 
G1 X30.175 Y11.151 
G1 X30.253 Y11.059 
G1 X30.316 Y10.952 
G1 X30.361 Y10.837 
G1 X30.402 Y10.700 
G1  Y9.424 
G1 X31.497 Y8.326 
G1 X31.730 Y8.401 
G1 X33.016  
G1 X34.565 Y9.950 
G1 X34.534 Y12.292 
G1 X33.755 Y13.068 
G1 X33.483 Y13.038 
G1 X32.637 Y12.942 
G1 X32.100 Y12.879 
G1 X31.980 Y12.925 
G1 X31.888 Y12.978 
G1 X31.822 Y13.038 
G1 X31.751 Y13.021 
G0   Z1.000
G0 X33.392 Y15.668 
G1   Z-0.150F90.0
G1 X33.490 Y15.616 F120.0
G1 X33.597 Y15.575 
G1 X33.707 Y15.548 
G1 X33.814 Y15.536 
G1 X33.911 Y15.539 
G1 X33.996 Y15.558 
G1 X34.173 Y15.631 
G1 X34.256 Y15.687 
G1 X34.344 Y15.773 
G1 X34.426 Y15.877 
G1 X34.487 Y15.982 
G1 X34.534 Y16.125 
G1 X34.552 Y16.287 
G1 X34.540 Y16.447 
G1 X34.499 Y16.584 
G1 X34.445 Y16.685 
G1 X34.378 Y16.775 
G1 X34.302 Y16.852 
G1 X34.218 Y16.915 
G1 X34.128 Y16.964 
G1 X34.033 Y17.000 
G1 X33.934 Y17.023 
G1 X33.832 Y17.032 
G1 X33.731 Y17.028 
G1 X33.630 Y17.010 
G1 X33.532 Y16.978 
G1 X33.438 Y16.933 
G1 X33.350 Y16.874 
G1 X33.268 Y16.801 
G1 X33.195 Y16.713 
G1 X33.133 Y16.614 
G1 X33.084 Y16.488 
G1 X33.072 Y16.293 
G1 X33.080 Y16.136 
G1 X33.105 Y16.023 
G1 X33.155 Y15.920 
G1 X33.243 Y15.797 
G1 X33.310 Y15.729 
G1 X33.392 Y15.668 
G0   Z1.000
G0 X33.051 Y15.319 
G1   Z-0.150F90.0
G1 X32.903 Y15.460 F120.0
G1 X32.779 Y15.625 
G1 X32.683 Y15.810 
G1 X32.616 Y16.012 
G1 X32.582 Y16.228 
G1 X32.583 Y16.401 
G1 X32.611 Y16.572 
G1 X32.664 Y16.737 
G1 X32.739 Y16.894 
G1 X32.834 Y17.040 
G1 X32.949 Y17.172 
G1 X33.081 Y17.287 
G1 X33.229 Y17.380 
G1 X33.382 Y17.448 
G1 X33.541 Y17.493 
G1 X33.705 Y17.515 
G1 X33.870 Y17.516 
G1 X34.034 Y17.495 
G1 X34.196 Y17.452 
G1 X34.352 Y17.388 
G1 X34.501 Y17.303 
G1 X34.643 Y17.193 
G1 X34.765 Y17.065 
G1 X34.866 Y16.921 
G1 X34.945 Y16.765 
G1 X35.000 Y16.599 
G1 X35.031 Y16.424 
G1 X35.037 Y16.245 
G1 X35.017 Y16.065 
G1 X34.982 Y15.905 
G1 X34.931 Y15.768 
G1 X34.859 Y15.640 
G1 X34.757 Y15.504 
G1 X34.591 Y15.337 
G1 X34.390 Y15.204 
G1 X34.167 Y15.112 
G1 X33.926 Y15.064 
G1 X33.614 Y15.074 
G1 X33.409 Y15.122 
G1 X33.221 Y15.205 
G1 X33.051 Y15.319 
G0   Z1.000
G0 X26.174 Y11.159 
G1   Z-0.150F90.0
G1 X26.153 Y11.184 F120.0
G1 X26.129 Y11.200 
G1 X26.104 Y11.207 
G1 X26.080 Y11.206 
G1 X26.055 Y11.197 
G1 X26.023 Y11.172 
G1 X25.985 Y11.125 
G1 X25.974 Y11.099 
G1 X25.974 Y11.088 
G1 X25.983 Y11.064 
G1 X26.032 Y10.999 
G1 X26.071 Y10.978 
G1 X26.107 Y10.979 
G1 X26.164 Y11.010 
G1 X26.188 Y11.039 
G1 X26.195 Y11.083 
G1 X26.189 Y11.126 
G1 X26.174 Y11.159 
G0   Z1.000
G0 X29.734 Y15.201 
G1   Z-0.150F90.0
G1 X29.746 Y15.193 F120.0
G1 X29.774 Y15.199 
G1 X29.784 Y15.206 
G1 X29.787 Y15.209 
G1 X29.798 Y15.249 
G1 X29.777 Y15.275 
G1 X29.748 Y15.297 
G1 X29.740 Y15.299 
G1 X29.733 Y15.295 
G1 X29.724 Y15.284 
G1 X29.715 Y15.267 
G1 X29.712 Y15.247 
G1 X29.714 Y15.230 
G1 X29.719 Y15.218 
G1 X29.734 Y15.201 
G0   Z1.000
G0 X29.716 Y18.964 
G1   Z-0.150F90.0
G1 X29.739 Y18.965 F120.0
G1 X29.776 Y18.990 
G1 X29.795 Y19.020 
G1 X29.800 Y19.043 
G1 X29.789 Y19.087 
G1 X29.770 Y19.107 
G1 X29.741 Y19.117 
G1 X29.688 Y19.107 
G1 X29.657 Y19.087 
G1 X29.645 Y19.069 
G1 X29.642 Y19.051 
G1 X29.650 Y19.024 
G1 X29.687 Y18.977 
G1 X29.716 Y18.964 
G0   Z1.000
G0 X31.349 Y19.450 
G1   Z-0.150F90.0
G1 X31.371 Y19.418 F120.0
G1 X31.406 Y19.393 
G1 X31.455 Y19.378 
G1 X31.507 Y19.376 
G1 X31.552 Y19.389 
G1 X31.582 Y19.410 
G1 X31.603 Y19.441 
G1 X31.614 Y19.486 
G1 X31.612 Y19.548 
G1 X31.598 Y19.600 
G1 X31.585 Y19.620 
G1 X31.560 Y19.634 
G1 X31.493 Y19.650 
G1 X31.436 Y19.649 
G1 X31.388 Y19.616 
G1 X31.350 Y19.571 
G1 X31.341 Y19.512 
G1 X31.349 Y19.450 
G0   Z1.000
G0 X25.308 Y26.935 
G1   Z-0.150F90.0
G1 X25.366 Y26.986 F120.0
G1 X25.378 Y27.013 
G1 X25.387 Y27.072 
G1 X25.379 Y27.125 
G1 X25.345 Y27.170 
G1 X25.291 Y27.209 
G1 X25.251 Y27.217 
G1 X25.207 Y27.206 
G1 X25.145 Y27.161 
G1 X25.104 Y27.107 
G1 X25.095 Y27.074 
G1 X25.101 Y27.041 
G1 X25.135 Y26.987 
G1 X25.177 Y26.952 
G1 X25.231 Y26.931 
G1 X25.280 Y26.927 
G1 X25.308 Y26.935 
G0   Z1.000
G0 X25.790 Y26.549 
G1   Z-0.150F90.0
G1 X27.007 Y25.333 F120.0
G1 X31.929  
G1 X31.953 Y25.331 
G1 X31.977 Y25.325 
G1 X31.999 Y25.316 
G1 X32.020 Y25.304 
G1 X32.038 Y25.288 
G1 X33.119 Y24.219 
G1 X33.202 Y24.067 
G1 X33.204 Y20.725 
G1 X33.202 Y20.701 
G1 X33.197 Y20.678 
G1 X33.187 Y20.655 
G1 X33.175 Y20.634 
G1 X33.159 Y20.616 
G1 X32.224 Y19.678 
G1 X32.224 Y19.551 
G1 X32.218 Y19.392 
G1 X32.190 Y19.252 
G1 X32.129 Y19.127 
G1 X32.038 Y19.009 
G1 X31.924 Y18.902 
G1 X31.792 Y18.823 
G1 X31.644 Y18.778 
G1 X31.481 Y18.764 
G1 X31.303 Y18.785 
G1 X31.135 Y18.846 
G1 X30.988 Y18.943 
G1 X30.880 Y19.062 
G1 X30.853 Y19.100 
G1 X30.623 Y19.110 
G1 X30.419 Y19.104 
G1 X30.350 Y19.088 
G1 X30.343 Y19.042 
G1 X30.333 Y18.932 
G1 X30.299 Y18.809 
G1 X30.245 Y18.696 
G1 X30.183 Y18.622 
G1 X30.171 Y18.609 
G1  Y15.711 
G1 X30.233 Y15.634 
G1 X30.293 Y15.552 
G1 X30.340 Y15.454 
G1 X30.359 Y15.247 
G1 X30.350 Y15.121 
G1 X30.323 Y15.006 
G1 X30.275 Y14.900 
G1 X30.205 Y14.808 
G1 X30.117 Y14.733 
G1 X30.015 Y14.679 
G1 X29.901 Y14.645 
G1 X29.783 Y14.630 
G1 X29.706 Y14.625 
G1 X26.597 Y11.518 
G1 X26.662 Y11.426 
G1 X26.717 Y11.279 
G1 X26.744 Y11.125 
G1 X26.737 Y10.974 
G1 X26.661 Y10.770 
G1 X26.536 Y10.607 
G1 X26.365 Y10.495 
G1 X26.165 Y10.444 
G1 X26.019 Y10.442 
G1 X25.883 Y10.465 
G1 X25.706 Y10.558 
G1 X25.568 Y10.701 
G1 X25.478 Y10.878 
G1 X25.446 Y11.070 
G1 X25.454 Y11.213 
G1 X25.484 Y11.336 
G1 X25.541 Y11.448 
G1 X25.615 Y11.544 
G1 X25.669 Y11.622 
G1 X25.697 Y11.685 
G1 X25.724 Y11.800 
G1 X29.141 Y15.219 
G1  Y15.273 
G1 X29.152 Y15.387 
G1 X29.190 Y15.503 
G1 X29.250 Y15.609 
G1 X29.327 Y15.694 
G1 X29.343 Y15.708 
G1  Y18.549 
G1 X29.264 Y18.638 
G1 X29.192 Y18.726 
G1 X29.134 Y18.826 
G1 X29.111 Y19.031 
G1 X29.121 Y19.158 
G1 X29.150 Y19.273 
G1 X29.200 Y19.379 
G1 X29.270 Y19.471 
G1 X29.358 Y19.546 
G1 X29.461 Y19.603 
G1 X29.575 Y19.641 
G1 X29.688 Y19.659 
G1 X29.750 Y19.667 
G1 X29.768 Y19.674 
G1 X29.865 Y19.754 
G1 X29.971 Y19.848 
G1 X30.084 Y19.911 
G1 X30.172 Y19.916 
G1 X30.538 Y19.911 
G1 X30.740 Y19.909 
G1 X30.821 Y19.917 
G1 X30.836 Y19.925 
G1 X30.879 Y19.974 
G1 X31.002 Y20.099 
G1 X31.153 Y20.194 
G1 X31.326 Y20.247 
G1 X31.510 Y20.261 
G1 X31.642 Y20.260 
G1 X32.402 Y21.016 
G1  Y23.775 
G1 X31.636 Y24.534 
G1 X26.715 Y24.531 
G1 X26.561 Y24.617 
G1 X24.886 Y26.297 
G1 X24.870 Y26.316 
G1 X24.857 Y26.336 
G1 X24.848 Y26.359 
G1 X24.842 Y26.383 
G1 X24.841 Y26.406 
G1  Y26.428 
G1 X24.813 Y26.453 
G1 X24.721 Y26.530 
G1 X24.622 Y26.648 
G1 X24.564 Y26.741 
G1 X24.525 Y26.841 
G1 X24.508 Y27.070 
G1 X24.526 Y27.309 
G1 X24.623 Y27.492 
G1 X24.744 Y27.632 
G1 X24.888 Y27.734 
G1 X25.053 Y27.795 
G1 X25.232 Y27.814 
G1 X25.366 Y27.804 
G1 X25.491 Y27.774 
G1 X25.608 Y27.725 
G1 X25.713 Y27.658 
G1 X25.805 Y27.573 
G1 X25.882 Y27.474 
G1 X25.941 Y27.361 
G1 X25.983 Y27.233 
G1 X26.002 Y27.047 
G1 X25.971 Y26.859 
G1 X25.896 Y26.684 
G1 X25.790 Y26.549 
G0   Z1.000
G0 X21.318 Y11.204 
G1   Z-0.150F90.0
G1 X21.289 Y11.206 F120.0
G1 X21.259 Y11.201 
G1 X21.230 Y11.187 
G1 X21.204 Y11.167 
G1 X21.185 Y11.143 
G1 X21.173 Y11.117 
G1 X21.169 Y11.091 
G1 X21.177 Y11.050 
G1 X21.208 Y11.008 
G1 X21.247 Y10.979 
G1 X21.270 Y10.973 
G1 X21.296 Y10.978 
G1 X21.340 Y11.006 
G1 X21.378 Y11.048 
G1 X21.392 Y11.079 
G1 X21.392 Y11.101 
G1 X21.379 Y11.144 
G1 X21.357 Y11.180 
G1 X21.339 Y11.196 
G1 X21.318 Y11.204 
G0   Z1.000
G0 X20.390 Y15.200 
G1   Z-0.150F90.0
G1 X20.418 Y15.218 F120.0
G1 X20.422 Y15.223 
G1 X20.423 Y15.237 
G1 X20.417 Y15.259 
G1 X20.399 Y15.281 
G1 X20.378 Y15.295 
G1 X20.350 Y15.277 
G1 X20.336 Y15.263 
G1 X20.334 Y15.224 
G1 X20.342 Y15.214 
G1 X20.354 Y15.204 
G1 X20.365 Y15.200 
G1 X20.390 Y15.200 
G0   Z1.000
G0 X22.727 Y15.241 
G1   Z-0.150F90.0
G1 X22.730 Y15.227 F120.0
G1 X22.753 Y15.199 
G1 X22.762 Y15.193 
G1 X22.790 Y15.199 
G1 X22.800 Y15.206 
G1 X22.808 Y15.215 
G1 X22.817 Y15.238 
G1 X22.817 Y15.253 
G1 X22.814 Y15.262 
G1 X22.798 Y15.279 
G1 X22.773 Y15.295 
G1 X22.751 Y15.281 
G1 X22.730 Y15.255 
G1 X22.727 Y15.241 
G0   Z1.000
G0 X22.350 Y14.787 
G1   Z-0.150F90.0
G1 X22.289 Y14.841 F120.0
G1 X20.859  
G1 X20.792 Y14.772 
G1  Y12.161 
G1 X20.998 Y11.958 
G1 X21.140 Y11.820 
G1 X21.211 Y11.763 
G1 X21.247 Y11.748 
G1 X21.327 Y11.739 
G1 X21.445 Y11.721 
G1 X21.563 Y11.680 
G1 X21.669 Y11.620 
G1 X21.760 Y11.541 
G1 X21.833 Y11.445 
G1 X21.886 Y11.335 
G1 X21.919 Y11.215 
G1 X21.930 Y11.087 
G1 X21.919 Y10.965 
G1 X21.887 Y10.849 
G1 X21.835 Y10.744 
G1 X21.765 Y10.651 
G1 X21.678 Y10.572 
G1 X21.577 Y10.511 
G1 X21.464 Y10.467 
G1 X21.338 Y10.443 
G1 X21.096 Y10.453 
G1 X20.964 Y10.518 
G1 X20.850 Y10.606 
G1 X20.751 Y10.710 
G1 X20.679 Y10.826 
G1 X20.641 Y10.964 
G1 X20.627 Y11.100 
G1  Y11.167 
G1 X20.023 Y11.773 
G1 X20.008 Y11.791 
G1 X19.995 Y11.811 
G1 X19.986 Y11.834 
G1 X19.980 Y11.857 
G1 X19.978 Y11.881 
G1 X19.962 Y14.773 
G1 X19.905 Y14.845 
G1 X19.835 Y14.950 
G1 X19.786 Y15.066 
G1 X19.763 Y15.184 
G1 X19.763 Y15.308 
G1 X19.824 Y15.515 
G1 X19.953 Y15.691 
G1 X20.126 Y15.811 
G1 X20.236 Y15.850 
G1 X20.347 Y15.868 
G1 X20.463 Y15.863 
G1 X20.580 Y15.834 
G1 X20.693 Y15.779 
G1 X20.793 Y15.704 
G1 X20.863 Y15.641 
G1 X22.292  
G1 X22.338 Y15.689 
G1 X22.484 Y15.800 
G1 X22.659 Y15.860 
G1 X22.838 Y15.864 
G1 X23.007 Y15.818 
G1 X23.158 Y15.728 
G1 X23.280 Y15.596 
G1 X23.362 Y15.429 
G1 X23.391 Y15.235 
G1 X23.363 Y15.047 
G1 X23.283 Y14.887 
G1 X23.164 Y14.761 
G1 X23.016 Y14.675 
G1 X22.850 Y14.632 
G1 X22.675 Y14.635 
G1 X22.501 Y14.688 
G1 X22.350 Y14.787 
G0   Z1.000
G0 X19.011 Y15.050 
G1   Z-0.150F90.0
G1 X19.011 Y15.211 F120.0
G1 X18.996 Y15.239 
G1 X18.965 Y15.315 
G1 X18.940 Y15.452 
G1 X18.917 Y15.584 
G1 X18.887 Y15.678 
G1 X18.849 Y15.780 
G1 X18.761 Y15.988 
G1 X18.701 Y16.096 
G1 X18.684 Y16.119 
G1 X18.621 Y16.204 
G1 X18.618 Y16.215 
G1 X18.604 Y16.240 
G1 X18.543 Y16.309 
G1 X18.438 Y16.439 
G1 X18.364 Y16.535 
G1 X18.310 Y16.608 
G1 X18.250 Y16.620 
G1 X18.199 Y16.658 
G1 X18.063 Y16.738 
G1 X17.913 Y16.826 
G1 X17.904 Y16.832 
G1 X17.886 Y16.836 
G1 X17.800 Y16.861 
G1 X17.727 Y16.912 
G1 X17.680 Y16.942 
G1 X17.622 Y16.961 
G1 X17.408 Y17.004 
G1 X17.274 Y17.023 
G1 X17.117 Y17.030 
G1 X16.960 Y17.023 
G1 X16.825 Y17.004 
G1 X16.604 Y16.960 
G1 X16.557 Y16.947 
G1 X16.539 Y16.934 
G1 X16.488 Y16.892 
G1 X16.409 Y16.860 
G1 X16.264 Y16.792 
G1 X16.166 Y16.741 
G1 X16.271 Y16.662 
G1 X16.351 Y16.600 
G1 X16.396 Y16.577 
G1 X16.421 Y16.565 
G1 X16.437 Y16.557 
G1 X16.504 Y16.553 
G1 X16.572 Y16.534 
G1 X16.735 Y16.464 
G1 X16.833 Y16.401 
G1 X16.893 Y16.326 
G1 X16.931 Y16.279 
G1 X16.995 Y16.233 
G1 X17.085 Y16.174 
G1 X17.128 Y16.128 
G1 X17.198 Y16.117 
G1 X17.259 Y16.094 
G1 X17.279 Y16.085 
G1 X17.298 Y16.072 
G1 X17.316 Y16.056 
G1 X17.331 Y16.037 
G1 X17.343 Y16.017 
G1 X17.351 Y15.995 
G1 X17.356 Y15.972 
G1 X17.358 Y15.950 
G1  Y15.369 
G1 X17.382 Y15.372 
G1 X17.493 Y15.381 
G1 X17.586 Y15.387 
G1 X17.601 Y15.392 
G1 X17.640 Y15.419 
G1 X17.746 Y15.443 
G1 X17.812 Y15.445 
G1 X17.885 Y15.429 
G1 X17.947 Y15.484 
G1 X18.076 Y15.509 
G1 X18.180 Y15.529 
G1 X18.236 Y15.550 
G1 X18.306 Y15.579 
G1 X18.406 Y15.571 
G1 X18.471 Y15.546 
G1 X18.491 Y15.537 
G1 X18.510 Y15.524 
G1 X18.528 Y15.508 
G1 X18.543 Y15.489 
G1 X18.555 Y15.469 
G1 X18.563 Y15.447 
G1 X18.568 Y15.424 
G1 X18.570 Y15.402 
G1  Y14.621 
G1 X18.568 Y14.599 
G1 X18.563 Y14.576 
G1 X18.554 Y14.553 
G1 X18.541 Y14.531 
G1 X18.525 Y14.512 
G1 X18.505 Y14.495 
G1 X18.484 Y14.482 
G1 X18.461 Y14.473 
G1 X18.438 Y14.468 
G1 X18.415 Y14.467 
G1 X18.333  
G1 X18.236 Y14.482 
G1 X18.178 Y14.517 
G1 X18.170 Y14.522 
G1 X18.146 Y14.525 
G1 X18.011 Y14.532 
G1 X17.919 Y14.566 
G1 X17.887 Y14.599 
G1 X17.837 Y14.587 
G1 X17.763 Y14.581 
G1 X17.669 Y14.593 
G1 X17.649 Y14.597 
G1 X17.629 Y14.604 
G1 X17.611 Y14.614 
G1 X17.593 Y14.626 
G1 X17.578 Y14.640 
G1 X17.565 Y14.655 
G1 X17.555 Y14.668 
G1 X17.391  
G1 X17.357 Y14.670 
G1 X17.343 Y14.084 
G1 X17.341 Y14.062 
G1 X17.336 Y14.040 
G1 X17.327 Y14.018 
G1 X17.314 Y13.998 
G1 X17.299 Y13.979 
G1 X17.280 Y13.964 
G1 X17.260 Y13.951 
G1 X17.239 Y13.942 
G1 X17.218 Y13.936 
G1 X17.150 Y13.923 
G1 X17.131 Y13.885 
G1 X17.049 Y13.831 
G1 X16.975 Y13.784 
G1 X16.877 Y13.698 
G1 X16.757 Y13.601 
G1 X16.646 Y13.550 
G1 X16.616 Y13.544 
G1 X16.606 Y13.537 
G1 X16.543 Y13.504 
G1 X16.521 Y13.494 
G1 X16.499 Y13.488 
G1 X16.475 Y13.486 
G1 X16.451 Y13.487 
G1 X16.429 Y13.492 
G1 X16.410 Y13.470 
G1 X16.324 Y13.407 
G1 X16.297 Y13.397 
G1 X16.249 Y13.333 
G1 X16.219 Y13.309 
G1 X16.186 Y13.289 
G1 X16.222 Y13.267 
G1 X16.374 Y13.186 
G1 X16.466 Y13.152 
G1 X16.489 Y13.144 
G1 X16.557 Y13.101 
G1 X16.647 Y13.088 
G1 X16.716 Y13.054 
G1 X16.745 Y13.035 
G1 X17.353 Y13.022 
G1 X17.429 Y13.032 
G1 X17.537 Y13.066 
G1 X17.592 Y13.091 
G1 X17.679 Y13.102 
G1 X17.708 Y13.105 
G1 X17.847 Y13.193 
G1 X18.120 Y13.336 
G1 X18.201 Y13.398 
G1 X18.259 Y13.447 
G1 X18.297 Y13.460 
G1 X18.369 Y13.516 
G1 X18.380 Y13.521 
G1 X18.409 Y13.537 
G1 X18.439 Y13.599 
G1 X18.696 Y13.922 
G1 X18.718 Y13.977 
G1 X18.757 Y14.037 
G1 X18.787 Y14.085 
G1 X18.820 Y14.178 
G1 X18.897 Y14.374 
G1 X18.918 Y14.427 
G1 X18.927 Y14.496 
G1 X18.941 Y14.611 
G1 X18.973 Y14.728 
G1 X18.999 Y14.863 
G1 X19.011 Y15.050 
G0   Z1.000
G0 X15.822 Y16.505 
G1   Z-0.150F90.0
G1 X15.806 Y16.494 F120.0
G1 X15.793 Y16.479 
G1 X15.778 Y16.449 
G1 X15.684 Y16.319 
G1 X15.586 Y16.198 
G1 X15.474 Y16.015 
G1 X15.369 Y15.784 
G1 X15.325 Y15.647 
G1 X15.307 Y15.554 
G1 X15.293 Y15.464 
G1 X15.256 Y15.392 
G1 X15.237 Y15.363 
G1  Y14.687 
G1 X15.253 Y14.663 
G1 X15.291 Y14.595 
G1 X15.306 Y14.512 
G1 X15.350 Y14.298 
G1 X15.381 Y14.207 
G1 X15.403 Y14.168 
G1 X15.437 Y14.119 
G1 X15.450 Y14.047 
G1 X15.452 Y14.038 
G1 X15.453 Y14.037 
G1 X15.530 Y13.952 
G1 X15.605 Y13.811 
G1 X15.614 Y13.798 
G1 X15.622 Y13.792 
G1 X15.682 Y13.739 
G1 X15.736 Y13.648 
G1 X15.779 Y13.582 
G1 X15.808 Y13.552 
G1 X15.822 Y16.505 
G0   Z1.000
G0 X15.508 Y16.779 
G1   Z-0.150F90.0
G1 X15.620 Y16.878 F120.0
G1 X15.703 Y16.921 
G1 X15.719 Y16.929 
G1 X15.771 Y16.979 
G1 X15.904 Y17.069 
G1 X16.015 Y17.144 
G1 X16.050 Y17.179 
G1 X16.095 Y17.234 
G1 X16.178 Y17.251 
G1 X16.315 Y17.294 
G1 X16.515 Y17.356 
G1 X16.631 Y17.392 
G1 X16.686 Y17.434 
G1 X17.547  
G1 X17.601 Y17.393 
G1 X17.774 Y17.339 
G1 X17.909 Y17.301 
G1 X17.981 Y17.258 
G1 X18.005 Y17.255 
G1 X18.072 Y17.244 
G1 X18.095 Y17.238 
G1 X18.117 Y17.229 
G1 X18.138 Y17.216 
G1 X18.156 Y17.200 
G1 X18.172 Y17.182 
G1 X18.194 Y17.151 
G1 X18.205 Y17.134 
G1 X18.208 Y17.132 
G1 X18.418 Y16.999 
G1 X18.591 Y16.887 
G1 X18.648 Y16.853 
G1 X18.731 Y16.767 
G1 X18.856 Y16.586 
G1 X18.969 Y16.433 
G1 X19.041 Y16.338 
G1 X19.126 Y16.188 
G1 X19.198 Y16.035 
G1 X19.229 Y15.927 
G1 X19.235 Y15.902 
G1 X19.253 Y15.874 
G1 X19.299 Y15.780 
G1 X19.328 Y15.654 
G1 X19.368 Y15.511 
G1 X19.375 Y15.503 
G1 X19.410 Y15.400 
G1 X19.385 Y14.584 
G1 X19.338 Y14.404 
G1 X19.254 Y14.146 
G1 X19.086 Y13.788 
G1 X18.977 Y13.626 
G1 X18.872 Y13.479 
G1 X18.772 Y13.326 
G1 X18.587 Y13.162 
G1 X18.436 Y13.039 
G1 X18.321 Y12.966 
G1 X18.187 Y12.873 
G1 X18.110 Y12.822 
G1 X18.034 Y12.800 
G1 X17.967 Y12.779 
G1 X17.866 Y12.729 
G1 X17.676 Y12.675 
G1 X17.458 Y12.634 
G1 X17.240 Y12.612 
G1 X16.799 Y12.611 
G1 X16.602 Y12.652 
G1 X16.415 Y12.713 
G1 X16.291 Y12.749 
G1 X16.226 Y12.783 
G1 X16.178 Y12.804 
G1 X16.116 Y12.824 
G1 X16.045 Y12.874 
G1 X15.909 Y12.968 
G1 X15.673 Y13.137 
G1 X15.506 Y13.286 
G1 X15.462 Y13.306 
G1 X15.383 Y13.371 
G1 X15.347 Y13.467 
G1 X15.321 Y13.526 
G1 X15.272 Y13.583 
G1 X15.198 Y13.658 
G1 X15.163 Y13.724 
G1 X15.128 Y13.787 
G1 X15.084 Y13.854 
G1 X15.042 Y13.963 
G1 X14.968 Y14.143 
G1 X14.931 Y14.238 
G1 X14.904 Y14.364 
G1 X14.887 Y14.445 
G1 X14.869 Y14.460 
G1 X14.854 Y14.478 
G1 X14.842 Y14.499 
G1 X14.834 Y14.521 
G1 X14.828 Y14.544 
G1 X14.827 Y14.567 
G1  Y15.489 
G1 X14.883 Y15.597 
G1 X14.905 Y15.654 
G1 X14.915 Y15.715 
G1 X14.930 Y15.802 
G1 X14.964 Y15.879 
G1 X15.043 Y16.074 
G1 X15.117 Y16.233 
G1 X15.238 Y16.402 
G1 X15.330 Y16.520 
G1 X15.364 Y16.586 
G1 X15.408 Y16.668 
G1 X15.508 Y16.779 
G0   Z1.000
G0 X13.423 Y15.276 
G1   Z-0.150F90.0
G1 X13.405 Y15.297 F120.0
G1 X13.402 Y15.297 
G1 X13.374 Y15.275 
G1 X13.353 Y15.247 
G1 X13.352 Y15.244 
G1 X13.357 Y15.227 
G1 X13.373 Y15.210 
G1 X13.395 Y15.201 
G1 X13.418 Y15.204 
G1 X13.421 Y15.206 
G1 X13.423 Y15.208 
G1 X13.431 Y15.243 
G1 X13.423 Y15.276 
G0   Z1.000
G0 X10.800 Y15.250 
G1   Z-0.150F90.0
G1 X10.795 Y15.261 F120.0
G1 X10.775 Y15.283 
G1 X10.754 Y15.297 
G1 X10.750 Y15.297 
G1 X10.747 Y15.297 
G1 X10.719 Y15.276 
G1 X10.701 Y15.251 
G1 X10.729 Y15.217 
G1 X10.751 Y15.199 
G1 X10.777 Y15.220 
G1 X10.800 Y15.250 
G0   Z1.000
G0 X3.810 Y15.254 
G1   Z-0.150F90.0
G1 X3.807 Y15.269 F120.0
G1 X3.797 Y15.282 
G1 X3.782 Y15.292 
G1 X3.767 Y15.296 
G1 X3.759 Y15.295 
G1 X3.755 Y15.292 
G1 X3.739 Y15.269 
G1 X3.730 Y15.240 
G1 X3.731 Y15.233 
G1 X3.733 Y15.228 
G1 X3.761 Y15.201 
G1 X3.770 Y15.194 
G1 X3.786 Y15.199 
G1 X3.794 Y15.206 
G1 X3.806 Y15.227 
G1 X3.810 Y15.254 
G0   Z1.000
G0 X6.814 Y20.352 
G1   Z-0.150F90.0
G1 X6.835 Y20.342 F120.0
G1 X6.859 Y20.336 
G1 X6.886 Y20.337 
G1 X6.916 Y20.346 
G1 X6.959 Y20.372 
G1 X6.989 Y20.401 
G1 X6.999 Y20.420 
G1 X7.001 Y20.429 
G1 X6.998 Y20.448 
G1 X6.981 Y20.488 
G1 X6.955 Y20.521 
G1 X6.920 Y20.546 
G1 X6.881 Y20.559 
G1 X6.856 Y20.559 
G1 X6.828 Y20.547 
G1 X6.798 Y20.520 
G1 X6.776 Y20.483 
G1 X6.768 Y20.442 
G1 X6.772 Y20.414 
G1 X6.781 Y20.388 
G1 X6.796 Y20.368 
G1 X6.814 Y20.352 
G0   Z1.000
G0 X10.808 Y19.065 
G1   Z-0.150F90.0
G1 X10.807 Y19.040 F120.0
G1 X10.814 Y19.015 
G1 X10.827 Y18.992 
G1 X10.845 Y18.975 
G1 X10.867 Y18.964 
G1 X10.895 Y18.960 
G1 X10.932 Y18.966 
G1 X10.949 Y18.977 
G1 X10.966 Y19.000 
G1 X10.979 Y19.028 
G1 X10.981 Y19.058 
G1 X10.974 Y19.081 
G1 X10.959 Y19.103 
G1 X10.935 Y19.122 
G1 X10.907 Y19.133 
G1 X10.880 Y19.135 
G1 X10.858 Y19.129 
G1 X10.833 Y19.111 
G1 X10.816 Y19.088 
G1 X10.808 Y19.065 
G0   Z1.000
G0 X11.654 Y19.062 
G1   Z-0.150F90.0
G1 X11.654 Y19.036 F120.0
G1 X11.668 Y18.993 
G1 X11.682 Y18.974 
G1 X11.695 Y18.967 
G1 X11.732 Y18.961 
G1 X11.771 Y18.966 
G1 X11.790 Y18.974 
G1 X11.800 Y18.987 
G1 X11.814 Y19.021 
G1 X11.816 Y19.064 
G1 X11.808 Y19.094 
G1 X11.795 Y19.114 
G1 X11.780 Y19.125 
G1 X11.763 Y19.131 
G1 X11.743 Y19.131 
G1 X11.715 Y19.122 
G1 X11.680 Y19.095 
G1 X11.654 Y19.062 
G0   Z1.000
G0 X12.509 Y19.054 
G1   Z-0.150F90.0
G1 X12.515 Y19.010 F120.0
G1 X12.533 Y18.979 
G1 X12.557 Y18.963 
G1 X12.587 Y18.958 
G1 X12.615 Y18.965 
G1 X12.635 Y18.981 
G1 X12.652 Y19.013 
G1 X12.660 Y19.058 
G1 X12.657 Y19.082 
G1 X12.648 Y19.101 
G1 X12.635 Y19.116 
G1 X12.619 Y19.127 
G1 X12.599 Y19.133 
G1 X12.578 Y19.133 
G1 X12.554 Y19.127 
G1 X12.536 Y19.117 
G1 X12.517 Y19.092 
G1 X12.509 Y19.054 
G0   Z1.000
G0 X15.630 Y19.063 
G1   Z-0.150F90.0
G1 X15.630 Y19.052 F120.0
G1 X15.637 Y19.032 
G1 X15.650 Y19.010 
G1 X15.670 Y18.993 
G1 X15.674 Y18.992 
G1 X15.680 Y18.993 
G1 X15.698 Y19.006 
G1 X15.713 Y19.031 
G1 X15.718 Y19.053 
G1 X15.715 Y19.069 
G1 X15.714 Y19.070 
G1 X15.707 Y19.075 
G1 X15.669 Y19.080 
G1 X15.647 Y19.078 
G1 X15.636 Y19.073 
G1 X15.632 Y19.070 
G1 X15.631 Y19.068 
G1 X15.630 Y19.063 
G0   Z1.000
G0 X12.762 Y24.512 
G1   Z-0.150F90.0
G1 X12.784 Y24.531 F120.0
G1 X12.800 Y24.562 
G1 X12.804 Y24.603 
G1 X12.794 Y24.643 
G1 X12.768 Y24.682 
G1 X12.745 Y24.702 
G1 X12.744 Y24.703 
G1 X12.657 Y24.706 
G1 X12.637 Y24.702 
G1 X12.632 Y24.699 
G1 X12.618 Y24.682 
G1 X12.596 Y24.638 
G1 X12.587 Y24.603 
G1 X12.601 Y24.564 
G1 X12.630 Y24.522 
G1 X12.660 Y24.501 
G1 X12.692 Y24.492 
G1 X12.730 Y24.496 
G1 X12.762 Y24.512 
G0   Z1.000
G0 X6.958 Y23.589 
G1   Z-0.150F90.0
G1 X6.951 Y23.608 F120.0
G1 X6.937 Y23.628 
G1 X6.917 Y23.645 
G1 X6.897 Y23.655 
G1 X6.879 Y23.659 
G1 X6.860 Y23.658 
G1 X6.836 Y23.648 
G1 X6.819 Y23.635 
G1 X6.808 Y23.620 
G1 X6.801 Y23.602 
G1 X6.799 Y23.584 
G1 X6.803 Y23.565 
G1 X6.812 Y23.546 
G1 X6.832 Y23.525 
G1 X6.870 Y23.498 
G1 X6.889 Y23.492 
G1 X6.897 Y23.493 
G1 X6.913 Y23.501 
G1 X6.935 Y23.523 
G1 X6.956 Y23.559 
G1 X6.959 Y23.574 
G1 X6.958 Y23.589 
G0   Z1.000
G0 X6.885 Y26.869 
G1   Z-0.150F90.0
G1 X6.906 Y26.876 F120.0
G1 X6.923 Y26.889 
G1 X6.947 Y26.929 
G1 X6.956 Y26.961 
G1 X6.951 Y26.977 
G1 X6.917 Y27.017 
G1 X6.888 Y27.028 
G1 X6.855 Y27.024 
G1 X6.814 Y26.996 
G1 X6.801 Y26.974 
G1 X6.798 Y26.955 
G1 X6.805 Y26.932 
G1 X6.836 Y26.895 
G1 X6.868 Y26.873 
G1 X6.877 Y26.869 
G1 X6.885 Y26.869 
G0   Z1.000
G0 X6.979 Y26.340 
G1   Z-0.150F90.0
G1 X6.864 Y26.332 F120.0
G1 X6.750 Y26.346 
G1 X6.640 Y26.382 
G1 X6.537 Y26.439 
G1 X6.445 Y26.515 
G1 X6.360 Y26.612 
G1 X6.299 Y26.717 
G1 X6.265 Y26.833 
G1 X6.254 Y26.963 
G1 X6.286 Y27.160 
G1 X6.382 Y27.336 
G1 X6.531 Y27.471 
G1 X6.718 Y27.553 
G1 X6.881 Y27.577 
G1 X7.037 Y27.558 
G1 X7.185 Y27.497 
G1 X7.313 Y27.403 
G1 X7.374 Y27.350 
G1 X10.455 Y27.358 
G1 X10.616 Y27.268 
G1 X12.635 Y25.246 
G1 X12.717  
G1 X12.854 Y25.235 
G1 X12.975 Y25.203 
G1 X13.085 Y25.133 
G1 X13.176 Y25.052 
G1 X13.292 Y24.874 
G1 X13.343 Y24.670 
G1 X13.332 Y24.464 
G1 X13.261 Y24.272 
G1 X13.136 Y24.114 
G1 X13.045 Y24.046 
G1 X12.946 Y23.997 
G1 X12.836 Y23.966 
G1 X12.728 Y23.957 
G1 X12.662 Y23.953 
G1 X12.636 Y23.942 
G1 X12.382 Y23.702 
G1 X12.134 Y23.450 
G1 X12.136 Y19.436 
G1 X12.157 Y19.401 
G1 X12.169 Y19.424 
G1 X12.251 Y19.504 
G1 X12.398 Y19.600 
G1 X12.587 Y19.623 
G1 X12.778 Y19.600 
G1 X12.920 Y19.500 
G1 X12.974 Y19.449 
G1 X15.192  
G1 X15.211 Y19.470 
G1 X15.371 Y19.588 
G1 X15.574 Y19.652 
G1 X15.780 Y19.653 
G1 X15.890 Y19.626 
G1 X15.993 Y19.579 
G1 X16.149 Y19.450 
G1 X16.250 Y19.282 
G1 X16.291 Y19.098 
G1 X16.278 Y18.913 
G1 X16.215 Y18.740 
G1 X16.102 Y18.590 
G1 X15.941 Y18.480 
G1 X15.747 Y18.430 
G1 X15.603 Y18.431 
G1 X15.473 Y18.452 
G1 X15.353 Y18.513 
G1 X15.243 Y18.594 
G1 X15.181 Y18.649 
G1 X12.982  
G1 X12.963 Y18.628 
G1 X12.804 Y18.508 
G1 X12.603 Y18.458 
G1 X12.408 Y18.491 
G1 X12.307 Y18.544 
G1 X12.227 Y18.612 
G1 X12.160 Y18.691 
G1 X12.131 Y18.623 
G1 X12.141 Y16.119 
G1 X12.051 Y15.955 
G1 X11.734 Y15.641 
G1 X12.913  
G1 X12.958 Y15.688 
G1 X13.069 Y15.777 
G1 X13.204 Y15.837 
G1 X13.345 Y15.862 
G1 X13.488 Y15.856 
G1 X13.626 Y15.818 
G1 X13.754 Y15.751 
G1 X13.865 Y15.653 
G1 X13.954 Y15.524 
G1 X13.996 Y15.390 
G1 X14.009 Y15.243 
G1 X13.997 Y15.096 
G1 X13.956 Y14.963 
G1 X13.869 Y14.835 
G1 X13.762 Y14.738 
G1 X13.637 Y14.670 
G1 X13.502 Y14.633 
G1 X13.362 Y14.626 
G1 X13.222 Y14.651 
G1 X13.087 Y14.707 
G1 X12.969 Y14.789 
G1 X12.910 Y14.841 
G1 X11.220  
G1 X11.188 Y14.807 
G1 X11.043 Y14.693 
G1 X10.835 Y14.632 
G1 X10.710 Y14.628 
G1 X10.578 Y14.649 
G1 X10.440 Y14.713 
G1 X10.318 Y14.811 
G1 X10.219 Y14.931 
G1 X10.153 Y15.068 
G1 X10.127 Y15.219 
G1 X10.140 Y15.365 
G1 X10.185 Y15.500 
G1 X10.259 Y15.621 
G1 X10.357 Y15.723 
G1 X10.477 Y15.802 
G1 X10.615 Y15.853 
G1 X10.757 Y15.871 
G1 X10.804 Y15.871 
G1 X11.335 Y16.401 
G1 X11.333 Y18.661 
G1 X11.312 Y18.698 
G1 X11.310 Y18.700 
G1 X11.236 Y18.597 
G1 X11.146 Y18.529 
G1 X11.041 Y18.483 
G1 X10.842 Y18.462 
G1 X10.651 Y18.513 
G1 X10.556 Y18.580 
G1 X10.502 Y18.649 
G1 X8.159  
G1 X8.135 Y18.651 
G1 X8.112 Y18.656 
G1 X8.089 Y18.666 
G1 X8.068 Y18.679 
G1 X8.050 Y18.694 
G1 X6.953 Y19.785 
G1 X6.801 Y19.796 
G1 X4.169 Y17.167 
G1  Y15.730 
G1 X4.196 Y15.707 
G1 X4.273 Y15.615 
G1 X4.338 Y15.495 
G1 X4.383 Y15.367 
G1 X4.401 Y15.238 
G1 X4.389 Y15.126 
G1 X4.352 Y15.016 
G1 X4.239 Y14.841 
G1 X4.076 Y14.709 
G1 X3.971 Y14.659 
G1 X3.858 Y14.631 
G1 X3.621 Y14.639 
G1 X3.500 Y14.683 
G1 X3.391 Y14.746 
G1 X3.297 Y14.846 
G1 X3.220 Y14.970 
G1 X3.163 Y15.105 
G1 X3.137 Y15.239 
G1 X3.154 Y15.363 
G1 X3.196 Y15.480 
G1 X3.257 Y15.592 
G1 X3.331 Y15.687 
G1 X3.372 Y15.731 
G1 X3.367 Y17.319 
G1 X3.370 Y17.438 
G1 X3.372 Y17.461 
G1 X3.378 Y17.484 
G1 X3.387 Y17.506 
G1 X3.400 Y17.526 
G1 X3.415 Y17.544 
G1 X6.227 Y20.353 
G1 X6.227 Y20.428 
G1 X6.245 Y20.573 
G1 X6.292 Y20.721 
G1 X6.363 Y20.855 
G1 X6.441 Y20.935 
G1 X6.457 Y20.950 
G1  Y23.108 
G1 X6.395 Y23.186 
G1 X6.329 Y23.287 
G1 X6.283 Y23.404 
G1 X6.261 Y23.526 
G1 X6.262 Y23.648 
G1 X6.285 Y23.767 
G1 X6.332 Y23.881 
G1 X6.402 Y23.984 
G1 X6.495 Y24.070 
G1 X6.595 Y24.130 
G1 X6.708 Y24.172 
G1 X6.924 Y24.192 
G1 X7.133 Y24.140 
G1 X7.237 Y24.080 
G1 X7.322 Y24.006 
G1 X7.397 Y23.909 
G1 X7.453 Y23.806 
G1 X7.487 Y23.697 
G1 X7.500 Y23.584 
G1 X7.490 Y23.471 
G1 X7.458 Y23.361 
G1 X7.405 Y23.257 
G1 X7.337 Y23.166 
G1 X7.286 Y23.108 
G1  Y20.962 
G1 X7.367 Y20.870 
G1 X7.456 Y20.742 
G1 X7.520 Y20.594 
G1 X7.550 Y20.440 
G1 X7.535 Y20.367 
G1 X8.449 Y19.449 
G1 X10.506  
G1 X10.556 Y19.498 
G1 X10.693 Y19.599 
G1 X10.878 Y19.623 
G1 X11.033 Y19.605 
G1 X11.168 Y19.552 
G1 X11.266 Y19.454 
G1 X11.307 Y19.379 
G1 X11.322 Y19.403 
G1 X11.333 Y19.418 
G1 X11.335 Y23.745 
G1 X11.336 Y23.769 
G1 X11.342 Y23.793 
G1 X11.351 Y23.815 
G1 X11.364 Y23.836 
G1 X11.379 Y23.854 
G1 X12.039 Y24.521 
G1 X12.046 Y24.671 
G1 X10.170 Y26.552 
G1 X7.357  
G1 X7.288 Y26.491 
G1 X7.197 Y26.422 
G1 X7.091 Y26.371 
G1 X6.979 Y26.340 
G0   Z1.000
G0 X13.635 Y30.092 
G1   Z-0.150F90.0
G1 X13.709 Y30.022 F120.0
G1 X13.775 Y29.991 
G1 X13.853 Y29.978 
G1 X13.931 Y29.986 
G1 X13.997 Y30.013 
G1 X14.051 Y30.054 
G1 X14.096 Y30.104 
G1 X14.122 Y30.153 
G1 X14.135 Y30.205 
G1 X14.138 Y30.300 
G1 X14.130 Y30.348 
G1 X14.110 Y30.383 
G1 X14.049 Y30.450 
G1 X13.988 Y30.508 
G1 X13.971 Y30.520 
G1 X13.880 Y30.531 
G1 X13.774 Y30.515 
G1 X13.693 Y30.472 
G1 X13.634 Y30.411 
G1 X13.596 Y30.334 
G1 X13.582 Y30.252 
G1 X13.594 Y30.169 
G1 X13.635 Y30.092 
G0   Z1.000
G0 X17.944 Y24.696 
G1   Z-0.150F90.0
G1 X17.928 Y24.675 F120.0
G1 X17.914 Y24.643 
G1 X17.908 Y24.606 
G1 X17.910 Y24.571 
G1 X17.919 Y24.544 
G1 X17.931 Y24.527 
G1 X17.959 Y24.508 
G1 X18.006 Y24.498 
G1 X18.054 Y24.501 
G1 X18.084 Y24.514 
G1 X18.103 Y24.533 
G1 X18.126 Y24.573 
G1 X18.133 Y24.601 
G1 X18.126 Y24.630 
G1 X18.100 Y24.680 
G1 X18.081 Y24.696 
G1 X18.048 Y24.707 
G1 X17.976 Y24.709 
G1 X17.957 Y24.705 
G1 X17.944 Y24.696 
G0   Z1.000
G0 X17.945 Y25.246 
G1   Z-0.150F90.0
G1 X18.032  F120.0
G1 X18.199 Y25.224 
G1 X18.356 Y25.158 
G1 X18.485 Y25.056 
G1 X18.584 Y24.926 
G1 X18.646 Y24.775 
G1 X18.670 Y24.611 
G1 X18.649 Y24.441 
G1 X18.582 Y24.275 
G1 X18.479 Y24.137 
G1 X18.343 Y24.035 
G1 X18.182 Y23.975 
G1 X18.004 Y23.956 
G1 X17.806 Y23.978 
G1 X17.635 Y24.073 
G1 X17.517 Y24.178 
G1 X17.431 Y24.305 
G1 X17.381 Y24.450 
G1 X17.366 Y24.600 
G1  Y24.667 
G1 X13.515 Y28.517 
G1 X13.502 Y28.532 
G1 X13.491 Y28.549 
G1 X13.482 Y28.567 
G1 X13.475 Y28.586 
G1 X13.471 Y28.606 
G1 X13.470 Y28.626 
G1  Y29.446 
G1 X13.458 Y29.454 
G1 X13.258 Y29.607 
G1 X13.104 Y29.796 
G1 X13.010 Y30.015 
G1 X12.979 Y30.251 
G1 X12.991 Y30.409 
G1 X13.026 Y30.554 
G1 X13.083 Y30.689 
G1 X13.162 Y30.809 
G1 X13.262 Y30.914 
G1 X13.380 Y31.001 
G1 X13.513 Y31.067 
G1 X13.662 Y31.114 
G1 X13.832 Y31.137 
G1 X14.000 Y31.128 
G1 X14.160 Y31.089 
G1 X14.309 Y31.020 
G1 X14.442 Y30.924 
G1 X14.555 Y30.804 
G1 X14.646 Y30.661 
G1 X14.711 Y30.501 
G1 X14.760 Y30.278 
G1 X14.718 Y30.049 
G1 X14.654 Y29.870 
G1 X14.562 Y29.711 
G1 X14.443 Y29.579 
G1 X14.311 Y29.488 
G1 X14.282 Y29.471 
G1 X14.270 Y29.205 
G1  Y28.920 
G1 X17.945 Y25.246 
G0   Z1.000
G0 X19.575 Y24.644 
G1   Z-0.150F90.0
G1 X19.567 Y24.603 F120.0
G1 X19.575 Y24.559 
G1 X19.595 Y24.526 
G1 X19.628 Y24.504 
G1 X19.677 Y24.495 
G1 X19.728 Y24.503 
G1 X19.764 Y24.526 
G1 X19.781 Y24.551 
G1 X19.789 Y24.602 
G1 X19.783 Y24.642 
G1 X19.769 Y24.671 
G1 X19.749 Y24.692 
G1 X19.723 Y24.707 
G1 X19.694 Y24.715 
G1 X19.662 Y24.713 
G1 X19.628 Y24.701 
G1 X19.598 Y24.679 
G1 X19.575 Y24.644 
G0   Z1.000
G0 X23.434 Y26.984 
G1   Z-0.150F90.0
G1 X23.446 Y26.968 F120.0
G1 X23.480 Y26.946 
G1 X23.519 Y26.930 
G1 X23.555 Y26.924 
G1 X23.588 Y26.926 
G1 X23.612 Y26.933 
G1 X23.674 Y26.979 
G1 X23.687 Y27.004 
G1 X23.697 Y27.072 
G1 X23.690 Y27.130 
G1 X23.656 Y27.171 
G1 X23.613 Y27.200 
G1 X23.571 Y27.214 
G1 X23.531 Y27.215 
G1 X23.496 Y27.206 
G1 X23.466 Y27.189 
G1 X23.443 Y27.163 
G1 X23.426 Y27.129 
G1 X23.419 Y27.077 
G1 X23.424 Y27.014 
G1 X23.434 Y26.984 
G0   Z1.000
G0 X23.026 Y26.552 
G1   Z-0.150F90.0
G1 X22.944 Y26.631 F120.0
G1 X22.902 Y26.654 
G1 X22.816 Y26.666 
G1 X22.615 Y26.668 
G1 X22.318  
G1 X20.333 Y24.683 
G1 X20.324 Y24.558 
G1 X20.306 Y24.436 
G1 X20.269 Y24.318 
G1 X20.211 Y24.211 
G1 X20.135 Y24.120 
G1 X20.040 Y24.047 
G1 X19.932 Y23.996 
G1 X19.813 Y23.966 
G1 X19.684 Y23.958 
G1 X19.409 Y23.990 
G1 X19.281 Y24.080 
G1 X19.174 Y24.199 
G1 X19.085 Y24.333 
G1 X19.033 Y24.467 
G1 X19.022 Y24.632 
G1 X19.047 Y24.780 
G1 X19.111 Y24.917 
G1 X19.206 Y25.041 
G1 X19.293 Y25.132 
G1 X19.393 Y25.203 
G1 X19.612 Y25.239 
G1 X19.747 Y25.248 
G1 X21.938 Y27.432 
G1 X21.953 Y27.445 
G1 X21.970 Y27.457 
G1 X21.989 Y27.466 
G1 X22.009 Y27.472 
G1 X22.029 Y27.476 
G1 X22.049 Y27.477 
G1 X22.910 Y27.465 
G1 X22.984 Y27.548 
G1 X23.105 Y27.666 
G1 X23.245 Y27.753 
G1 X23.403 Y27.800 
G1 X23.579 Y27.814 
G1 X23.722 Y27.800 
G1 X23.857 Y27.762 
G1 X23.979 Y27.700 
G1 X24.086 Y27.615 
G1 X24.174 Y27.511 
G1 X24.241 Y27.391 
G1 X24.286 Y27.257 
G1 X24.306 Y27.112 
G1 X24.300 Y26.901 
G1 X24.230 Y26.723 
G1 X24.161 Y26.615 
G1 X24.081 Y26.525 
G1 X23.988 Y26.450 
G1 X23.884 Y26.392 
G1 X23.772 Y26.352 
G1 X23.647 Y26.329 
G1 X23.401 Y26.336 
G1 X23.295 Y26.359 
G1 X23.195 Y26.404 
G1 X23.026 Y26.552 
G0   Z1.000
G0 X14.475 Y24.603 
G1   Z-0.150F90.0
G1 X14.470 Y24.625 F120.0
G1 X14.440 Y24.670 
G1 X14.394 Y24.706 
G1 X14.361 Y24.713 
G1 X14.327 Y24.706 
G1 X14.281 Y24.670 
G1 X14.253 Y24.628 
G1 X14.247 Y24.602 
G1 X14.252 Y24.576 
G1 X14.280 Y24.533 
G1 X14.312 Y24.505 
G1 X14.361 Y24.498 
G1 X14.409 Y24.505 
G1 X14.441 Y24.532 
G1 X14.469 Y24.578 
G1 X14.475 Y24.603 
G0   Z1.000
G0 X25.099 Y22.027 
G1   Z-0.150F90.0
G1 X25.097 Y21.983 F120.0
G1 X25.109 Y21.942 
G1 X25.138 Y21.905 
G1 X25.196 Y21.868 
G1 X25.244 Y21.852 
G1 X25.280 Y21.858 
G1 X25.309 Y21.872 
G1 X25.353 Y21.906 
G1 X25.380 Y21.943 
G1 X25.387 Y21.996 
G1 X25.376 Y22.063 
G1 X25.351 Y22.101 
G1 X25.313 Y22.126 
G1 X25.248 Y22.137 
G1 X25.186 Y22.127 
G1 X25.143 Y22.103 
G1 X25.115 Y22.069 
G1 X25.099 Y22.027 
G0   Z1.000
G0 X24.500 Y22.092 
G1   Z-0.150F90.0
G1 X24.546 Y22.274 F120.0
G1 X24.639 Y22.443 
G1 X24.770 Y22.580 
G1 X24.826 Y22.628 
G1 X24.828 Y22.632 
G1 X24.840 Y22.827 
G1 X24.837 Y22.956 
G1 X24.818 Y23.020 
G1 X24.753 Y23.106 
G1 X24.590 Y23.274 
G1 X24.340 Y23.524 
G1 X22.331  
G1 X20.384 Y21.575 
G1 X20.209 Y21.531 
G1 X16.394 Y21.548 
G1 X16.370 Y21.550 
G1 X16.347 Y21.556 
G1 X16.324 Y21.565 
G1 X16.303 Y21.578 
G1 X16.285 Y21.593 
G1 X14.006 Y23.873 
G1 X13.990 Y23.892 
G1 X13.978 Y23.912 
G1 X13.968 Y23.935 
G1 X13.963 Y23.959 
G1 X13.961 Y23.983 
G1  Y24.030 
G1 X13.948 Y24.067 
G1 X13.890 Y24.147 
G1 X13.808 Y24.258 
G1 X13.746 Y24.395 
G1 X13.715 Y24.538 
G1 X13.715 Y24.682 
G1 X13.745 Y24.823 
G1 X13.806 Y24.954 
G1 X13.897 Y25.070 
G1 X14.021 Y25.168 
G1 X14.189 Y25.234 
G1 X14.375 Y25.251 
G1 X14.560 Y25.223 
G1 X14.723 Y25.148 
G1 X14.833 Y25.055 
G1 X14.915 Y24.951 
G1 X14.973 Y24.834 
G1 X15.006 Y24.709 
G1 X15.012 Y24.579 
G1 X14.993 Y24.449 
G1 X14.948 Y24.322 
G1 X14.881 Y24.207 
G1 X14.860 Y24.177 
G1 X16.706 Y22.333 
G1 X19.980  
G1 X21.960 Y24.307 
G1 X21.979 Y24.323 
G1 X21.999 Y24.335 
G1 X22.022 Y24.345 
G1 X22.046 Y24.350 
G1 X22.069 Y24.352 
G1 X24.600  
G1 X24.624 Y24.350 
G1 X24.648 Y24.345 
G1 X24.670 Y24.335 
G1 X24.691 Y24.323 
G1 X24.709 Y24.307 
G1 X25.595 Y23.427 
G1 X25.608 Y23.412 
G1 X25.619 Y23.395 
G1 X25.629 Y23.377 
G1 X25.635 Y23.357 
G1 X25.639 Y23.337 
G1 X25.640 Y23.317 
G1  Y22.939 
G1 X25.650 Y22.640 
G1 X25.666 Y22.629 
G1 X25.764 Y22.551 
G1 X25.856 Y22.438 
G1 X25.930 Y22.308 
G1 X25.983 Y22.163 
G1 X26.005 Y21.988 
G1 X25.965 Y21.795 
G1 X25.920 Y21.675 
G1 X25.859 Y21.567 
G1 X25.782 Y21.472 
G1 X25.691 Y21.392 
G1 X25.588 Y21.328 
G1 X25.475 Y21.282 
G1 X25.353 Y21.254 
G1 X25.220 Y21.245 
G1 X25.083 Y21.266 
G1 X24.939 Y21.315 
G1 X24.768 Y21.420 
G1 X24.636 Y21.561 
G1 X24.547 Y21.727 
G1 X24.501 Y21.906 
G1 X24.500 Y22.092 
G0   Z1.000
G0 X28.483 Y22.031 
G1   Z-0.150F90.0
G1 X28.482 Y21.988 F120.0
G1 X28.498 Y21.939 
G1 X28.528 Y21.898 
G1 X28.569 Y21.870 
G1 X28.620 Y21.853 
G1 X28.657 Y21.858 
G1 X28.685 Y21.872 
G1 X28.729 Y21.906 
G1 X28.756 Y21.943 
G1 X28.763 Y21.995 
G1 X28.752 Y22.058 
G1 X28.726 Y22.097 
G1 X28.686 Y22.125 
G1 X28.636 Y22.139 
G1 X28.583 Y22.136 
G1 X28.539 Y22.118 
G1 X28.506 Y22.086 
G1 X28.483 Y22.031 
G0   Z1.000
G0 X31.532 Y23.314 
G1   Z-0.150F90.0
G1 X31.535 Y23.309 F120.0
G1 X31.548 Y23.298 
G1 X31.567 Y23.288 
G1 X31.588 Y23.284 
G1 X31.601 Y23.285 
G1 X31.604 Y23.286 
G1 X31.605 Y23.286 
G1 X31.615 Y23.309 
G1 X31.619 Y23.330 
G1 X31.615 Y23.348 
G1 X31.597 Y23.361 
G1 X31.573 Y23.369 
G1 X31.557 Y23.355 
G1 X31.534 Y23.321 
G1 X31.532 Y23.314 
G0   Z1.000
G0 X31.285 Y22.781 
G1   Z-0.150F90.0
G1 X31.151 Y22.865 F120.0
G1 X31.091 Y22.918 
G1 X30.128  
G1 X29.392 Y22.189 
G1  Y21.400 
G1 X29.390 Y21.377 
G1 X29.385 Y21.354 
G1 X29.376 Y21.331 
G1 X29.363 Y21.310 
G1 X29.347 Y21.290 
G1 X29.327 Y21.274 
G1 X29.306 Y21.261 
G1 X29.283 Y21.252 
G1 X29.260 Y21.247 
G1 X29.237 Y21.245 
G1 X28.025  
G1 X28.003 Y21.247 
G1 X27.980 Y21.252 
G1 X27.957 Y21.261 
G1 X27.936 Y21.274 
G1 X27.916 Y21.290 
G1 X27.900 Y21.310 
G1 X27.887 Y21.331 
G1 X27.878 Y21.354 
G1 X27.872 Y21.377 
G1 X27.871 Y21.400 
G1  Y22.611 
G1 X27.872 Y22.633 
G1 X27.878 Y22.657 
G1 X27.887 Y22.679 
G1 X27.900 Y22.701 
G1 X27.916 Y22.720 
G1 X27.936 Y22.737 
G1 X27.957 Y22.750 
G1 X27.980 Y22.759 
G1 X28.003 Y22.764 
G1 X28.025 Y22.766 
G1 X28.812  
G1 X29.735 Y23.687 
G1 X29.753 Y23.702 
G1 X29.773 Y23.715 
G1 X29.795 Y23.724 
G1 X29.819 Y23.730 
G1 X29.842 Y23.732 
G1 X31.123 Y23.749 
G1 X31.199 Y23.810 
G1 X31.343 Y23.898 
G1 X31.512 Y23.943 
G1 X31.686 Y23.935 
G1 X31.856 Y23.878 
G1 X32.003 Y23.785 
G1 X32.112 Y23.658 
G1 X32.174 Y23.502 
G1 X32.192 Y23.325 
G1 X32.172 Y23.148 
G1 X32.106 Y22.990 
G1 X31.991 Y22.861 
G1 X31.839 Y22.765 
G1 X31.650 Y22.693 
G1 X31.448 Y22.720 
G1 X31.285 Y22.781 
G0   Z1.000
G0 X26.377 Y30.292 
G1   Z-0.150F90.0
G1 X26.400 Y30.314 F120.0
G1 X26.419 Y30.348 
G1 X26.422 Y30.373 
G1 X26.416 Y30.397 
G1 X26.401 Y30.420 
G1 X26.380 Y30.436 
G1 X26.358 Y30.443 
G1 X26.335 Y30.442 
G1 X26.301 Y30.426 
G1 X26.278 Y30.403 
G1 X26.268 Y30.382 
G1 X26.267 Y30.361 
G1 X26.273 Y30.337 
G1 X26.288 Y30.315 
G1 X26.309 Y30.298 
G1 X26.337 Y30.288 
G1 X26.368 Y30.288 
G1 X26.377 Y30.292 
G0   Z1.000
G0 X28.563 Y27.197 
G1   Z-0.150F90.0
G1 X28.522 Y27.165 F120.0
G1 X28.490 Y27.113 
G1 X28.483 Y27.081 
G1 X28.489 Y27.034 
G1 X28.508 Y26.987 
G1 X28.531 Y26.958 
G1 X28.557 Y26.943 
G1 X28.611 Y26.932 
G1 X28.670 Y26.934 
G1 X28.710 Y26.947 
G1 X28.740 Y26.969 
G1 X28.751 Y26.982 
G1 X28.759 Y27.010 
G1 X28.764 Y27.076 
G1 X28.753 Y27.138 
G1 X28.731 Y27.174 
G1 X28.699 Y27.199 
G1 X28.656 Y27.212 
G1 X28.608 Y27.212 
G1 X28.563 Y27.197 
G0   Z1.000
G0 X28.209 Y27.701 
G1   Z-0.150F90.0
G1 X28.217 Y27.804 F120.0
G1 X28.217 Y27.916 
G1 X26.386 Y29.744 
G1 X26.331 Y29.746 
G1 X26.191 Y29.768 
G1 X26.050 Y29.825 
G1 X25.925 Y29.910 
G1 X25.823 Y30.024 
G1 X25.756 Y30.181 
G1 X25.732 Y30.357 
G1 X25.749 Y30.533 
G1 X25.811 Y30.693 
G1 X25.924 Y30.826 
G1 X26.066 Y30.919 
G1 X26.228 Y30.972 
G1 X26.401 Y30.980 
G1 X26.614 Y30.927 
G1 X26.788 Y30.806 
G1 X26.906 Y30.628 
G1 X26.962 Y30.419 
G1 X26.979 Y30.295 
G1 X29.000 Y28.281 
G1 X29.013 Y28.266 
G1 X29.025 Y28.249 
G1 X29.034 Y28.231 
G1 X29.041 Y28.211 
G1 X29.044 Y28.191 
G1 X29.046 Y28.171 
G1  Y27.897 
G1 X29.047 Y27.747 
G1 X29.055 Y27.694 
G1 X29.062 Y27.681 
G1 X29.113 Y27.634 
G1 X29.211 Y27.540 
G1 X29.289 Y27.433 
G1 X29.343 Y27.311 
G1 X29.375 Y27.171 
G1 X29.382 Y27.014 
G1 X29.353 Y26.857 
G1 X29.288 Y26.708 
G1 X29.193 Y26.577 
G1 X29.071 Y26.463 
G1 X28.937 Y26.381 
G1 X28.787 Y26.335 
G1 X28.623 Y26.321 
G1 X28.438 Y26.341 
G1 X28.266 Y26.406 
G1 X28.122 Y26.511 
G1 X28.004 Y26.638 
G1 X27.942 Y26.734 
G1 X27.902 Y26.835 
G1 X27.885 Y27.065 
G1 X27.902 Y27.300 
G1 X27.990 Y27.481 
G1 X28.093 Y27.607 
G1 X28.194 Y27.692 
G1 X28.209 Y27.701 
G0   Z1.000
G0 X29.674 Y30.306 
G1   Z-0.150F90.0
G1 X29.686 Y30.299 F120.0
G1 X29.722 Y30.296 
G1 X29.763 Y30.305 
G1 X29.783 Y30.317 
G1 X29.796 Y30.338 
G1 X29.802 Y30.369 
G1 X29.799 Y30.388 
G1 X29.789 Y30.407 
G1 X29.772 Y30.425 
G1 X29.750 Y30.438 
G1 X29.726 Y30.445 
G1 X29.706 Y30.445 
G1 X29.692 Y30.440 
G1 X29.676 Y30.428 
G1 X29.644 Y30.382 
G1 X29.639 Y30.362 
G1 X29.645 Y30.343 
G1 X29.674 Y30.306 
G0   Z1.000
G0 X31.539 Y30.312 
G1   Z-0.150F90.0
G1 X31.542 Y30.291 F120.0
G1 X31.549 Y30.281 
G1 X31.568 Y30.267 
G1 X31.590 Y30.261 
G1 X31.595 Y30.261 
G1 X31.601 Y30.265 
G1 X31.620 Y30.290 
G1 X31.625 Y30.306 
G1 X31.619 Y30.327 
G1 X31.605 Y30.348 
G1 X31.599 Y30.351 
G1 X31.588 Y30.353 
G1 X31.571 Y30.349 
G1 X31.553 Y30.338 
G1 X31.543 Y30.325 
G1 X31.539 Y30.312 
G0   Z1.000
G0 X31.122 Y29.898 
G1   Z-0.150F90.0
G1 X30.147  F120.0
G1 X30.103 Y29.867 
G1 X29.948 Y29.784 
G1 X29.777 Y29.745 
G1 X29.609 Y29.751 
G1 X29.451 Y29.802 
G1 X29.314 Y29.893 
G1 X29.205 Y30.021 
G1 X29.135 Y30.180 
G1 X29.111 Y30.360 
G1 X29.130 Y30.535 
G1 X29.192 Y30.691 
G1 X29.298 Y30.819 
G1 X29.441 Y30.913 
G1 X29.645 Y30.978 
G1 X29.850 Y30.975 
G1 X30.041 Y30.901 
G1 X30.191 Y30.772 
G1 X30.229 Y30.727 
G1 X31.122  
G1 X31.138 Y30.745 
G1 X31.240 Y30.832 
G1 X31.367 Y30.892 
G1 X31.503 Y30.922 
G1 X31.640 Y30.922 
G1 X31.775 Y30.895 
G1 X31.902 Y30.840 
G1 X32.016 Y30.757 
G1 X32.111 Y30.642 
G1 X32.169 Y30.494 
G1 X32.192 Y30.330 
G1 X32.181 Y30.164 
G1 X32.133 Y30.010 
G1 X32.035 Y29.877 
G1 X31.905 Y29.779 
G1 X31.753 Y29.717 
G1 X31.590 Y29.697 
G1 X31.326 Y29.731 
G1 X31.155 Y29.863 
G1 X31.122 Y29.898 
G0   Z1.000
G0 X33.084 Y30.724 
G1   Z-0.150F90.0
G1 X33.135 Y30.593 F120.0
G1 X33.203 Y30.484 
G1 X33.287 Y30.387 
G1 X33.382 Y30.307 
G1 X33.482 Y30.247 
G1 X33.604 Y30.209 
G1 X33.775 Y30.187 
G1 X33.941 Y30.187 
G1 X34.051 Y30.209 
G1 X34.196 Y30.278 
G1 X34.274 Y30.335 
G1 X34.362 Y30.425 
G1 X34.444 Y30.531 
G1 X34.501 Y30.630 
G1 X34.540 Y30.761 
G1 X34.553 Y30.920 
G1 X34.538 Y31.082 
G1 X34.497 Y31.217 
G1 X34.436 Y31.322 
G1 X34.345 Y31.433 
G1 X34.242 Y31.530 
G1 X34.139 Y31.600 
G1 X34.095 Y31.621 
G1 X34.046 Y31.633 
G1 X33.812 Y31.643 
G1 X33.622 Y31.635 
G1 X33.500 Y31.607 
G1 X33.402 Y31.553 
G1 X33.285 Y31.450 
G1 X33.181 Y31.329 
G1 X33.118 Y31.215 
G1 X33.084 Y31.086 
G1 X33.072 Y30.918 
G1 X33.084 Y30.724 
G0   Z1.000
G0 X32.637 Y30.541 
G1   Z-0.150F90.0
G1 X32.582 Y30.789 F120.0
G1 X32.580 Y31.042 
G1 X32.631 Y31.292 
G1 X32.737 Y31.531 
G1 X32.897 Y31.749 
G1 X33.090 Y31.924 
G1 X33.309 Y32.049 
G1 X33.555 Y32.122 
G1 X33.824 Y32.145 
G1 X34.088 Y32.125 
G1 X34.337 Y32.027 
G1 X34.474 Y31.951 
G1 X34.596 Y31.862 
G1 X34.704 Y31.761 
G1 X34.801 Y31.646 
G1 X34.942 Y31.403 
G1 X35.023 Y31.133 
G1 X35.040 Y30.852 
G1 X34.991 Y30.576 
G1 X34.940 Y30.435 
G1 X34.873 Y30.303 
G1 X34.789 Y30.178 
G1 X34.686 Y30.059 
G1 X34.508 Y29.904 
G1 X34.312 Y29.793 
G1 X34.093 Y29.728 
G1 X33.846 Y29.703 
G1 X33.573 Y29.710 
G1 X33.357 Y29.775 
G1 X33.109 Y29.898 
G1 X32.900 Y30.091 
G1 X32.743 Y30.306 
G1 X32.637 Y30.541 
G0   Z1.000
G0 X23.913 Y30.438 
G1   Z-0.150F90.0
G1 X23.913 Y30.466 F120.0
G1 X23.904 Y30.488 
G1 X23.880 Y30.519 
G1 X23.831 Y30.554 
G1 X23.798 Y30.561 
G1 X23.764 Y30.554 
G1 X23.718 Y30.521 
G1 X23.684 Y30.475 
G1 X23.679 Y30.450 
G1 X23.687 Y30.424 
G1 X23.732 Y30.372 
G1 X23.777 Y30.338 
G1 X23.799 Y30.331 
G1 X23.816 Y30.332 
G1 X23.856 Y30.349 
G1 X23.886 Y30.373 
G1 X23.902 Y30.396 
G1 X23.913 Y30.438 
G0   Z1.000
G0 X26.836 Y27.172 
G1   Z-0.150F90.0
G1 X26.805 Y27.132 F120.0
G1 X26.797 Y27.076 
G1 X26.802 Y27.031 
G1 X26.816 Y26.994 
G1 X26.835 Y26.965 
G1 X26.859 Y26.944 
G1 X26.886 Y26.930 
G1 X26.919 Y26.923 
G1 X26.956 Y26.924 
G1 X26.989 Y26.933 
G1 X27.051 Y26.979 
G1 X27.064 Y27.004 
G1 X27.073 Y27.072 
G1 X27.066 Y27.130 
G1 X27.034 Y27.169 
G1 X26.977 Y27.206 
G1 X26.931 Y27.216 
G1 X26.888 Y27.207 
G1 X26.836 Y27.172 
G0   Z1.000
G0 X26.255 Y27.407 
G1   Z-0.150F90.0
G1 X23.870 Y29.791 F120.0
G1 X23.828 Y29.788 
G1 X23.705 Y29.797 
G1 X23.573 Y29.834 
G1 X23.448 Y29.894 
G1 X23.335 Y29.976 
G1 X23.253 Y30.086 
G1 X23.186 Y30.222 
G1 X23.143 Y30.421 
G1 X23.164 Y30.617 
G1 X23.241 Y30.790 
G1 X23.361 Y30.932 
G1 X23.517 Y31.035 
G1 X23.698 Y31.092 
G1 X23.895 Y31.093 
G1 X24.093 Y31.031 
G1 X24.238 Y30.936 
G1 X24.346 Y30.808 
G1 X24.416 Y30.653 
G1 X24.448 Y30.483 
G1 X24.459 Y30.360 
G1 X27.009 Y27.813 
G1 X27.046 Y27.813 
G1 X27.183 Y27.786 
G1 X27.324 Y27.716 
G1 X27.452 Y27.617 
G1 X27.556 Y27.497 
G1 X27.617 Y27.402 
G1 X27.658 Y27.300 
G1 X27.675 Y27.068 
G1 X27.658 Y26.828 
G1 X27.562 Y26.644 
G1 X27.439 Y26.507 
G1 X27.290 Y26.405 
G1 X27.122 Y26.343 
G1 X26.946 Y26.324 
G1 X26.691 Y26.350 
G1 X26.564 Y26.411 
G1 X26.449 Y26.500 
G1 X26.347 Y26.608 
G1 X26.264 Y26.732 
G1 X26.207 Y26.894 
G1 X26.186 Y27.071 
G1 X26.200 Y27.247 
G1 X26.246 Y27.387 
G1 X26.255 Y27.407 
G0   Z1.000
G0 X5.958 Y30.845 
G1   Z-0.150F90.0
G1 X5.956 Y31.004 F120.0
G1 X5.920 Y31.161 
G1 X5.850 Y31.311 
G1 X5.742 Y31.450 
G1 X5.631 Y31.549 
G1 X5.531 Y31.605 
G1 X5.404 Y31.634 
G1 X5.212 Y31.643 
G1 X4.986 Y31.633 
G1 X4.878 Y31.594 
G1 X4.785 Y31.533 
G1 X4.700 Y31.460 
G1 X4.628 Y31.380 
G1 X4.571 Y31.293 
G1 X4.526 Y31.202 
G1 X4.494 Y31.107 
G1 X4.476 Y31.010 
G1 X4.470 Y30.912 
G1 X4.478 Y30.814 
G1 X4.498 Y30.717 
G1 X4.531 Y30.624 
G1 X4.577 Y30.535 
G1 X4.636 Y30.451 
G1 X4.708 Y30.374 
G1 X4.794 Y30.304 
G1 X4.890 Y30.246 
G1 X5.008 Y30.204 
G1 X5.189 Y30.187 
G1 X5.360 Y30.190 
G1 X5.450 Y30.202 
G1 X5.636 Y30.303 
G1 X5.765 Y30.413 
G1 X5.861 Y30.543 
G1 X5.926 Y30.689 
G1 X5.958 Y30.845 
G0   Z1.000
G0 X6.435 Y30.918 
G1   Z-0.150F90.0
G1 X6.420 Y30.634 F120.0
G1 X6.345 Y30.416 
G1 X6.242 Y30.236 
G1 X6.112 Y30.077 
G1 X5.959 Y29.940 
G1 X5.787 Y29.830 
G1 X5.665 Y29.769 
G1 X5.546 Y29.730 
G1 X5.261 Y29.704 
G1 X4.978 Y29.709 
G1 X4.762 Y29.773 
G1 X4.539 Y29.888 
G1 X4.356 Y30.033 
G1 X4.206 Y30.217 
G1 X4.082 Y30.444 
G1 X4.010 Y30.657 
G1 X3.995 Y30.920 
G1 X4.012 Y31.190 
G1 X4.095 Y31.419 
G1 X4.188 Y31.591 
G1 X4.294 Y31.739 
G1 X4.416 Y31.863 
G1 X4.555 Y31.961 
G1 X4.807 Y32.078 
G1 X5.067 Y32.139 
G1 X5.326 Y32.144 
G1 X5.577 Y32.097 
G1 X5.812 Y31.998 
G1 X6.023 Y31.851 
G1 X6.203 Y31.657 
G1 X6.345 Y31.420 
G1 X6.420 Y31.202 
G1 X6.435 Y30.918 
G0   Z1.000
G0 X2.784 Y32.668 
G1   Z-0.150F90.0
G1 X2.798 Y2.560 F120.0
G1 X35.576 Y2.545 
G1  Y32.668 
G1 X2.784  
G0   Z1.000
G0 X2.302 Y32.933 
G1   Z-0.150F90.0
G1 X2.347 Y33.051 F120.0
G1 X2.357 Y33.071 
G1 X2.369 Y33.090 
G1 X2.385 Y33.108 
G1 X2.404 Y33.123 
G1 X2.425 Y33.135 
G1 X2.447 Y33.143 
G1 X2.469 Y33.148 
G1 X2.491 Y33.150 
G1 X35.869  
G1 X35.891 Y33.148 
G1 X35.914 Y33.143 
G1 X35.936 Y33.135 
G1 X35.956 Y33.123 
G1 X35.975 Y33.108 
G1 X35.991 Y33.090 
G1 X36.004 Y33.071 
G1 X36.013 Y33.051 
G1 X36.058 Y32.933 
G1  Y2.309 
G1 X36.013 Y2.191 
G1 X36.004 Y2.171 
G1 X35.991 Y2.152 
G1 X35.975 Y2.134 
G1 X35.956 Y2.119 
G1 X35.936 Y2.107 
G1 X35.914 Y2.099 
G1 X35.891 Y2.094 
G1 X35.869 Y2.092 
G1 X2.491  
G1 X2.469 Y2.094 
G1 X2.447 Y2.099 
G1 X2.425 Y2.107 
G1 X2.404 Y2.119 
G1 X2.385 Y2.134 
G1 X2.369 Y2.152 
G1 X2.357 Y2.171 
G1 X2.347 Y2.191 
G1 X2.302 Y2.309 
G1  Y32.933 
G0   Z1.000
M92
;%
