;START
;%
;(VECTRIC POST REVISION)
;(2913AB479EA3000D32B9C42F7F010597)
;O0001
;G17 G90 G21 G40 G80
;G08 P1
;T0
;(TOOL#1)
;T1
;M11
;G0 G90 X0.000 Y0.000 M13 S12000
;G0 G43 Z20.000 H1
G0 X1.142 Y1.131 
G0   Z1.000
G1   Z-0.100F180.0
G1 X1.325 Y0.975 
G1 X1.533 Y0.853 
G1 X1.811 Y0.741 
G1 X2.060 Y0.686 
G1 X2.300 Y0.682 
G1 X2.556 Y0.730 
G1 X2.746 Y0.792 
G1 X2.916 Y0.865 
G1 X3.101 Y0.979 
G1 X3.265 Y1.120 
G1 X3.408 Y1.286 
G1 X3.526 Y1.471 
G1 X3.617 Y1.672 
G1 X3.680 Y1.885 
G1 X3.711 Y2.106 
G1 X3.709 Y2.332 
G1 X3.689 Y2.482 
G1 X3.656 Y2.625 
G1 X3.547 Y2.897 
G1 X3.393 Y3.138 
G1 X3.197 Y3.344 
G1 X2.968 Y3.508 
G1 X2.708 Y3.628 
G1 X2.573 Y3.667 
G1 X2.431 Y3.693 
G1 X2.285 Y3.706 
G1 X2.137 Y3.703 
G1 X1.870 Y3.664 
G1 X1.624 Y3.587 
G1 X1.402 Y3.474 
G1 X1.206 Y3.328 
G1 X1.037 Y3.151 
G1 X0.898 Y2.944 
G1 X0.791 Y2.710 
G1 X0.719 Y2.451 
G1 X0.694 Y2.214 
G1 X0.712 Y1.977 
G1 X0.768 Y1.743 
G1 X0.860 Y1.521 
G1 X0.986 Y1.314 
G1 X1.142 Y1.131 
G0   Z1.000
G0 X2.215 Y34.212 
G1   Z-0.100F180.0
G1 X2.305 Y34.213 
G1 X2.390 Y34.235 
G1 X2.469 Y34.281 
G1 X2.549 Y34.361 
G1 X2.614 Y34.454 
G1 X2.649 Y34.545 
G1 X2.663 Y34.617 
G1 X2.654 Y34.677 
G1 X2.629 Y34.742 
G1 X2.527 Y34.883 
G1 X2.465 Y34.937 
G1 X2.397 Y34.981 
G1 X2.330 Y35.007 
G1 X2.270 Y35.016 
G1 X2.177 Y35.004 
G1 X2.088 Y34.968 
G1 X2.007 Y34.912 
G1 X1.938 Y34.840 
G1 X1.885 Y34.757 
G1 X1.853 Y34.669 
G1 X1.844 Y34.581 
G1 X1.858 Y34.496 
G1 X1.900 Y34.407 
G1 X1.961 Y34.332 
G1 X2.037 Y34.273 
G1 X2.124 Y34.233 
G1 X2.215 Y34.212 
G0   Z1.000
G0 X2.231 Y33.633 
G1   Z-0.100F180.0
G1 X2.025 Y33.659 
G1 X1.829 Y33.726 
G1 X1.690 Y33.809 
G1 X1.572 Y33.906 
G1 X1.474 Y34.015 
G1 X1.396 Y34.135 
G1 X1.338 Y34.264 
G1 X1.301 Y34.397 
G1 X1.283 Y34.534 
G1 X1.284 Y34.671 
G1 X1.305 Y34.808 
G1 X1.344 Y34.940 
G1 X1.403 Y35.067 
G1 X1.480 Y35.186 
G1 X1.576 Y35.294 
G1 X1.690 Y35.389 
G1 X1.822 Y35.469 
G1 X1.971 Y35.531 
G1 X2.176 Y35.578 
G1 X2.376 Y35.576 
G1 X2.572 Y35.524 
G1 X2.767 Y35.423 
G1 X2.907 Y35.317 
G1 X3.020 Y35.197 
G1 X3.106 Y35.064 
G1 X3.168 Y34.922 
G1 X3.204 Y34.775 
G1 X3.217 Y34.626 
G1 X3.206 Y34.477 
G1 X3.174 Y34.332 
G1 X3.121 Y34.192 
G1 X3.048 Y34.062 
G1 X2.955 Y33.943 
G1 X2.844 Y33.840 
G1 X2.714 Y33.753 
G1 X2.569 Y33.688 
G1 X2.408 Y33.647 
G1 X2.231 Y33.633 
G0   Z1.000
G0 X4.390 Y34.460 
G1   Z-0.100F180.0
G1 X4.447 Y34.372 
G1 X4.517 Y34.302 
G1 X4.595 Y34.251 
G1 X4.678 Y34.220 
G1 X4.764 Y34.209 
G1 X4.849 Y34.217 
G1 X4.932 Y34.247 
G1 X5.008 Y34.297 
G1 X5.094 Y34.398 
G1 X5.152 Y34.515 
G1 X5.166 Y34.615 
G1 X5.150 Y34.712 
G1 X5.107 Y34.803 
G1 X5.040 Y34.883 
G1 X4.956 Y34.946 
G1 X4.859 Y34.986 
G1 X4.756 Y35.000 
G1 X4.647 Y34.984 
G1 X4.568 Y34.951 
G1 X4.498 Y34.900 
G1 X4.440 Y34.837 
G1 X4.396 Y34.765 
G1 X4.368 Y34.688 
G1 X4.357 Y34.609 
G1 X4.364 Y34.533 
G1 X4.390 Y34.460 
G0   Z1.000
G0 X8.340 Y37.855 
G1   Z-0.100F180.0
G1 X8.401 Y37.787 
G1 X8.465 Y37.732 
G1 X8.527 Y37.695 
G1 X8.587 Y37.673 
G1 X8.646 Y37.666 
G1 X8.706 Y37.673 
G1 X8.768 Y37.694 
G1 X8.834 Y37.731 
G1 X8.903 Y37.786 
G1 X8.968 Y37.851 
G1 X9.002 Y37.901 
G1 X9.019 Y37.952 
G1 X9.025 Y38.025 
G1 X9.017 Y38.121 
G1 X8.988 Y38.204 
G1 X8.942 Y38.276 
G1 X8.881 Y38.335 
G1 X8.808 Y38.378 
G1 X8.724 Y38.404 
G1 X8.633 Y38.410 
G1 X8.538 Y38.395 
G1 X8.429 Y38.347 
G1 X8.354 Y38.274 
G1 X8.307 Y38.175 
G1 X8.289 Y38.042 
G1 X8.294 Y37.961 
G1 X8.308 Y37.906 
G1 X8.340 Y37.855 
G0   Z1.000
G0 X7.942 Y37.547 
G1   Z-0.100F180.0
G1 X7.858 Y37.679 
G1 X7.809 Y37.795 
G1 X7.793 Y37.922 
G1 X7.798 Y38.085 
G1 X7.811 Y38.233 
G1 X7.836 Y38.352 
G1 X7.880 Y38.455 
G1 X7.947 Y38.554 
G1 X8.084 Y38.703 
G1 X8.240 Y38.816 
G1 X8.409 Y38.890 
G1 X8.586 Y38.923 
G1 X8.765 Y38.916 
G1 X8.942 Y38.868 
G1 X9.111 Y38.779 
G1 X9.267 Y38.651 
G1 X9.401 Y38.484 
G1 X9.493 Y38.301 
G1 X9.537 Y38.110 
G1 X9.527 Y37.925 
G1 X9.482 Y37.776 
G1 X9.416 Y37.628 
G1 X9.340 Y37.497 
G1 X9.270 Y37.413 
G1 X9.251 Y37.388 
G1 X9.239 Y37.351 
G1 X9.224 Y37.158 
G1 X9.206 Y36.935 
G1 X9.178 Y36.841 
G1 X9.139 Y36.768 
G1 X9.059 Y36.656 
G1 X8.232 Y35.834 
G1 X8.010 Y35.750 
G1 X6.740  
G1 X5.725 Y34.762 
G1 X5.725 Y34.579 
G1 X5.706 Y34.390 
G1 X5.650 Y34.211 
G1 X5.560 Y34.049 
G1 X5.442 Y33.908 
G1 X5.298 Y33.793 
G1 X5.133 Y33.706 
G1 X4.951 Y33.652 
G1 X4.755 Y33.634 
G1 X4.567 Y33.653 
G1 X4.406 Y33.695 
G1 X4.250 Y33.783 
G1 X4.106 Y33.898 
G1 X3.983 Y34.033 
G1 X3.888 Y34.180 
G1 X3.844 Y34.291 
G1 X3.815 Y34.413 
G1 X3.804 Y34.667 
G1 X3.848 Y34.918 
G1 X3.892 Y35.038 
G1 X3.950 Y35.145 
G1 X4.095 Y35.314 
G1 X4.278 Y35.446 
G1 X4.490 Y35.535 
G1 X4.717 Y35.577 
G1 X4.924 Y35.592 
G1 X6.240 Y36.900 
G1 X7.656  
G1 X8.074 Y37.313 
G1 X8.042 Y37.385 
G1 X7.942 Y37.547 
G0   Z1.000
G0 X6.505 Y37.962 
G1   Z-0.100F180.0
G1 X6.509 Y38.045 
G1 X6.498 Y38.142 
G1 X6.469 Y38.223 
G1 X6.423 Y38.291 
G1 X6.364 Y38.346 
G1 X6.292 Y38.385 
G1 X6.211 Y38.407 
G1 X6.121 Y38.411 
G1 X6.025 Y38.393 
G1 X5.918 Y38.342 
G1 X5.840 Y38.269 
G1 X5.790 Y38.180 
G1 X5.766 Y38.080 
G1 X5.772 Y37.978 
G1 X5.806 Y37.881 
G1 X5.869 Y37.794 
G1 X5.966 Y37.725 
G1 X6.081 Y37.681 
G1 X6.180 Y37.678 
G1 X6.277 Y37.712 
G1 X6.387 Y37.792 
G1 X6.456 Y37.861 
G1 X6.490 Y37.910 
G1 X6.505 Y37.962 
G0   Z1.000
G0 X6.971 Y37.773 
G1   Z-0.100F180.0
G1 X6.906 Y37.632 
G1 X6.818 Y37.505 
G1 X6.710 Y37.394 
G1 X6.586 Y37.303 
G1 X6.448 Y37.235 
G1 X6.301 Y37.192 
G1 X6.148 Y37.179 
G1 X5.983 Y37.194 
G1 X5.833 Y37.228 
G1 X5.691 Y37.304 
G1 X5.551 Y37.413 
G1 X5.443 Y37.533 
G1 X5.361 Y37.663 
G1 X5.306 Y37.798 
G1 X5.276 Y37.936 
G1 X5.269 Y38.075 
G1 X5.284 Y38.211 
G1 X5.320 Y38.342 
G1 X5.376 Y38.465 
G1 X5.449 Y38.579 
G1 X5.540 Y38.680 
G1 X5.646 Y38.767 
G1 X5.766 Y38.837 
G1 X5.898 Y38.887 
G1 X6.042 Y38.914 
G1 X6.195 Y38.916 
G1 X6.356 Y38.891 
G1 X6.506 Y38.838 
G1 X6.643 Y38.757 
G1 X6.763 Y38.653 
G1 X6.863 Y38.530 
G1 X6.940 Y38.391 
G1 X6.993 Y38.242 
G1 X7.017 Y38.085 
G1 X7.010 Y37.925 
G1 X6.971 Y37.773 
G0   Z1.000
G0 X6.279 Y40.216 
G1   Z-0.100F180.0
G1 X6.329 Y40.242 
G1 X6.383 Y40.287 
G1 X6.466 Y40.394 
G1 X6.511 Y40.509 
G1 X6.517 Y40.588 
G1 X6.505 Y40.664 
G1 X6.475 Y40.733 
G1 X6.430 Y40.793 
G1 X6.371 Y40.844 
G1 X6.297 Y40.884 
G1 X6.211 Y40.910 
G1 X6.112 Y40.919 
G1 X6.046 Y40.914 
G1 X6.001 Y40.900 
G1 X5.877 Y40.804 
G1 X5.818 Y40.739 
G1 X5.786 Y40.688 
G1 X5.771 Y40.635 
G1 X5.767 Y40.559 
G1 X5.771 Y40.482 
G1 X5.786 Y40.429 
G1 X5.818 Y40.378 
G1 X5.880 Y40.310 
G1 X5.948 Y40.248 
G1 X5.999 Y40.217 
G1 X6.054 Y40.202 
G1 X6.139 Y40.197 
G1 X6.222 Y40.202 
G1 X6.279 Y40.216 
G0   Z1.000
G0 X6.982 Y39.658 
G1   Z-0.100F180.0
G1 X5.273  
G1 X5.261 Y39.659 
G1 X5.248 Y39.662 
G1 X5.235 Y39.667 
G1 X5.223 Y39.674 
G1 X5.212 Y39.683 
G1 X5.203 Y39.694 
G1 X5.196 Y39.706 
G1 X5.190 Y39.719 
G1 X5.188 Y39.732 
G1 X5.187 Y39.744 
G1  Y41.373 
G1 X5.188 Y41.385 
G1 X5.190 Y41.398 
G1 X5.196 Y41.411 
G1 X5.203 Y41.423 
G1 X5.212 Y41.434 
G1 X5.223 Y41.443 
G1 X5.235 Y41.450 
G1 X5.248 Y41.455 
G1 X5.261 Y41.458 
G1 X5.273 Y41.459 
G1 X6.982  
G1 X6.995 Y41.458 
G1 X7.007 Y41.455 
G1 X7.020 Y41.450 
G1 X7.032 Y41.443 
G1 X7.043 Y41.434 
G1 X7.052 Y41.423 
G1 X7.060 Y41.411 
G1 X7.065 Y41.398 
G1 X7.067 Y41.385 
G1 X7.068 Y41.373 
G1  Y39.744 
G1 X7.067 Y39.732 
G1 X7.065 Y39.719 
G1 X7.060 Y39.706 
G1 X7.052 Y39.694 
G1 X7.043 Y39.683 
G1 X7.032 Y39.674 
G1 X7.020 Y39.667 
G1 X7.007 Y39.662 
G1 X6.995 Y39.659 
G1 X6.982 Y39.658 
G0   Z1.000
G0 X8.309 Y40.429 
G1   Z-0.100F180.0
G1 X8.341 Y40.378 
G1 X8.402 Y40.310 
G1 X8.471 Y40.248 
G1 X8.522 Y40.217 
G1 X8.577 Y40.202 
G1 X8.662 Y40.197 
G1 X8.744 Y40.202 
G1 X8.802 Y40.216 
G1 X8.851 Y40.241 
G1 X8.904 Y40.285 
G1 X8.986 Y40.388 
G1 X9.030 Y40.487 
G1 X9.031 Y40.591 
G1 X8.994 Y40.710 
G1 X8.929 Y40.814 
G1 X8.853 Y40.877 
G1 X8.759 Y40.905 
G1 X8.634 Y40.919 
G1 X8.569 Y40.914 
G1 X8.524 Y40.900 
G1 X8.400 Y40.804 
G1 X8.341 Y40.739 
G1 X8.309 Y40.688 
G1 X8.294 Y40.635 
G1 X8.289 Y40.559 
G1 X8.294 Y40.482 
G1 X8.309 Y40.429 
G0   Z1.000
G0 X7.838 Y40.256 
G1   Z-0.100F180.0
G1 X7.802 Y40.402 
G1 X7.790 Y40.560 
G1 X7.813 Y40.765 
G1 X7.880 Y40.955 
G1 X7.988 Y41.124 
G1 X8.134 Y41.265 
G1 X8.238 Y41.335 
G1 X8.346 Y41.378 
G1 X8.648 Y41.398 
G1 X8.827 Y41.394 
G1 X8.956 Y41.377 
G1 X9.061 Y41.337 
G1 X9.161 Y41.269 
G1 X9.292 Y41.150 
G1 X9.397 Y41.014 
G1 X9.474 Y40.868 
G1 X9.521 Y40.713 
G1 X9.537 Y40.554 
G1 X9.521 Y40.395 
G1 X9.472 Y40.240 
G1 X9.390 Y40.094 
G1 X9.264 Y39.950 
G1 X9.111 Y39.830 
G1 X8.942 Y39.741 
G1 X8.766 Y39.690 
G1 X8.627 Y39.683 
G1 X8.490 Y39.699 
G1 X8.335 Y39.747 
G1 X8.198 Y39.813 
G1 X8.078 Y39.899 
G1 X7.977 Y40.002 
G1 X7.896 Y40.122 
G1 X7.838 Y40.256 
G0   Z1.000
G0 X10.816 Y40.455 
G1   Z-0.100F180.0
G1 X10.829 Y40.398 
G1 X10.856 Y40.354 
G1 X10.914 Y40.295 
G1 X11.009 Y40.220 
G1 X11.063 Y40.194 
G1 X11.147 Y40.179 
G1 X11.196 Y40.179 
G1 X11.262 Y40.196 
G1 X11.351 Y40.247 
G1 X11.446 Y40.324 
G1 X11.500 Y40.395 
G1 X11.530 Y40.475 
G1 X11.537 Y40.565 
G1 X11.524 Y40.656 
G1 X11.489 Y40.742 
G1 X11.438 Y40.816 
G1 X11.371 Y40.872 
G1 X11.290 Y40.906 
G1 X11.177 Y40.918 
G1 X11.058 Y40.901 
G1 X10.955 Y40.861 
G1 X10.880 Y40.803 
G1 X10.849 Y40.760 
G1 X10.830 Y40.714 
G1 X10.812 Y40.551 
G1 X10.816 Y40.455 
G0   Z1.000
G0 X10.322 Y40.365 
G1   Z-0.100F180.0
G1 X10.302 Y40.509 
G1 X10.306 Y40.652 
G1 X10.333 Y40.790 
G1 X10.381 Y40.922 
G1 X10.449 Y41.045 
G1 X10.537 Y41.156 
G1 X10.643 Y41.254 
G1 X10.767 Y41.335 
G1 X10.871 Y41.379 
G1 X10.989 Y41.407 
G1 X11.235 Y41.416 
G1 X11.477 Y41.370 
G1 X11.591 Y41.325 
G1 X11.688 Y41.266 
G1 X11.803 Y41.160 
G1 X11.897 Y41.038 
G1 X11.968 Y40.903 
G1 X12.015 Y40.760 
G1 X12.038 Y40.611 
G1 X12.036 Y40.461 
G1 X12.007 Y40.313 
G1 X11.951 Y40.170 
G1 X11.831 Y39.987 
G1 X11.675 Y39.845 
G1 X11.487 Y39.745 
G1 X11.267 Y39.688 
G1 X11.120 Y39.681 
G1 X10.987 Y39.698 
G1 X10.744 Y39.802 
G1 X10.552 Y39.948 
G1 X10.472 Y40.040 
G1 X10.407 Y40.139 
G1 X10.357 Y40.248 
G1 X10.322 Y40.365 
G0   Z1.000
G0 X11.005 Y38.377 
G1   Z-0.100F180.0
G1 X10.940 Y38.339 
G1 X10.888 Y38.288 
G1 X10.847 Y38.222 
G1 X10.821 Y38.141 
G1 X10.812 Y38.044 
G1 X10.816 Y37.961 
G1 X10.831 Y37.906 
G1 X10.863 Y37.855 
G1 X10.925 Y37.786 
G1 X10.992 Y37.725 
G1 X11.044 Y37.693 
G1 X11.096 Y37.678 
G1 X11.173 Y37.673 
G1 X11.250 Y37.678 
G1 X11.302 Y37.693 
G1 X11.353 Y37.725 
G1 X11.421 Y37.786 
G1 X11.483 Y37.855 
G1 X11.514 Y37.906 
G1 X11.529 Y37.960 
G1 X11.533 Y38.037 
G1 X11.514 Y38.170 
G1 X11.462 Y38.274 
G1 X11.382 Y38.348 
G1 X11.273 Y38.393 
G1 X11.174 Y38.406 
G1 X11.083 Y38.400 
G1 X11.005 Y38.377 
G0   Z1.000
G0 X10.732 Y38.790 
G1   Z-0.100F180.0
G1 X10.950 Y38.893 
G1 X11.064 Y38.924 
G1 X11.174 Y38.935 
G1 X11.310 Y38.917 
G1 X11.456 Y38.871 
G1 X11.598 Y38.806 
G1 X11.716 Y38.726 
G1 X11.821 Y38.624 
G1 X11.905 Y38.514 
G1 X11.968 Y38.396 
G1 X12.012 Y38.274 
G1 X12.036 Y38.149 
G1 X12.042 Y38.024 
G1 X12.030 Y37.900 
G1 X12.001 Y37.780 
G1 X11.956 Y37.665 
G1 X11.894 Y37.558 
G1 X11.817 Y37.460 
G1 X11.725 Y37.374 
G1 X11.619 Y37.301 
G1 X11.499 Y37.244 
G1 X11.368 Y37.205 
G1 X11.224 Y37.186 
G1 X10.990 Y37.194 
G1 X10.786 Y37.258 
G1 X10.634 Y37.352 
G1 X10.508 Y37.474 
G1 X10.410 Y37.618 
G1 X10.341 Y37.778 
G1 X10.304 Y37.949 
G1 X10.299 Y38.125 
G1 X10.329 Y38.300 
G1 X10.396 Y38.468 
G1 X10.458 Y38.559 
G1 X10.539 Y38.645 
G1 X10.732 Y38.790 
G0   Z1.000
G0 X14.529 Y34.858 
G1   Z-0.100F180.0
G1 X14.478 Y34.781 
G1 X14.445 Y34.690 
G1 X14.433 Y34.585 
G1 X14.438 Y34.502 
G1 X14.452 Y34.446 
G1 X14.484 Y34.395 
G1 X14.546 Y34.326 
G1 X14.615 Y34.263 
G1 X14.666 Y34.232 
G1 X14.723 Y34.218 
G1 X14.811 Y34.213 
G1 X14.899 Y34.218 
G1 X14.959 Y34.233 
G1 X15.016 Y34.266 
G1 X15.092 Y34.330 
G1 X15.164 Y34.401 
G1 X15.197 Y34.450 
G1 X15.212 Y34.502 
G1 X15.216 Y34.585 
G1 X15.198 Y34.724 
G1 X15.147 Y34.831 
G1 X15.066 Y34.913 
G1 X14.949 Y34.972 
G1 X14.851 Y34.992 
G1 X14.758 Y34.988 
G1 X14.671 Y34.963 
G1 X14.594 Y34.919 
G1 X14.529 Y34.858 
G0   Z1.000
G0 X14.072 Y35.204 
G1   Z-0.100F180.0
G1 X14.167 Y35.307 
G1 X14.279 Y35.398 
G1 X14.410 Y35.478 
G1 X14.564 Y35.538 
G1 X14.728 Y35.567 
G1 X14.895 Y35.566 
G1 X15.061 Y35.537 
G1 X15.221 Y35.480 
G1 X15.370 Y35.398 
G1 X15.504 Y35.291 
G1 X15.615 Y35.161 
G1 X15.682 Y35.055 
G1 X15.728 Y34.945 
G1 X15.768 Y34.686 
G1 X15.769 Y34.460 
G1 X15.735 Y34.269 
G1 X15.660 Y34.102 
G1 X15.542 Y33.950 
G1 X15.388 Y33.817 
G1 X15.211 Y33.718 
G1 X15.018 Y33.656 
G1 X14.814 Y33.634 
G1 X14.600 Y33.658 
G1 X14.403 Y33.726 
G1 X14.272 Y33.802 
G1 X14.160 Y33.890 
G1 X14.066 Y33.990 
G1 X13.988 Y34.100 
G1 X13.928 Y34.217 
G1 X13.885 Y34.340 
G1 X13.860 Y34.466 
G1 X13.852 Y34.595 
G1 X13.861 Y34.724 
G1 X13.888 Y34.851 
G1 X13.932 Y34.975 
G1 X13.993 Y35.093 
G1 X14.072 Y35.204 
G0   Z1.000
G0 X10.187 Y34.601 
G1   Z-0.100F180.0
G1 X10.170 Y34.707 
G1 X10.127 Y34.804 
G1 X10.062 Y34.886 
G1 X9.980 Y34.949 
G1 X9.887 Y34.988 
G1 X9.787 Y35.001 
G1 X9.680 Y34.982 
G1 X9.600 Y34.946 
G1 X9.530 Y34.896 
G1 X9.474 Y34.835 
G1 X9.431 Y34.765 
G1 X9.404 Y34.689 
G1 X9.393 Y34.609 
G1 X9.398 Y34.527 
G1 X9.422 Y34.446 
G1 X9.470 Y34.363 
G1 X9.535 Y34.297 
G1 X9.614 Y34.249 
G1 X9.702 Y34.219 
G1 X9.795 Y34.209 
G1 X9.887 Y34.220 
G1 X9.973 Y34.252 
G1 X10.049 Y34.307 
G1 X10.131 Y34.404 
G1 X10.175 Y34.492 
G1 X10.187 Y34.601 
G0   Z1.000
G0 X10.755 Y34.671 
G1   Z-0.100F180.0
G1 X10.757 Y34.529 
G1 X10.739 Y34.387 
G1 X10.699 Y34.246 
G1 X10.637 Y34.110 
G1 X10.552 Y33.982 
G1 X10.445 Y33.865 
G1 X10.364 Y33.790 
G1 X10.361 Y31.967 
G1 X10.295 Y31.847 
G1 X10.208 Y31.737 
G1 X10.087 Y31.645 
G1 X9.949 Y31.582 
G1 X9.812 Y31.560 
G1 X9.678 Y31.575 
G1 X9.550 Y31.608 
G1 X9.430 Y31.688 
G1 X9.325 Y31.807 
G1 X9.215 Y31.968 
G1  Y33.828 
G1 X9.171 Y33.852 
G1 X9.065 Y33.950 
G1 X8.963 Y34.104 
G1 X8.881 Y34.283 
G1 X8.830 Y34.462 
G1 X8.821 Y34.675 
G1 X8.859 Y34.879 
G1 X8.939 Y35.067 
G1 X9.055 Y35.233 
G1 X9.203 Y35.373 
G1 X9.378 Y35.480 
G1 X9.576 Y35.549 
G1 X9.788 Y35.573 
G1 X9.949 Y35.560 
G1 X10.098 Y35.524 
G1 X10.234 Y35.467 
G1 X10.357 Y35.390 
G1 X10.465 Y35.297 
G1 X10.557 Y35.191 
G1 X10.633 Y35.072 
G1 X10.692 Y34.945 
G1 X10.733 Y34.810 
G1 X10.755 Y34.671 
G0   Z1.000
G0 X7.666 Y34.682 
G1   Z-0.100F180.0
G1 X7.658 Y34.737 
G1 X7.632 Y34.782 
G1 X7.565 Y34.854 
G1 X7.445 Y34.952 
G1 X7.351 Y35.000 
G1 X7.253 Y35.004 
G1 X7.137 Y34.969 
G1 X7.025 Y34.901 
G1 X6.938 Y34.807 
G1 X6.901 Y34.740 
G1 X6.880 Y34.671 
G1 X6.874 Y34.605 
G1 X6.881 Y34.543 
G1 X6.933 Y34.417 
G1 X7.023 Y34.313 
G1 X7.141 Y34.240 
G1 X7.278 Y34.209 
G1 X7.341 Y34.211 
G1 X7.408 Y34.227 
G1 X7.474 Y34.258 
G1 X7.540 Y34.307 
G1 X7.593 Y34.361 
G1 X7.623 Y34.407 
G1 X7.659 Y34.578 
G1 X7.666 Y34.682 
G0   Z1.000
G0 X8.217 Y34.826 
G1   Z-0.100F180.0
G1 X8.240 Y34.688 
G1 X8.244 Y34.547 
G1 X8.227 Y34.405 
G1 X8.189 Y34.265 
G1 X8.128 Y34.129 
G1 X8.043 Y34.000 
G1 X7.938 Y33.882 
G1 X7.841 Y33.790 
G1  Y31.985 
G1 X7.767 Y31.840 
G1 X7.683 Y31.728 
G1 X7.564 Y31.637 
G1 X7.425 Y31.578 
G1 X7.280 Y31.559 
G1 X7.158 Y31.573 
G1 X7.048 Y31.602 
G1 X6.944 Y31.669 
G1 X6.840 Y31.764 
G1 X6.713 Y31.900 
G1 X6.688 Y33.823 
G1 X6.552 Y33.972 
G1 X6.462 Y34.086 
G1 X6.392 Y34.210 
G1 X6.343 Y34.340 
G1 X6.315 Y34.474 
G1 X6.307 Y34.608 
G1 X6.317 Y34.740 
G1 X6.346 Y34.870 
G1 X6.391 Y34.994 
G1 X6.453 Y35.112 
G1 X6.529 Y35.220 
G1 X6.620 Y35.318 
G1 X6.725 Y35.403 
G1 X6.843 Y35.473 
G1 X6.972 Y35.525 
G1 X7.112 Y35.559 
G1 X7.261 Y35.571 
G1 X7.421 Y35.560 
G1 X7.571 Y35.526 
G1 X7.708 Y35.470 
G1 X7.832 Y35.396 
G1 X7.942 Y35.305 
G1 X8.036 Y35.201 
G1 X8.114 Y35.085 
G1 X8.174 Y34.959 
G1 X8.217 Y34.826 
G0   Z1.000
G0 X11.924 Y34.730 
G1   Z-0.100F180.0
G1 X11.921 Y34.565 
G1 X11.935 Y34.480 
G1 X11.960 Y34.408 
G1 X11.993 Y34.349 
G1 X12.034 Y34.301 
G1 X12.084 Y34.264 
G1 X12.145 Y34.237 
G1 X12.218 Y34.219 
G1 X12.305 Y34.213 
G1 X12.394 Y34.218 
G1 X12.455 Y34.232 
G1 X12.506 Y34.258 
G1 X12.564 Y34.305 
G1 X12.651 Y34.413 
G1 X12.695 Y34.524 
G1 X12.696 Y34.650 
G1 X12.654 Y34.773 
G1 X12.574 Y34.880 
G1 X12.459 Y34.962 
G1 X12.388 Y34.993 
G1 X12.342 Y35.004 
G1 X12.216 Y34.984 
G1 X12.095 Y34.924 
G1 X11.988 Y34.832 
G1 X11.943 Y34.772 
G1 X11.924 Y34.730 
G0   Z1.000
G0 X11.387 Y34.919 
G1   Z-0.100F180.0
G1 X11.459 Y35.080 
G1 X11.563 Y35.225 
G1 X11.700 Y35.357 
G1 X11.847 Y35.456 
G1 X12.002 Y35.525 
G1 X12.160 Y35.564 
G1 X12.320 Y35.574 
G1 X12.477 Y35.559 
G1 X12.628 Y35.519 
G1 X12.770 Y35.456 
G1 X12.901 Y35.371 
G1 X13.017 Y35.267 
G1 X13.115 Y35.145 
G1 X13.193 Y35.006 
G1 X13.246 Y34.852 
G1 X13.272 Y34.686 
G1 X13.268 Y34.509 
G1 X13.230 Y34.323 
G1 X13.139 Y34.105 
G1 X13.007 Y33.929 
G1 X12.887 Y33.809 
G1  Y29.949 
G1 X12.754 Y29.698 
G1 X11.045 Y28.005 
G1 X10.929 Y27.928 
G1 X10.789 Y27.874 
G1 X10.618 Y27.852 
G1 X10.513 Y27.859 
G1 X10.417 Y27.883 
G1 X10.255 Y27.988 
G1 X10.141 Y28.138 
G1 X10.080 Y28.321 
G1 X10.075 Y28.513 
G1 X10.129 Y28.688 
G1 X10.202 Y28.826 
G1 X11.737 Y30.356 
G1  Y33.794 
G1 X11.602 Y33.937 
G1 X11.491 Y34.077 
G1 X11.409 Y34.236 
G1 X11.357 Y34.404 
G1 X11.335 Y34.577 
G1 X11.345 Y34.750 
G1 X11.387 Y34.919 
G0   Z1.000
G0 X17.100 Y30.672 
G1   Z-0.100F180.0
G1 X17.064 Y30.614 
G1 X17.046 Y30.548 
G1 X17.048 Y30.474 
G1 X17.072 Y30.397 
G1 X17.123 Y30.317 
G1 X17.170 Y30.271 
G1 X17.219 Y30.240 
G1 X17.268 Y30.222 
G1 X17.317 Y30.216 
G1 X17.367 Y30.223 
G1 X17.416 Y30.242 
G1 X17.467 Y30.275 
G1 X17.516 Y30.324 
G1 X17.561 Y30.383 
G1 X17.582 Y30.426 
G1 X17.588 Y30.466 
G1 X17.583 Y30.523 
G1 X17.549 Y30.634 
G1 X17.496 Y30.703 
G1 X17.421 Y30.745 
G1 X17.312 Y30.761 
G1 X17.224 Y30.749 
G1 X17.154 Y30.718 
G1 X17.100 Y30.672 
G0   Z1.000
G0 X17.332 Y34.204 
G1   Z-0.100F180.0
G1 X17.431 Y34.215 
G1 X17.519 Y34.252 
G1 X17.595 Y34.302 
G1 X17.669 Y34.386 
G1 X17.716 Y34.477 
G1 X17.737 Y34.571 
G1 X17.733 Y34.665 
G1 X17.705 Y34.755 
G1 X17.654 Y34.836 
G1 X17.579 Y34.906 
G1 X17.480 Y34.960 
G1 X17.349 Y34.996 
G1 X17.238 Y34.978 
G1 X17.143 Y34.934 
G1 X17.066 Y34.870 
G1 X17.008 Y34.791 
G1 X16.970 Y34.703 
G1 X16.953 Y34.610 
G1 X16.960 Y34.517 
G1 X16.990 Y34.429 
G1 X17.046 Y34.347 
G1 X17.135 Y34.270 
G1 X17.232 Y34.222 
G1 X17.332 Y34.204 
G0   Z1.000
G0 X24.475 Y39.860 
G1   Z-0.100F180.0
G1 X24.537 Y39.794 
G1 X24.655 Y39.723 
G1 X24.703 Y39.709 
G1 X24.749 Y39.707 
G1 X24.858 Y39.738 
G1 X24.970 Y39.823 
G1 X25.060 Y39.938 
G1 X25.077 Y39.979 
G1 X25.082 Y40.014 
G1 X25.063 Y40.119 
G1 X25.010 Y40.220 
G1 X24.932 Y40.302 
G1 X24.835 Y40.355 
G1 X24.773 Y40.372 
G1 X24.732 Y40.374 
G1 X24.607 Y40.331 
G1 X24.529 Y40.281 
G1 X24.471 Y40.220 
G1 X24.433 Y40.153 
G1 X24.414 Y40.081 
G1 X24.414 Y40.007 
G1 X24.434 Y39.933 
G1 X24.475 Y39.860 
G0   Z1.000
G0 X24.140 Y39.454 
G1   Z-0.100F180.0
G1 X20.774  
G1 X17.932 Y36.643 
G1  Y35.360 
G1 X18.035 Y35.263 
G1 X18.153 Y35.129 
G1 X18.236 Y34.975 
G1 X18.284 Y34.802 
G1 X18.298 Y34.605 
G1 X18.277 Y34.402 
G1 X18.218 Y34.209 
G1 X18.122 Y34.034 
G1 X17.995 Y33.886 
G1 X17.891 Y33.789 
G1 X17.892 Y30.903 
G1 X17.951 Y30.710 
G1 X17.986 Y30.529 
G1 X17.976 Y30.354 
G1 X17.918 Y30.191 
G1 X17.814 Y30.043 
G1 X17.707 Y29.951 
G1 X17.578 Y29.877 
G1 X17.440 Y29.826 
G1 X17.307 Y29.807 
G1 X17.185 Y29.828 
G1 X17.056 Y29.871 
G1 X16.939 Y29.936 
G1 X16.839 Y30.019 
G1 X16.758 Y30.118 
G1 X16.698 Y30.230 
G1 X16.659 Y30.351 
G1 X16.643 Y30.479 
G1 X16.651 Y30.610 
G1 X16.683 Y30.738 
G1 X16.741 Y30.905 
G1 X16.742 Y33.830 
G1 X16.660 Y33.906 
G1 X16.573 Y34.002 
G1 X16.501 Y34.116 
G1 X16.444 Y34.241 
G1 X16.405 Y34.374 
G1 X16.382 Y34.513 
G1 X16.378 Y34.654 
G1 X16.392 Y34.795 
G1 X16.427 Y34.935 
G1 X16.508 Y35.091 
G1 X16.626 Y35.243 
G1 X16.742 Y35.366 
G1  Y36.846 
G1 X16.833 Y37.164 
G1 X20.177 Y40.516 
G1 X20.412 Y40.613 
G1 X24.105 Y40.603 
G1 X24.263 Y40.711 
G1 X24.395 Y40.789 
G1 X24.531 Y40.845 
G1 X24.668 Y40.874 
G1 X24.805 Y40.877 
G1 X24.940 Y40.853 
G1 X25.070 Y40.803 
G1 X25.195 Y40.728 
G1 X25.315 Y40.628 
G1 X25.404 Y40.529 
G1 X25.474 Y40.422 
G1 X25.524 Y40.309 
G1 X25.557 Y40.189 
G1 X25.568 Y39.956 
G1 X25.514 Y39.729 
G1 X25.403 Y39.529 
G1 X25.324 Y39.439 
G1 X25.234 Y39.362 
G1 X25.131 Y39.299 
G1 X25.018 Y39.251 
G1 X24.895 Y39.222 
G1 X24.761 Y39.211 
G1 X24.590 Y39.232 
G1 X24.411 Y39.284 
G1 X24.252 Y39.355 
G1 X24.150 Y39.438 
G1 X24.140 Y39.454 
G0   Z1.000
G0 X19.903 Y30.745 
G1   Z-0.100F180.0
G1 X19.791 Y30.761 
G1 X19.722 Y30.757 
G1 X19.676 Y30.744 
G1 X19.638 Y30.720 
G1 X19.591 Y30.673 
G1 X19.550 Y30.619 
G1 X19.534 Y30.583 
G1 X19.532 Y30.458 
G1 X19.555 Y30.373 
G1 X19.594 Y30.308 
G1 X19.644 Y30.261 
G1 X19.703 Y30.233 
G1 X19.770 Y30.223 
G1 X19.841 Y30.232 
G1 X19.916 Y30.265 
G1 X19.992 Y30.325 
G1 X20.045 Y30.382 
G1 X20.066 Y30.419 
G1 X20.072 Y30.455 
G1 X20.066 Y30.517 
G1 X20.031 Y30.632 
G1 X19.978 Y30.703 
G1 X19.903 Y30.745 
G0   Z1.000
G0 X19.863 Y34.203 
G1   Z-0.100F180.0
G1 X19.962 Y34.218 
G1 X20.062 Y34.267 
G1 X20.155 Y34.349 
G1 X20.223 Y34.465 
G1 X20.245 Y34.583 
G1 X20.228 Y34.700 
G1 X20.175 Y34.809 
G1 X20.093 Y34.899 
G1 X19.988 Y34.962 
G1 X19.864 Y34.990 
G1 X19.723 Y34.975 
G1 X19.660 Y34.951 
G1 X19.607 Y34.918 
G1 X19.521 Y34.824 
G1 X19.473 Y34.708 
G1 X19.462 Y34.579 
G1 X19.488 Y34.452 
G1 X19.550 Y34.340 
G1 X19.647 Y34.252 
G1 X19.704 Y34.224 
G1 X19.771 Y34.206 
G1 X19.863 Y34.203 
G0   Z1.000
G0 X26.988 Y39.824 
G1   Z-0.100F180.0
G1 X27.083 Y39.752 
G1 X27.198 Y39.716 
G1 X27.251 Y39.715 
G1 X27.309 Y39.726 
G1 X27.368 Y39.751 
G1 X27.425 Y39.790 
G1 X27.504 Y39.880 
G1 X27.545 Y39.966 
G1 X27.550 Y40.078 
G1 X27.517 Y40.178 
G1 X27.453 Y40.262 
G1 X27.366 Y40.325 
G1 X27.265 Y40.360 
G1 X27.161 Y40.364 
G1 X27.062 Y40.334 
G1 X26.969 Y40.262 
G1 X26.929 Y40.207 
G1 X26.902 Y40.149 
G1 X26.889 Y40.091 
G1 X26.888 Y40.038 
G1 X26.920 Y39.922 
G1 X26.988 Y39.824 
G0   Z1.000
G0 X26.371 Y40.025 
G1   Z-0.100F180.0
G1 X26.396 Y40.174 
G1 X26.451 Y40.361 
G1 X26.548 Y40.529 
G1 X26.685 Y40.669 
G1 X26.857 Y40.779 
G1 X27.038 Y40.854 
G1 X27.207 Y40.884 
G1 X27.374 Y40.867 
G1 X27.546 Y40.804 
G1 X27.714 Y40.705 
G1 X27.851 Y40.579 
G1 X27.955 Y40.431 
G1 X28.022 Y40.267 
G1 X28.052 Y40.093 
G1 X28.043 Y39.913 
G1 X27.993 Y39.734 
G1 X27.902 Y39.559 
G1 X27.783 Y39.427 
G1 X27.628 Y39.317 
G1 X27.457 Y39.241 
G1 X27.293 Y39.211 
G1 X27.219 Y39.211 
G1 X25.606 Y37.587 
G1 X25.312 Y37.460 
G1 X22.255 Y37.460 
G1 X20.473 Y35.679 
G1 X20.445 Y35.634 
G1 X20.417 Y35.561 
G1 X20.421 Y35.484 
G1 X20.458 Y35.393 
G1 X20.539 Y35.283 
G1 X20.664 Y35.119 
G1 X20.755 Y34.937 
G1 X20.808 Y34.749 
G1 X20.821 Y34.558 
G1 X20.795 Y34.369 
G1 X20.730 Y34.187 
G1 X20.627 Y34.017 
G1 X20.488 Y33.865 
G1 X20.371 Y33.759 
G1 X20.413 Y30.730 
G1 X20.424 Y30.478 
G1 X20.426 Y30.331 
G1 X20.411 Y30.218 
G1 X20.366 Y30.126 
G1 X20.289 Y30.037 
G1 X20.178 Y29.947 
G1 X20.044 Y29.874 
G1 X19.900 Y29.825 
G1 X19.752 Y29.805 
G1 X19.635 Y29.837 
G1 X19.483 Y29.903 
G1 X19.376 Y29.967 
G1 X19.285 Y30.048 
G1 X19.214 Y30.142 
G1 X19.162 Y30.249 
G1 X19.132 Y30.365 
G1 X19.122 Y30.489 
G1 X19.134 Y30.618 
G1 X19.165 Y30.750 
G1 X19.223 Y30.944 
G1 X19.224 Y33.820 
G1 X19.123 Y33.949 
G1 X19.033 Y34.090 
G1 X18.948 Y34.267 
G1 X18.884 Y34.442 
G1 X18.857 Y34.588 
G1 X18.884 Y34.751 
G1 X18.949 Y34.936 
G1 X19.039 Y35.119 
G1 X19.138 Y35.265 
G1 X19.214 Y35.360 
G1 X19.247 Y35.426 
G1 X19.261 Y35.513 
G1 X19.265 Y35.670 
G1 X19.278 Y35.913 
G1 X19.310 Y36.091 
G1 X19.362 Y36.230 
G1 X21.641 Y38.523 
G1 X21.935 Y38.650 
G1 X24.992 Y38.651 
G1 X26.371 Y40.025 
G0   Z1.000
G0 X25.003 Y34.964 
G1   Z-0.100F180.0
G1 X24.868 Y34.976 
G1 X24.773 Y34.972 
G1 X24.716 Y34.958 
G1 X24.666 Y34.926 
G1 X24.597 Y34.859 
G1 X24.538 Y34.790 
G1 X24.505 Y34.735 
G1 X24.489 Y34.684 
G1 X24.484 Y34.624 
G1 X24.496 Y34.514 
G1 X24.530 Y34.419 
G1 X24.582 Y34.339 
G1 X24.649 Y34.275 
G1 X24.729 Y34.230 
G1 X24.819 Y34.204 
G1 X24.916 Y34.201 
G1 X25.015 Y34.222 
G1 X25.119 Y34.282 
G1 X25.209 Y34.377 
G1 X25.261 Y34.476 
G1 X25.282 Y34.575 
G1 X25.274 Y34.675 
G1 X25.235 Y34.779 
G1 X25.173 Y34.871 
G1 X25.099 Y34.930 
G1 X25.003 Y34.964 
G0   Z1.000
G0 X25.161 Y35.522 
G1   Z-0.100F180.0
G1 X25.329 Y35.457 
G1 X25.486 Y35.359 
G1 X25.640 Y35.208 
G1 X25.751 Y35.028 
G1 X25.820 Y34.828 
G1 X25.845 Y34.619 
G1 X25.828 Y34.407 
G1 X25.768 Y34.201 
G1 X25.664 Y34.010 
G1 X25.520 Y33.846 
G1 X25.459 Y33.791 
G1 X25.459 Y32.208 
G1 X25.364 Y32.063 
G1 X25.273 Y31.952 
G1 X25.160 Y31.869 
G1 X25.030 Y31.819 
G1 X24.884 Y31.804 
G1 X24.737 Y31.821 
G1 X24.606 Y31.866 
G1 X24.498 Y31.953 
G1 X24.406 Y32.063 
G1 X24.311 Y32.208 
G1 X24.310 Y33.790 
G1 X24.226 Y33.867 
G1 X24.108 Y34.013 
G1 X24.005 Y34.204 
G1 X23.932 Y34.406 
G1 X23.904 Y34.594 
G1 X23.928 Y34.770 
G1 X23.989 Y34.955 
G1 X24.076 Y35.132 
G1 X24.182 Y35.278 
G1 X24.316 Y35.395 
G1 X24.469 Y35.480 
G1 X24.635 Y35.536 
G1 X24.809 Y35.562 
G1 X24.986 Y35.557 
G1 X25.161 Y35.522 
G0   Z1.000
G0 X29.519 Y34.691 
G1   Z-0.100F180.0
G1 X29.515 Y34.598 
G1 X29.519 Y34.507 
G1 X29.534 Y34.450 
G1 X29.564 Y34.400 
G1 X29.626 Y34.334 
G1 X29.723 Y34.257 
G1 X29.821 Y34.210 
G1 X29.918 Y34.191 
G1 X30.009 Y34.199 
G1 X30.074 Y34.229 
G1 X30.152 Y34.287 
G1 X30.221 Y34.362 
G1 X30.269 Y34.439 
G1 X30.297 Y34.518 
G1 X30.306 Y34.597 
G1 X30.297 Y34.674 
G1 X30.269 Y34.750 
G1 X30.222 Y34.824 
G1 X30.153 Y34.894 
G1 X30.093 Y34.936 
G1 X30.030 Y34.964 
G1 X29.966 Y34.980 
G1 X29.900 Y34.982 
G1 X29.833 Y34.973 
G1 X29.766 Y34.950 
G1 X29.700 Y34.913 
G1 X29.634 Y34.862 
G1 X29.566 Y34.794 
G1 X29.533 Y34.745 
G1 X29.519 Y34.691 
G0   Z1.000
G0 X28.986 Y34.867 
G1   Z-0.100F180.0
G1 X29.033 Y34.996 
G1 X29.098 Y35.117 
G1 X29.181 Y35.230 
G1 X29.283 Y35.330 
G1 X29.402 Y35.417 
G1 X29.542 Y35.488 
G1 X29.777 Y35.552 
G1 X30.014 Y35.553 
G1 X30.240 Y35.498 
G1 X30.446 Y35.392 
G1 X30.622 Y35.243 
G1 X30.761 Y35.057 
G1 X30.850 Y34.841 
G1 X30.875 Y34.719 
G1 X30.883 Y34.593 
G1 X30.863 Y34.402 
G1 X30.806 Y34.222 
G1 X30.716 Y34.059 
G1 X30.598 Y33.916 
G1 X30.455 Y33.798 
G1 X30.292 Y33.709 
G1 X30.113 Y33.653 
G1 X29.922 Y33.634 
G1 X29.712 Y33.655 
G1 X29.532 Y33.704 
G1 X29.393 Y33.777 
G1 X29.274 Y33.865 
G1 X29.174 Y33.967 
G1 X29.092 Y34.080 
G1 X29.028 Y34.203 
G1 X28.983 Y34.332 
G1 X28.957 Y34.465 
G1 X28.948 Y34.600 
G1 X28.958 Y34.735 
G1 X28.986 Y34.867 
G0   Z1.000
G0 X29.898 Y19.665 
G1   Z-0.100F180.0
G1 X29.803 Y19.650 
G1 X29.701 Y19.601 
G1 X29.592 Y19.507 
G1 X29.531 Y19.398 
G1 X29.509 Y19.277 
G1 X29.525 Y19.156 
G1 X29.576 Y19.044 
G1 X29.658 Y18.952 
G1 X29.772 Y18.889 
G1 X29.835 Y18.872 
G1 X29.909 Y18.866 
G1 X29.990 Y18.871 
G1 X30.047 Y18.886 
G1 X30.102 Y18.918 
G1 X30.173 Y18.980 
G1 X30.238 Y19.047 
G1 X30.271 Y19.097 
G1 X30.286 Y19.146 
G1 X30.291 Y19.219 
G1 X30.279 Y19.355 
G1 X30.246 Y19.455 
G1 X30.189 Y19.533 
G1 X30.101 Y19.600 
G1 X29.993 Y19.650 
G1 X29.898 Y19.665 
G0   Z1.000
G0 X29.908 Y20.228 
G1   Z-0.100F180.0
G1 X30.056 Y20.218 
G1 X30.193 Y20.191 
G1 X30.319 Y20.145 
G1 X30.436 Y20.081 
G1 X30.541 Y19.999 
G1 X30.635 Y19.899 
G1 X30.716 Y19.783 
G1 X30.788 Y19.647 
G1 X30.862 Y19.410 
G1 X30.870 Y19.168 
G1 X30.820 Y18.938 
G1 X30.716 Y18.728 
G1 X30.566 Y18.549 
G1 X30.376 Y18.409 
G1 X30.154 Y18.319 
G1 X30.029 Y18.295 
G1 X29.899 Y18.288 
G1 X29.712 Y18.306 
G1 X29.552 Y18.348 
G1 X29.395 Y18.436 
G1 X29.252 Y18.551 
G1 X29.128 Y18.686 
G1 X29.033 Y18.833 
G1 X28.989 Y18.944 
G1 X28.961 Y19.066 
G1 X28.950 Y19.320 
G1 X28.993 Y19.571 
G1 X29.037 Y19.691 
G1 X29.096 Y19.798 
G1 X29.252 Y19.980 
G1 X29.446 Y20.116 
G1 X29.669 Y20.201 
G1 X29.908 Y20.228 
G0   Z1.000
G0 X28.258 Y11.223 
G1   Z-0.100F180.0
G1 X28.165 Y11.227 
G1 X28.069 Y11.208 
G1 X27.979 Y11.163 
G1 X27.910 Y11.100 
G1 X27.861 Y11.020 
G1 X27.832 Y10.930 
G1 X27.826 Y10.834 
G1 X27.843 Y10.739 
G1 X27.884 Y10.650 
G1 X27.953 Y10.570 
G1 X28.009 Y10.525 
G1 X28.057 Y10.501 
G1 X28.209 Y10.480 
G1 X28.293 Y10.485 
G1 X28.349 Y10.499 
G1 X28.400 Y10.531 
G1 X28.469 Y10.593 
G1 X28.529 Y10.659 
G1 X28.561 Y10.711 
G1 X28.577 Y10.760 
G1 X28.582 Y10.823 
G1 X28.570 Y10.926 
G1 X28.537 Y11.016 
G1 X28.487 Y11.092 
G1 X28.422 Y11.154 
G1 X28.344 Y11.198 
G1 X28.258 Y11.223 
G0   Z1.000
G0 X28.359 Y11.686 
G1   Z-0.100F180.0
G1 X28.569 Y11.617 
G1 X28.758 Y11.496 
G1 X28.910 Y11.326 
G1 X28.971 Y11.219 
G1 X29.019 Y11.103 
G1 X29.054 Y10.952 
G1 X29.060 Y10.799 
G1 X29.039 Y10.651 
G1 X28.992 Y10.509 
G1 X28.920 Y10.377 
G1 X28.825 Y10.259 
G1 X28.709 Y10.157 
G1 X28.572 Y10.075 
G1 X28.384 Y10.009 
G1 X28.198 Y9.981 
G1 X28.012 Y10.010 
G1 X27.822 Y10.078 
G1 X27.653 Y10.188 
G1 X27.518 Y10.327 
G1 X27.420 Y10.490 
G1 X27.359 Y10.667 
G1 X27.338 Y10.853 
G1 X27.358 Y11.040 
G1 X27.422 Y11.220 
G1 X27.530 Y11.387 
G1 X27.711 Y11.551 
G1 X27.918 Y11.655 
G1 X28.138 Y11.699 
G1 X28.359 Y11.686 
G0   Z1.000
G0 X27.398 Y18.865 
G1   Z-0.100F180.0
G1 X27.520 Y18.886 
G1 X27.631 Y18.951 
G1 X27.715 Y19.045 
G1 X27.770 Y19.148 
G1 X27.787 Y19.268 
G1 X27.763 Y19.390 
G1 X27.701 Y19.502 
G1 X27.605 Y19.593 
G1 X27.525 Y19.636 
G1 X27.447 Y19.660 
G1 X27.372 Y19.666 
G1 X27.301 Y19.657 
G1 X27.234 Y19.633 
G1 X27.175 Y19.599 
G1 X27.069 Y19.494 
G1 X27.003 Y19.359 
G1 X26.990 Y19.292 
G1 X26.990 Y19.221 
G1 X27.004 Y19.150 
G1 X27.034 Y19.081 
G1 X27.082 Y19.014 
G1 X27.148 Y18.953 
G1 X27.272 Y18.886 
G1 X27.398 Y18.865 
G0   Z1.000
G0 X27.376 Y18.286 
G1   Z-0.100F180.0
G1 X27.170 Y18.312 
G1 X26.975 Y18.379 
G1 X26.842 Y18.457 
G1 X26.728 Y18.547 
G1 X26.631 Y18.651 
G1 X26.553 Y18.768 
G1 X26.493 Y18.896 
G1 X26.453 Y19.034 
G1 X26.434 Y19.180 
G1 X26.434 Y19.334 
G1 X26.452 Y19.474 
G1 X26.488 Y19.605 
G1 X26.540 Y19.726 
G1 X26.606 Y19.836 
G1 X26.685 Y19.934 
G1 X26.778 Y20.022 
G1 X26.985 Y20.151 
G1 X27.219 Y20.222 
G1 X27.347 Y20.234 
G1 X27.474 Y20.230 
G1 X27.602 Y20.208 
G1 X27.729 Y20.168 
G1 X27.854 Y20.111 
G1 X27.976 Y20.034 
G1 X28.102 Y19.926 
G1 X28.202 Y19.804 
G1 X28.278 Y19.671 
G1 X28.328 Y19.531 
G1 X28.355 Y19.386 
G1 X28.360 Y19.241 
G1 X28.343 Y19.096 
G1 X28.305 Y18.956 
G1 X28.249 Y18.822 
G1 X28.173 Y18.696 
G1 X28.080 Y18.583 
G1 X27.969 Y18.483 
G1 X27.843 Y18.401 
G1 X27.701 Y18.339 
G1 X27.546 Y18.300 
G1 X27.376 Y18.286 
G0   Z1.000
G0 X25.236 Y19.107 
G1   Z-0.100F180.0
G1 X25.272 Y19.198 
G1 X25.286 Y19.270 
G1 X25.277 Y19.335 
G1 X25.250 Y19.405 
G1 X25.206 Y19.474 
G1 X25.149 Y19.538 
G1 X25.081 Y19.592 
G1 X25.007 Y19.634 
G1 X24.931 Y19.660 
G1 X24.856 Y19.670 
G1 X24.808 Y19.664 
G1 X24.761 Y19.646 
G1 X24.619 Y19.535 
G1 X24.543 Y19.458 
G1 X24.504 Y19.403 
G1 X24.488 Y19.351 
G1 X24.483 Y19.276 
G1 X24.501 Y19.144 
G1 X24.539 Y19.044 
G1 X24.587 Y18.987 
G1 X24.650 Y18.937 
G1 X24.723 Y18.900 
G1 X24.802 Y18.877 
G1 X24.882 Y18.869 
G1 X24.960 Y18.875 
G1 X25.030 Y18.897 
G1 X25.091 Y18.933 
G1 X25.172 Y19.014 
G1 X25.236 Y19.107 
G0   Z1.000
G0 X25.760 Y18.882 
G1   Z-0.100F180.0
G1 X25.689 Y18.744 
G1 X25.597 Y18.618 
G1 X25.484 Y18.507 
G1 X25.353 Y18.415 
G1 X25.203 Y18.345 
G1 X25.037 Y18.301 
G1 X24.853 Y18.287 
G1 X24.636 Y18.317 
G1 X24.417 Y18.410 
G1 X24.218 Y18.551 
G1 X24.066 Y18.727 
G1 X23.963 Y18.927 
G1 X23.912 Y19.142 
G1 X23.913 Y19.364 
G1 X23.966 Y19.584 
G1 X24.073 Y19.791 
G1 X24.233 Y19.976 
G1 X24.355 Y20.074 
G1 X24.482 Y20.149 
G1 X24.615 Y20.202 
G1 X24.754 Y20.232 
G1 X24.895 Y20.239 
G1 X25.038 Y20.223 
G1 X25.182 Y20.183 
G1 X25.326 Y20.121 
G1 X25.478 Y20.025 
G1 X25.604 Y19.910 
G1 X25.703 Y19.780 
G1 X25.775 Y19.638 
G1 X25.820 Y19.488 
G1 X25.840 Y19.334 
G1 X25.836 Y19.180 
G1 X25.809 Y19.028 
G1 X25.760 Y18.882 
G0   Z1.000
G0 X20.241 Y19.274 
G1   Z-0.100F180.0
G1 X20.236 Y19.348 
G1 X20.220 Y19.401 
G1 X20.182 Y19.458 
G1 X20.111 Y19.535 
G1 X19.997 Y19.628 
G1 X19.898 Y19.666 
G1 X19.797 Y19.664 
G1 X19.674 Y19.617 
G1 X19.589 Y19.554 
G1 X19.511 Y19.461 
G1 X19.458 Y19.359 
G1 X19.439 Y19.274 
G1 X19.452 Y19.196 
G1 X19.493 Y19.102 
G1 X19.556 Y19.009 
G1 X19.631 Y18.935 
G1 X19.718 Y18.890 
G1 X19.826 Y18.870 
G1 X19.941 Y18.880 
G1 X20.046 Y18.918 
G1 X20.124 Y18.975 
G1 X20.186 Y19.046 
G1 X20.224 Y19.144 
G1 X20.241 Y19.274 
G0   Z1.000
G0 X20.816 Y19.231 
G1   Z-0.100F180.0
G1 X20.794 Y19.067 
G1 X20.743 Y18.904 
G1 X20.660 Y18.742 
G1 X20.508 Y18.559 
G1 X20.308 Y18.415 
G1 X20.083 Y18.321 
G1 X19.962 Y18.295 
G1 X19.840 Y18.287 
G1 X19.645 Y18.312 
G1 X19.459 Y18.370 
G1 X19.324 Y18.447 
G1 X19.204 Y18.544 
G1 X19.099 Y18.658 
G1 X19.011 Y18.784 
G1 X18.941 Y18.920 
G1 X18.893 Y19.061 
G1 X18.869 Y19.205 
G1 X18.873 Y19.345 
G1 X18.903 Y19.494 
G1 X18.950 Y19.630 
G1 X19.012 Y19.754 
G1 X19.089 Y19.866 
G1 X19.177 Y19.964 
G1 X19.276 Y20.049 
G1 X19.384 Y20.118 
G1 X19.500 Y20.173 
G1 X19.621 Y20.211 
G1 X19.746 Y20.233 
G1 X19.874 Y20.238 
G1 X20.003 Y20.224 
G1 X20.131 Y20.192 
G1 X20.256 Y20.140 
G1 X20.376 Y20.069 
G1 X20.490 Y19.977 
G1 X20.611 Y19.847 
G1 X20.705 Y19.704 
G1 X20.771 Y19.553 
G1 X20.809 Y19.394 
G1 X20.816 Y19.231 
G0   Z1.000
G0 X17.716 Y19.276 
G1   Z-0.100F180.0
G1 X17.699 Y19.401 
G1 X17.663 Y19.490 
G1 X17.587 Y19.576 
G1 X17.495 Y19.632 
G1 X17.393 Y19.659 
G1 X17.287 Y19.658 
G1 X17.183 Y19.628 
G1 X17.090 Y19.572 
G1 X17.012 Y19.490 
G1 X16.955 Y19.377 
G1 X16.932 Y19.302 
G1 X16.927 Y19.256 
G1 X16.963 Y19.129 
G1 X17.007 Y19.048 
G1 X17.065 Y18.981 
G1 X17.134 Y18.930 
G1 X17.211 Y18.894 
G1 X17.293 Y18.876 
G1 X17.377 Y18.876 
G1 X17.461 Y18.895 
G1 X17.544 Y18.933 
G1 X17.633 Y19.002 
G1 X17.684 Y19.061 
G1 X17.710 Y19.149 
G1 X17.716 Y19.276 
G0   Z1.000
G0 X18.278 Y19.267 
G1   Z-0.100F180.0
G1 X18.274 Y19.084 
G1 X18.256 Y18.950 
G1 X18.212 Y18.838 
G1 X18.138 Y18.720 
G1 X17.980 Y18.549 
G1 X17.775 Y18.411 
G1 X17.549 Y18.320 
G1 X17.322 Y18.287 
G1 X17.137 Y18.306 
G1 X16.979 Y18.348 
G1 X16.812 Y18.439 
G1 X16.670 Y18.551 
G1 X16.551 Y18.683 
G1 X16.460 Y18.831 
G1 X16.397 Y18.992 
G1 X16.364 Y19.162 
G1 X16.363 Y19.337 
G1 X16.396 Y19.512 
G1 X16.455 Y19.672 
G1 X16.532 Y19.814 
G1 X16.627 Y19.937 
G1 X16.740 Y20.040 
G1 X16.869 Y20.121 
G1 X17.012 Y20.180 
G1 X17.168 Y20.215 
G1 X17.339 Y20.228 
G1 X17.575 Y20.202 
G1 X17.792 Y20.121 
G1 X17.984 Y19.986 
G1 X18.142 Y19.804 
G1 X18.214 Y19.690 
G1 X18.257 Y19.576 
G1 X18.278 Y19.267 
G0   Z1.000
G0 X15.225 Y19.247 
G1   Z-0.100F180.0
G1 X15.195 Y19.381 
G1 X15.153 Y19.470 
G1 X15.096 Y19.543 
G1 X15.028 Y19.599 
G1 X14.951 Y19.638 
G1 X14.867 Y19.659 
G1 X14.780 Y19.660 
G1 X14.692 Y19.642 
G1 X14.605 Y19.601 
G1 X14.526 Y19.539 
G1 X14.475 Y19.464 
G1 X14.444 Y19.366 
G1 X14.433 Y19.236 
G1 X14.448 Y19.129 
G1 X14.488 Y19.041 
G1 X14.549 Y18.969 
G1 X14.627 Y18.915 
G1 X14.718 Y18.882 
G1 X14.818 Y18.873 
G1 X14.922 Y18.890 
G1 X15.024 Y18.935 
G1 X15.119 Y19.021 
G1 X15.192 Y19.135 
G1 X15.217 Y19.203 
G1 X15.225 Y19.247 
G0   Z1.000
G0 X15.775 Y19.195 
G1   Z-0.100F180.0
G1 X15.727 Y18.947 
G1 X15.678 Y18.828 
G1 X15.613 Y18.719 
G1 X15.458 Y18.549 
G1 X15.265 Y18.412 
G1 X15.051 Y18.321 
G1 X14.836 Y18.287 
G1 X14.626 Y18.316 
G1 X14.413 Y18.390 
G1 X14.280 Y18.462 
G1 X14.166 Y18.544 
G1 X14.069 Y18.638 
G1 X13.989 Y18.744 
G1 X13.929 Y18.861 
G1 X13.886 Y18.989 
G1 X13.862 Y19.128 
G1 X13.854 Y19.280 
G1 X13.882 Y19.502 
G1 X13.959 Y19.706 
G1 X14.078 Y19.886 
G1 X14.231 Y20.034 
G1 X14.412 Y20.147 
G1 X14.613 Y20.218 
G1 X14.827 Y20.241 
G1 X15.047 Y20.211 
G1 X15.244 Y20.133 
G1 X15.423 Y20.015 
G1 X15.574 Y19.866 
G1 X15.684 Y19.696 
G1 X15.732 Y19.576 
G1 X15.763 Y19.449 
G1 X15.775 Y19.195 
G0   Z1.000
G0 X12.696 Y19.223 
G1   Z-0.100F180.0
G1 X12.694 Y19.308 
G1 X12.673 Y19.392 
G1 X12.634 Y19.472 
G1 X12.578 Y19.542 
G1 X12.503 Y19.600 
G1 X12.394 Y19.650 
G1 X12.293 Y19.665 
G1 X12.194 Y19.647 
G1 X12.093 Y19.595 
G1 X11.984 Y19.492 
G1 X11.924 Y19.372 
G1 X11.910 Y19.234 
G1 X11.945 Y19.078 
G1 X11.972 Y19.029 
G1 X12.014 Y18.985 
G1 X12.147 Y18.907 
G1 X12.306 Y18.872 
G1 X12.377 Y18.874 
G1 X12.438 Y18.888 
G1 X12.588 Y18.998 
G1 X12.643 Y19.065 
G1 X12.679 Y19.141 
G1 X12.696 Y19.223 
G0   Z1.000
G0 X13.261 Y19.266 
G1   Z-0.100F180.0
G1 X13.243 Y19.054 
G1 X13.186 Y18.864 
G1 X13.088 Y18.696 
G1 X12.948 Y18.548 
G1 X12.796 Y18.432 
G1 X12.640 Y18.350 
G1 X12.476 Y18.302 
G1 X12.301 Y18.286 
G1 X12.100 Y18.317 
G1 X11.889 Y18.390 
G1 X11.715 Y18.493 
G1 X11.571 Y18.623 
G1 X11.460 Y18.776 
G1 X11.383 Y18.948 
G1 X11.341 Y19.132 
G1 X11.338 Y19.323 
G1 X11.373 Y19.518 
G1 X11.447 Y19.710 
G1 X11.541 Y19.865 
G1 X11.654 Y19.992 
G1 X11.782 Y20.092 
G1 X11.922 Y20.166 
G1 X12.069 Y20.213 
G1 X12.221 Y20.236 
G1 X12.374 Y20.234 
G1 X12.524 Y20.209 
G1 X12.669 Y20.161 
G1 X12.806 Y20.092 
G1 X12.931 Y20.002 
G1 X13.041 Y19.891 
G1 X13.133 Y19.761 
G1 X13.202 Y19.613 
G1 X13.246 Y19.447 
G1 X13.261 Y19.266 
G0   Z1.000
G0 X10.171 Y19.278 
G1   Z-0.100F180.0
G1 X10.167 Y19.375 
G1 X10.153 Y19.432 
G1 X10.120 Y19.482 
G1 X10.047 Y19.553 
G1 X9.973 Y19.615 
G1 X9.916 Y19.649 
G1 X9.860 Y19.665 
G1 X9.785 Y19.670 
G1 X9.709 Y19.665 
G1 X9.656 Y19.649 
G1 X9.600 Y19.611 
G1 X9.520 Y19.538 
G1 X9.447 Y19.458 
G1 X9.409 Y19.401 
G1 X9.393 Y19.348 
G1 X9.388 Y19.276 
G1 X9.402 Y19.180 
G1 X9.441 Y19.092 
G1 X9.501 Y19.014 
G1 X9.578 Y18.949 
G1 X9.666 Y18.901 
G1 X9.759 Y18.875 
G1 X9.851 Y18.873 
G1 X9.937 Y18.896 
G1 X10.007 Y18.942 
G1 X10.092 Y19.021 
G1 X10.132 Y19.070 
G1 X10.152 Y19.114 
G1 X10.171 Y19.278 
G0   Z1.000
G0 X10.758 Y19.316 
G1   Z-0.100F180.0
G1 X10.749 Y19.132 
G1 X10.703 Y18.951 
G1 X10.621 Y18.779 
G1 X10.505 Y18.625 
G1 X10.367 Y18.476 
G1 X10.343 Y16.048 
G1 X10.162 Y15.882 
G1 X10.075 Y15.809 
G1 X9.989 Y15.758 
G1 X9.898 Y15.730 
G1 X9.797 Y15.722 
G1 X9.638 Y15.745 
G1 X9.495 Y15.801 
G1 X9.383 Y15.896 
G1 X9.296 Y16.006 
G1 X9.215 Y16.143 
G1 X9.213 Y18.479 
G1 X9.111 Y18.578 
G1 X8.981 Y18.731 
G1 X8.886 Y18.900 
G1 X8.828 Y19.079 
G1 X8.810 Y19.262 
G1 X8.830 Y19.446 
G1 X8.889 Y19.624 
G1 X8.986 Y19.793 
G1 X9.119 Y19.948 
G1 X9.272 Y20.076 
G1 X9.432 Y20.169 
G1 X9.599 Y20.228 
G1 X9.769 Y20.251 
G1 X9.940 Y20.236 
G1 X10.109 Y20.186 
G1 X10.273 Y20.100 
G1 X10.432 Y19.980 
G1 X10.566 Y19.836 
G1 X10.666 Y19.674 
G1 X10.730 Y19.499 
G1 X10.758 Y19.316 
G0   Z1.000
G0 X7.670 Y19.289 
G1   Z-0.100F180.0
G1 X7.659 Y19.358 
G1 X7.636 Y19.424 
G1 X7.600 Y19.486 
G1 X7.551 Y19.543 
G1 X7.490 Y19.593 
G1 X7.362 Y19.656 
G1 X7.245 Y19.669 
G1 X7.130 Y19.637 
G1 X7.006 Y19.551 
G1 X6.936 Y19.481 
G1 X6.904 Y19.432 
G1 X6.889 Y19.374 
G1 X6.885 Y19.272 
G1 X6.889 Y19.172 
G1 X6.903 Y19.112 
G1 X6.930 Y19.063 
G1 X6.983 Y19.005 
G1 X7.094 Y18.923 
G1 X7.214 Y18.883 
G1 X7.339 Y18.883 
G1 X7.463 Y18.923 
G1 X7.555 Y18.991 
G1 X7.621 Y19.073 
G1 X7.650 Y19.143 
G1 X7.667 Y19.217 
G1 X7.670 Y19.289 
G0   Z1.000
G0 X8.238 Y19.321 
G1   Z-0.100F180.0
G1 X8.236 Y19.190 
G1 X8.216 Y19.059 
G1 X8.177 Y18.930 
G1 X8.119 Y18.805 
G1 X8.041 Y18.686 
G1 X7.945 Y18.578 
G1 X7.844 Y18.479 
G1 X7.839 Y16.132 
G1 X7.772 Y16.012 
G1 X7.682 Y15.898 
G1 X7.556 Y15.805 
G1 X7.410 Y15.744 
G1 X7.259 Y15.721 
G1 X7.158 Y15.729 
G1 X7.064 Y15.759 
G1 X6.896 Y15.880 
G1 X6.713 Y16.048 
G1 X6.689 Y18.476 
G1 X6.554 Y18.623 
G1 X6.439 Y18.772 
G1 X6.356 Y18.937 
G1 X6.308 Y19.110 
G1 X6.296 Y19.286 
G1 X6.319 Y19.462 
G1 X6.378 Y19.633 
G1 X6.470 Y19.795 
G1 X6.596 Y19.945 
G1 X6.776 Y20.096 
G1 X6.968 Y20.195 
G1 X7.174 Y20.240 
G1 X7.393 Y20.234 
G1 X7.539 Y20.203 
G1 X7.673 Y20.154 
G1 X7.794 Y20.088 
G1 X7.902 Y20.008 
G1 X7.997 Y19.915 
G1 X8.076 Y19.810 
G1 X8.141 Y19.697 
G1 X8.190 Y19.577 
G1 X8.222 Y19.451 
G1 X8.238 Y19.321 
G0   Z1.000
G0 X2.643 Y19.248 
G1   Z-0.100F180.0
G1 X2.634 Y19.369 
G1 X2.585 Y19.478 
G1 X2.504 Y19.569 
G1 X2.399 Y19.633 
G1 X2.279 Y19.663 
G1 X2.149 Y19.652 
G1 X2.089 Y19.631 
G1 X2.029 Y19.597 
G1 X1.920 Y19.496 
G1 X1.858 Y19.381 
G1 X1.839 Y19.257 
G1 X1.867 Y19.129 
G1 X1.908 Y19.054 
G1 X1.963 Y18.990 
G1 X2.028 Y18.939 
G1 X2.101 Y18.904 
G1 X2.179 Y18.884 
G1 X2.261 Y18.880 
G1 X2.344 Y18.894 
G1 X2.423 Y18.925 
G1 X2.527 Y19.005 
G1 X2.606 Y19.117 
G1 X2.643 Y19.248 
G0   Z1.000
G0 X3.195 Y19.175 
G1   Z-0.100F180.0
G1 X3.152 Y18.929 
G1 X3.043 Y18.719 
G1 X2.886 Y18.551 
G1 X2.684 Y18.415 
G1 X2.462 Y18.321 
G1 X2.242 Y18.285 
G1 X2.036 Y18.319 
G1 X1.813 Y18.407 
G1 X1.598 Y18.546 
G1 X1.440 Y18.719 
G1 X1.379 Y18.823 
G1 X1.334 Y18.935 
G1 X1.289 Y19.174 
G1 X1.290 Y19.407 
G1 X1.334 Y19.610 
G1 X1.426 Y19.792 
G1 X1.569 Y19.962 
G1 X1.718 Y20.084 
G1 X1.884 Y20.172 
G1 X2.060 Y20.225 
G1 X2.241 Y20.243 
G1 X2.422 Y20.226 
G1 X2.598 Y20.173 
G1 X2.764 Y20.085 
G1 X2.913 Y19.963 
G1 X3.057 Y19.793 
G1 X3.150 Y19.611 
G1 X3.194 Y19.408 
G1 X3.195 Y19.175 
G0   Z1.000
G0 X4.358 Y19.203 
G1   Z-0.100F180.0
G1 X4.386 Y19.110 
G1 X4.445 Y19.027 
G1 X4.545 Y18.945 
G1 X4.641 Y18.893 
G1 X4.731 Y18.873 
G1 X4.826 Y18.881 
G1 X4.936 Y18.917 
G1 X5.026 Y18.979 
G1 X5.093 Y19.062 
G1 X5.134 Y19.172 
G1 X5.145 Y19.282 
G1 X5.130 Y19.384 
G1 X5.090 Y19.476 
G1 X5.027 Y19.554 
G1 X4.945 Y19.615 
G1 X4.844 Y19.655 
G1 X4.725 Y19.670 
G1 X4.667 Y19.663 
G1 X4.610 Y19.643 
G1 X4.491 Y19.562 
G1 X4.400 Y19.445 
G1 X4.373 Y19.384 
G1 X4.358 Y19.319 
G1 X4.358 Y19.203 
G0   Z1.000
G0 X3.805 Y19.136 
G1   Z-0.100F180.0
G1 X3.797 Y19.301 
G1 X3.814 Y19.464 
G1 X3.860 Y19.622 
G1 X3.933 Y19.768 
G1 X4.051 Y19.927 
G1 X4.183 Y20.051 
G1 X4.337 Y20.142 
G1 X4.517 Y20.207 
G1 X4.740 Y20.238 
G1 X4.958 Y20.216 
G1 X5.162 Y20.147 
G1 X5.345 Y20.035 
G1 X5.501 Y19.888 
G1 X5.621 Y19.709 
G1 X5.699 Y19.504 
G1 X5.726 Y19.279 
G1 X5.699 Y19.076 
G1 X5.628 Y18.865 
G1 X5.526 Y18.671 
G1 X5.403 Y18.520 
G1 X5.319 Y18.443 
G1  Y16.149 
G1 X5.244 Y16.005 
G1 X5.161 Y15.893 
G1 X5.042 Y15.803 
G1 X4.904 Y15.743 
G1 X4.754 Y15.720 
G1 X4.611 Y15.749 
G1 X4.466 Y15.814 
G1 X4.339 Y15.920 
G1 X4.246 Y16.043 
G1 X4.169 Y16.190 
G1  Y18.484 
G1 X4.088 Y18.560 
G1 X3.982 Y18.680 
G1 X3.898 Y18.822 
G1 X3.839 Y18.975 
G1 X3.805 Y19.136 
G0   Z1.000
G0 X4.348 Y13.743 
G1   Z-0.100F180.0
G1 X4.295 Y13.728 
G1 X4.245 Y13.695 
G1 X4.176 Y13.625 
G1 X4.110 Y13.536 
G1 X4.072 Y13.449 
G1 X4.058 Y13.363 
G1 X4.066 Y13.280 
G1 X4.095 Y13.202 
G1 X4.146 Y13.130 
G1 X4.219 Y13.066 
G1 X4.318 Y13.012 
G1 X4.402 Y12.979 
G1 X4.438 Y12.972 
G1 X4.566 Y13.013 
G1 X4.660 Y13.068 
G1 X4.731 Y13.128 
G1 X4.778 Y13.217 
G1 X4.810 Y13.352 
G1 X4.816 Y13.436 
G1 X4.807 Y13.486 
G1 X4.778 Y13.537 
G1 X4.709 Y13.618 
G1 X4.634 Y13.693 
G1 X4.584 Y13.728 
G1 X4.530 Y13.743 
G1 X4.439 Y13.747 
G1 X4.348 Y13.743 
G0   Z1.000
G0 X17.086 Y23.231 
G1   Z-0.100F180.0
G1 X17.130 Y23.187 
G1 X17.235 Y23.121 
G1 X17.324 Y23.104 
G1 X17.410 Y23.126 
G1 X17.503 Y23.195 
G1 X17.572 Y23.283 
G1 X17.595 Y23.344 
G1 X17.585 Y23.421 
G1 X17.554 Y23.498 
G1 X17.505 Y23.560 
G1 X17.441 Y23.607 
G1 X17.346 Y23.646 
G1 X17.280 Y23.652 
G1 X17.219 Y23.629 
G1 X17.139 Y23.567 
G1 X17.055 Y23.458 
G1 X17.038 Y23.413 
G1 X17.032 Y23.367 
G1 X17.038 Y23.322 
G1 X17.055 Y23.277 
G1 X17.086 Y23.231 
G0   Z1.000
G0 X19.521 Y23.363 
G1   Z-0.100F180.0
G1 X19.536 Y23.264 
G1 X19.577 Y23.193 
G1 X19.648 Y23.143 
G1 X19.762 Y23.111 
G1 X19.838 Y23.105 
G1 X19.881 Y23.111 
G1 X19.919 Y23.133 
G1 X19.977 Y23.186 
G1 X20.053 Y23.282 
G1 X20.077 Y23.345 
G1 X20.071 Y23.391 
G1 X20.052 Y23.445 
G1 X19.975 Y23.555 
G1 X19.867 Y23.633 
G1 X19.814 Y23.652 
G1 X19.761 Y23.659 
G1 X19.730 Y23.653 
G1 X19.695 Y23.637 
G1 X19.608 Y23.561 
G1 X19.544 Y23.462 
G1 X19.521 Y23.363 
G0   Z1.000
G0 X22.151 Y19.584 
G1   Z-0.100F180.0
G1 X22.072 Y19.515 
G1 X22.019 Y19.451 
G1 X21.984 Y19.387 
G1 X21.964 Y19.323 
G1 X21.958 Y19.262 
G1 X21.982 Y19.132 
G1 X22.049 Y19.018 
G1 X22.151 Y18.929 
G1 X22.282 Y18.874 
G1 X22.348 Y18.865 
G1 X22.421 Y18.868 
G1 X22.497 Y18.886 
G1 X22.571 Y18.918 
G1 X22.650 Y18.982 
G1 X22.712 Y19.065 
G1 X22.757 Y19.187 
G1 X22.761 Y19.298 
G1 X22.728 Y19.403 
G1 X22.651 Y19.510 
G1 X22.576 Y19.580 
G1 X22.502 Y19.628 
G1 X22.432 Y19.656 
G1 X22.365 Y19.665 
G1 X22.298 Y19.657 
G1 X22.227 Y19.631 
G1 X22.151 Y19.584 
G0   Z1.000
G0 X21.731 Y20.007 
G1   Z-0.100F180.0
G1 X21.769 Y20.076 
G1 X21.784 Y20.161 
G1 X21.787 Y20.312 
G1  Y20.552 
G1 X19.687 Y22.666 
G1 X19.393 Y22.803 
G1 X17.752 Y22.805 
G1 X17.570 Y22.743 
G1 X17.381 Y22.699 
G1 X17.199 Y22.704 
G1 X17.030 Y22.763 
G1 X16.872 Y22.873 
G1 X16.758 Y23.000 
G1 X16.682 Y23.145 
G1 X16.645 Y23.300 
G1 X16.644 Y23.457 
G1 X16.680 Y23.610 
G1 X16.752 Y23.751 
G1 X16.860 Y23.874 
G1 X17.002 Y23.972 
G1 X17.172 Y24.023 
G1 X17.380 Y24.015 
G1 X17.587 Y23.986 
G1 X19.488 Y23.982 
G1 X19.715 Y24.013 
G1 X19.847 Y24.028 
G1 X19.955 Y24.024 
G1 X20.050 Y23.996 
G1 X20.149 Y23.943 
G1 X20.289 Y23.817 
G1 X20.399 Y23.656 
G1 X20.478 Y23.492 
G1 X22.759 Y21.219 
G1 X22.844 Y21.113 
G1 X22.894 Y21.030 
G1 X22.922 Y20.912 
G1 X22.937 Y20.502 
G1 X22.939 Y20.233 
G1 X22.955 Y20.092 
G1 X22.993 Y20.009 
G1 X23.081 Y19.902 
G1 X23.208 Y19.729 
G1 X23.293 Y19.542 
G1 X23.333 Y19.344 
G1 X23.327 Y19.137 
G1 X23.279 Y18.953 
G1 X23.195 Y18.767 
G1 X23.091 Y18.607 
G1 X22.981 Y18.505 
G1 X22.937 Y18.481 
G1  Y16.651 
G1 X20.772 Y14.480 
G1 X15.542 Y14.458 
G1 X13.853 Y12.770 
G1 X5.047 Y12.749 
G1 X5.002 Y12.708 
G1 X4.887 Y12.631 
G1 X4.740 Y12.566 
G1 X4.582 Y12.522 
G1 X4.428 Y12.506 
G1 X4.252 Y12.532 
G1 X4.072 Y12.591 
G1 X3.914 Y12.687 
G1 X3.784 Y12.816 
G1 X3.685 Y12.967 
G1 X3.617 Y13.135 
G1 X3.584 Y13.313 
G1 X3.587 Y13.494 
G1 X3.628 Y13.672 
G1 X3.710 Y13.839 
G1 X3.840 Y13.991 
G1 X3.999 Y14.106 
G1 X4.177 Y14.182 
G1 X4.366 Y14.218 
G1 X4.558 Y14.215 
G1 X4.745 Y14.172 
G1 X4.919 Y14.086 
G1 X5.065 Y13.961 
G1 X5.121 Y13.900 
G1 X13.355  
G1 X14.966 Y15.517 
G1 X15.216 Y15.650 
G1 X20.315  
G1 X21.787 Y17.131 
G1  Y18.448 
G1 X21.684 Y18.557 
G1 X21.559 Y18.710 
G1 X21.466 Y18.876 
G1 X21.407 Y19.049 
G1 X21.384 Y19.227 
G1 X21.397 Y19.405 
G1 X21.445 Y19.580 
G1 X21.529 Y19.748 
G1 X21.644 Y19.903 
G1 X21.731 Y20.007 
G0   Z1.000
G0 X4.773 Y11.037 
G1   Z-0.100F180.0
G1 X4.705 Y11.129 
G1 X4.614 Y11.196 
G1 X4.504 Y11.233 
G1 X4.383 Y11.234 
G1 X4.254 Y11.191 
G1 X4.176 Y11.133 
G1 X4.114 Y11.048 
G1 X4.073 Y10.943 
G1 X4.058 Y10.825 
G1 X4.063 Y10.771 
G1 X4.079 Y10.724 
G1 X4.173 Y10.596 
G1 X4.240 Y10.532 
G1 X4.289 Y10.500 
G1 X4.341 Y10.485 
G1 X4.422 Y10.480 
G1 X4.557 Y10.497 
G1 X4.647 Y10.532 
G1 X4.710 Y10.593 
G1 X4.768 Y10.677 
G1 X4.811 Y10.808 
G1 X4.811 Y10.928 
G1 X4.773 Y11.037 
G0   Z1.000
G0 X5.107 Y11.416 
G1   Z-0.100F180.0
G1 X8.067  
G1 X8.178 Y11.357 
G1 X8.307 Y11.263 
G1 X8.402 Y11.139 
G1 X8.458 Y10.999 
G1 X8.475 Y10.850 
G1 X8.454 Y10.702 
G1 X8.393 Y10.563 
G1 X8.294 Y10.441 
G1 X8.163 Y10.350 
G1 X8.000 Y10.267 
G1 X5.100 Y10.267 
G1 X4.970 Y10.179 
G1 X4.833 Y10.100 
G1 X4.681 Y10.038 
G1 X4.531 Y9.997 
G1 X4.393 Y9.985 
G1 X4.147 Y10.039 
G1 X3.972 Y10.129 
G1 X3.814 Y10.268 
G1 X3.687 Y10.439 
G1 X3.609 Y10.625 
G1 X3.577 Y10.852 
G1 X3.601 Y11.063 
G1 X3.683 Y11.260 
G1 X3.820 Y11.443 
G1 X3.951 Y11.563 
G1 X4.093 Y11.645 
G1 X4.253 Y11.689 
G1 X4.439 Y11.702 
G1 X4.609 Y11.693 
G1 X4.750 Y11.661 
G1 X4.880 Y11.595 
G1 X5.015 Y11.494 
G1 X5.107 Y11.416 
G0   Z1.000
G0 X5.798 Y2.817 
G1   Z-0.100F180.0
G1 X5.694 Y2.780 
G1 X5.603 Y2.713 
G1 X5.530 Y2.613 
G1 X5.496 Y2.530 
G1 X5.485 Y2.456 
G1 X5.495 Y2.383 
G1 X5.529 Y2.300 
G1 X5.575 Y2.226 
G1 X5.628 Y2.167 
G1 X5.687 Y2.121 
G1 X5.750 Y2.089 
G1 X5.817 Y2.071 
G1 X5.886 Y2.066 
G1 X5.958 Y2.076 
G1 X6.031 Y2.101 
G1 X6.119 Y2.151 
G1 X6.175 Y2.197 
G1 X6.220 Y2.273 
G1 X6.248 Y2.369 
G1 X6.254 Y2.473 
G1 X6.237 Y2.572 
G1 X6.185 Y2.677 
G1 X6.109 Y2.753 
G1 X6.015 Y2.803 
G1 X5.908 Y2.824 
G1 X5.798 Y2.817 
G0   Z1.000
G0 X6.243 Y3.305 
G1   Z-0.100F180.0
G1 X6.274 Y3.293 
G1 X6.407 Y3.283 
G1 X6.661 Y3.271 
G1 X6.673 Y3.269 
G1 X6.685 Y3.266 
G1 X6.697 Y3.261 
G1 X6.709 Y3.253 
G1 X6.719 Y3.244 
G1 X6.728 Y3.233 
G1 X6.734 Y3.222 
G1 X6.739 Y3.209 
G1 X6.742 Y3.197 
G1 X6.743 Y3.185 
G1  Y1.642 
G1 X6.742 Y1.629 
G1 X6.739 Y1.616 
G1 X6.734 Y1.603 
G1 X6.727 Y1.591 
G1 X6.718 Y1.580 
G1 X6.707 Y1.571 
G1 X6.695 Y1.564 
G1 X6.682 Y1.559 
G1 X6.669 Y1.556 
G1 X6.656 Y1.555 
G1 X5.070  
G1 X5.057 Y1.556 
G1 X5.044 Y1.559 
G1 X5.032 Y1.564 
G1 X5.019 Y1.571 
G1 X5.009 Y1.580 
G1 X4.999 Y1.591 
G1 X4.992 Y1.603 
G1 X4.987 Y1.616 
G1 X4.984 Y1.629 
G1 X4.983 Y1.642 
G1  Y3.184 
G1 X4.984 Y3.196 
G1 X4.987 Y3.208 
G1 X4.991 Y3.220 
G1 X4.998 Y3.231 
G1 X5.005 Y3.241 
G1 X5.014 Y3.250 
G1 X5.024 Y3.257 
G1 X5.065 Y3.282 
G1  Y4.137 
G1 X7.323 Y6.402 
G1 X7.495 Y6.454 
G1 X7.630 Y6.479 
G1 X7.763 Y6.474 
G1 X7.887 Y6.439 
G1 X7.995 Y6.375 
G1 X8.085 Y6.285 
G1 X8.152 Y6.174 
G1 X8.194 Y6.046 
G1 X8.208 Y5.906 
G1  Y5.660 
G1 X6.211 Y3.657 
G1 X6.222 Y3.455 
G1 X6.232 Y3.331 
G1 X6.243 Y3.305 
G0   Z1.000
G0 X8.027 Y2.546 
G1   Z-0.100F180.0
G1 X8.010 Y2.442 
G1 X8.027 Y2.340 
G1 X8.081 Y2.234 
G1 X8.179 Y2.129 
G1 X8.289 Y2.075 
G1 X8.414 Y2.066 
G1 X8.559 Y2.106 
G1 X8.650 Y2.161 
G1 X8.715 Y2.225 
G1 X8.759 Y2.329 
G1 X8.767 Y2.454 
G1 X8.738 Y2.580 
G1 X8.674 Y2.685 
G1 X8.603 Y2.749 
G1 X8.525 Y2.794 
G1 X8.445 Y2.819 
G1 X8.364 Y2.825 
G1 X8.286 Y2.811 
G1 X8.212 Y2.779 
G1 X8.144 Y2.728 
G1 X8.083 Y2.656 
G1 X8.027 Y2.546 
G0   Z1.000
G0 X16.922 Y2.435 
G1   Z-0.100F180.0
G1 X16.941 Y2.335 
G1 X16.993 Y2.231 
G1 X17.043 Y2.170 
G1 X17.100 Y2.122 
G1 X17.161 Y2.088 
G1 X17.225 Y2.067 
G1 X17.293 Y2.060 
G1 X17.363 Y2.066 
G1 X17.435 Y2.087 
G1 X17.504 Y2.122 
G1 X17.600 Y2.207 
G1 X17.668 Y2.312 
G1 X17.691 Y2.397 
G1 X17.690 Y2.485 
G1 X17.667 Y2.570 
G1 X17.625 Y2.649 
G1 X17.565 Y2.717 
G1 X17.491 Y2.770 
G1 X17.406 Y2.804 
G1 X17.312 Y2.816 
G1 X17.197 Y2.801 
G1 X17.100 Y2.761 
G1 X17.022 Y2.699 
G1 X16.964 Y2.622 
G1 X16.930 Y2.532 
G1 X16.922 Y2.435 
G0   Z1.000
G0 X27.856 Y8.157 
G1   Z-0.100F180.0
G1 X27.883 Y8.113 
G1 X27.944 Y8.053 
G1 X28.007 Y8.003 
G1 X28.060 Y7.975 
G1 X28.121 Y7.961 
G1 X28.207 Y7.956 
G1 X28.296 Y7.961 
G1 X28.350 Y7.975 
G1 X28.400 Y8.007 
G1 X28.469 Y8.074 
G1 X28.530 Y8.146 
G1 X28.562 Y8.200 
G1 X28.577 Y8.257 
G1 X28.582 Y8.332 
G1 X28.562 Y8.455 
G1 X28.511 Y8.554 
G1 X28.433 Y8.632 
G1 X28.335 Y8.687 
G1 X28.226 Y8.714 
G1 X28.115 Y8.710 
G1 X28.010 Y8.673 
G1 X27.913 Y8.598 
G1 X27.877 Y8.553 
G1 X27.857 Y8.509 
G1 X27.840 Y8.329 
G1 X27.843 Y8.218 
G1 X27.856 Y8.157 
G0   Z1.000
G0 X27.558 Y7.743 
G1   Z-0.100F180.0
G1 X23.435  
G1 X18.180 Y2.476 
G1 X18.157 Y2.319 
G1 X18.110 Y2.131 
G1 X18.024 Y1.963 
G1 X17.901 Y1.820 
G1 X17.744 Y1.706 
G1 X17.629 Y1.644 
G1 X17.518 Y1.608 
G1 X17.253 Y1.603 
G1 X17.104 Y1.617 
G1 X16.987 Y1.644 
G1 X16.885 Y1.692 
G1 X16.784 Y1.763 
G1 X16.644 Y1.901 
G1 X16.537 Y2.053 
G1 X16.481 Y2.221 
G1 X16.460 Y2.414 
G1 X16.471 Y2.610 
G1 X16.518 Y2.784 
G1 X16.570 Y2.886 
G1 X16.638 Y2.980 
G1 X16.809 Y3.131 
G1 X17.034 Y3.245 
G1 X17.303 Y3.320 
G1 X17.348 Y3.329 
G1 X21.817 Y7.743 
G1 X14.280  
G1 X9.250 Y2.709 
G1 X9.247 Y2.462 
G1 X9.242 Y2.306 
G1 X9.222 Y2.183 
G1 X9.182 Y2.077 
G1 X9.116 Y1.970 
G1 X8.976 Y1.809 
G1 X8.807 Y1.691 
G1 X8.614 Y1.619 
G1 X8.401 Y1.596 
G1 X8.194 Y1.616 
G1 X8.025 Y1.667 
G1 X7.895 Y1.744 
G1 X7.793 Y1.829 
G1 X7.709 Y1.930 
G1 X7.639 Y2.050 
G1 X7.567 Y2.215 
G1 X7.531 Y2.365 
G1 X7.535 Y2.514 
G1 X7.573 Y2.679 
G1 X7.641 Y2.855 
G1 X7.737 Y3.004 
G1 X7.863 Y3.124 
G1 X8.016 Y3.217 
G1 X8.154 Y3.284 
G1 X13.755 Y8.875 
G1 X14.064 Y8.933 
G1 X27.540  
G1 X27.728 Y9.050 
G1 X27.871 Y9.125 
G1 X28.021 Y9.174 
G1 X28.171 Y9.195 
G1 X28.320 Y9.188 
G1 X28.465 Y9.153 
G1 X28.602 Y9.090 
G1 X28.731 Y9.001 
G1 X28.848 Y8.886 
G1 X28.937 Y8.769 
G1 X29.003 Y8.646 
G1 X29.045 Y8.517 
G1 X29.064 Y8.384 
G1 X29.058 Y8.249 
G1 X29.028 Y8.114 
G1 X28.974 Y7.980 
G1 X28.897 Y7.844 
G1 X28.762 Y7.694 
G1 X28.586 Y7.572 
G1 X28.390 Y7.488 
G1 X28.191 Y7.457 
G1 X28.036 Y7.489 
G1 X27.849 Y7.558 
G1 X27.677 Y7.643 
G1 X27.569 Y7.725 
G1 X27.558 Y7.743 
G0   Z1.000
G0 X28.887 Y2.798 
G1   Z-0.100F180.0
G1 X28.769 Y2.747 
G1 X28.678 Y2.677 
G1 X28.627 Y2.602 
G1 X28.597 Y2.468 
G1 X28.609 Y2.343 
G1 X28.655 Y2.235 
G1 X28.729 Y2.149 
G1 X28.824 Y2.088 
G1 X28.934 Y2.060 
G1 X29.054 Y2.069 
G1 X29.182 Y2.122 
G1 X29.270 Y2.189 
G1 X29.321 Y2.248 
G1 X29.344 Y2.329 
G1 X29.355 Y2.456 
G1 X29.348 Y2.526 
G1 X29.327 Y2.592 
G1 X29.293 Y2.654 
G1 X29.249 Y2.708 
G1 X29.196 Y2.754 
G1 X29.137 Y2.788 
G1 X29.074 Y2.809 
G1 X29.010 Y2.816 
G1 X28.887 Y2.798 
G0   Z1.000
G0 X20.195 Y2.478 
G1   Z-0.100F180.0
G1 X20.176 Y2.568 
G1 X20.136 Y2.649 
G1 X20.078 Y2.717 
G1 X20.004 Y2.770 
G1 X19.915 Y2.804 
G1 X19.810 Y2.817 
G1 X19.724 Y2.813 
G1 X19.670 Y2.798 
G1 X19.620 Y2.766 
G1 X19.554 Y2.701 
G1 X19.459 Y2.573 
G1 X19.443 Y2.527 
G1 X19.438 Y2.473 
G1 X19.454 Y2.348 
G1 X19.499 Y2.242 
G1 X19.566 Y2.160 
G1 X19.655 Y2.104 
G1 X19.763 Y2.067 
G1 X19.851 Y2.058 
G1 X19.931 Y2.074 
G1 X20.018 Y2.116 
G1 X20.105 Y2.193 
G1 X20.165 Y2.284 
G1 X20.192 Y2.382 
G1 X20.195 Y2.478 
G0   Z1.000
G0 X11.287 Y2.478 
G1   Z-0.100F180.0
G1 X11.260 Y2.587 
G1 X11.203 Y2.683 
G1 X11.139 Y2.745 
G1 X11.068 Y2.790 
G1 X10.993 Y2.817 
G1 X10.916 Y2.826 
G1 X10.839 Y2.817 
G1 X10.762 Y2.791 
G1 X10.687 Y2.747 
G1 X10.618 Y2.684 
G1 X10.568 Y2.611 
G1 X10.538 Y2.532 
G1 X10.528 Y2.447 
G1 X10.537 Y2.361 
G1 X10.564 Y2.280 
G1 X10.608 Y2.207 
G1 X10.667 Y2.148 
G1 X10.743 Y2.104 
G1 X10.844 Y2.068 
G1 X10.919 Y2.059 
G1 X10.992 Y2.073 
G1 X11.089 Y2.114 
G1 X11.188 Y2.183 
G1 X11.247 Y2.254 
G1 X11.283 Y2.362 
G1 X11.287 Y2.478 
G0   Z1.000
G0 X27.238 Y34.230 
G1   Z-0.100F180.0
G1 X27.395 Y34.195 
G1 X27.486 Y34.201 
G1 X27.636 Y34.272 
G1 X27.693 Y34.318 
G1 X27.739 Y34.375 
G1 X27.773 Y34.439 
G1 X27.794 Y34.509 
G1 X27.803 Y34.581 
G1 X27.797 Y34.653 
G1 X27.778 Y34.723 
G1 X27.744 Y34.789 
G1 X27.673 Y34.875 
G1 X27.595 Y34.930 
G1 X27.499 Y34.963 
G1 X27.375 Y34.975 
G1 X27.262 Y34.958 
G1 X27.168 Y34.913 
G1 X27.092 Y34.844 
G1 X27.037 Y34.756 
G1 X27.006 Y34.656 
G1 X27.003 Y34.551 
G1 X27.030 Y34.448 
G1 X27.091 Y34.349 
G1 X27.172 Y34.270 
G1 X27.238 Y34.230 
G0   Z1.000
G0 X31.916 Y39.830 
G1   Z-0.100F180.0
G1 X32.007 Y39.759 
G1 X32.092 Y39.725 
G1 X32.172 Y39.713 
G1 X32.250 Y39.721 
G1 X32.326 Y39.750 
G1 X32.400 Y39.809 
G1 X32.471 Y39.901 
G1 X32.509 Y39.991 
G1 X32.510 Y40.068 
G1 X32.476 Y40.155 
G1 X32.391 Y40.267 
G1 X32.335 Y40.323 
G1 X32.293 Y40.350 
G1 X32.245 Y40.364 
G1 X32.173 Y40.368 
G1 X32.055 Y40.347 
G1 X31.965 Y40.294 
G1 X31.898 Y40.215 
G1 X31.857 Y40.118 
G1 X31.845 Y40.015 
G1 X31.865 Y39.916 
G1 X31.916 Y39.830 
G0   Z1.000
G0 X31.309 Y39.307 
G1   Z-0.100F180.0
G1  Y40.805 
G1 X31.309 Y40.816 
G1 X31.312 Y40.828 
G1 X31.316 Y40.840 
G1 X31.322 Y40.851 
G1 X31.330 Y40.861 
G1 X31.339 Y40.871 
G1 X31.350 Y40.878 
G1 X31.361 Y40.884 
G1 X31.373 Y40.888 
G1 X31.385 Y40.890 
G1 X31.396 Y40.891 
G1 X32.906 Y40.869 
G1 X32.918 Y40.868 
G1 X32.931 Y40.865 
G1 X32.943 Y40.860 
G1 X32.955 Y40.852 
G1 X32.966 Y40.843 
G1 X32.975 Y40.832 
G1 X32.982 Y40.820 
G1 X32.987 Y40.808 
G1 X32.990 Y40.795 
G1 X32.991 Y40.783 
G1 X32.991 Y39.276 
G1 X32.990 Y39.264 
G1 X32.988 Y39.252 
G1 X32.983 Y39.240 
G1 X32.977 Y39.229 
G1 X32.969 Y39.218 
G1 X32.959 Y39.209 
G1 X32.949 Y39.202 
G1 X32.937 Y39.196 
G1 X32.925 Y39.192 
G1 X32.914 Y39.190 
G1 X32.796 Y39.178 
G1 X32.743 Y39.164 
G1  Y39.120 
G1 X28.384 Y34.756 
G1 X28.369 Y34.548 
G1 X28.330 Y34.339 
G1 X28.253 Y34.135 
G1 X28.148 Y33.962 
G1 X28.026 Y33.851 
G1 X27.982 Y33.828 
G1  Y30.193 
G1 X33.917 Y24.263 
G1 X34.004 Y24.042 
G1  Y16.433 
G1 X33.899 Y16.225 
G1 X31.771 Y14.083 
G1 X31.758 Y4.664 
G1 X31.678 Y4.345 
G1 X29.854 Y2.522 
G1  Y2.436 
G1 X29.824 Y2.261 
G1 X29.746 Y2.068 
G1 X29.638 Y1.890 
G1 X29.511 Y1.754 
G1 X29.332 Y1.658 
G1 X29.130 Y1.601 
G1 X28.946 Y1.571 
G1 X27.845 Y0.480 
G1 X27.637 Y0.375 
G1 X12.224 Y0.375 
G1 X11.992 Y0.537 
G1 X10.952 Y1.596 
G1 X10.829  
G1 X10.673 Y1.615 
G1 X10.529 Y1.663 
G1 X10.425 Y1.728 
G1 X10.330 Y1.812 
G1 X10.176 Y2.009 
G1 X10.070 Y2.236 
G1 X10.039 Y2.358 
G1 X10.028 Y2.482 
G1 X10.065 Y2.643 
G1 X10.150 Y2.829 
G1 X10.259 Y3.003 
G1 X10.376 Y3.128 
G1 X10.534 Y3.213 
G1 X10.713 Y3.278 
G1 X10.908 Y3.304 
G1 X11.100 Y3.281 
G1 X11.281 Y3.214 
G1 X11.444 Y3.112 
G1 X11.583 Y2.977 
G1 X11.692 Y2.817 
G1 X11.763 Y2.634 
G1 X11.788 Y2.440 
G1 X11.788 Y2.388 
G1 X12.629 Y1.550 
G1 X19.889 Y1.514 
G1 X19.789 Y1.572 
G1 X19.690 Y1.597 
G1 X19.608 Y1.606 
G1 X19.508 Y1.637 
G1 X19.325 Y1.742 
G1 X19.159 Y1.897 
G1 X19.027 Y2.091 
G1 X18.978 Y2.259 
G1 X18.970 Y2.459 
G1 X18.998 Y2.664 
G1 X19.063 Y2.846 
G1 X19.136 Y2.966 
G1 X19.224 Y3.066 
G1 X19.324 Y3.147 
G1 X19.433 Y3.211 
G1 X19.549 Y3.256 
G1 X19.673 Y3.285 
G1 X19.914 Y3.290 
G1 X20.038 Y3.268 
G1 X20.156 Y3.229 
G1 X20.267 Y3.175 
G1 X20.370 Y3.105 
G1 X20.463 Y3.018 
G1 X20.542 Y2.916 
G1 X20.605 Y2.800 
G1 X20.649 Y2.669 
G1 X20.699 Y2.392 
G1  Y2.345 
G1 X21.531 Y1.524 
G1 X27.222  
G1 X28.090 Y2.382 
G1 X28.113 Y2.524 
G1 X28.144 Y2.661 
G1 X28.194 Y2.790 
G1 X28.261 Y2.908 
G1 X28.345 Y3.012 
G1 X28.444 Y3.103 
G1 X28.559 Y3.180 
G1 X28.686 Y3.241 
G1 X28.824 Y3.285 
G1 X28.988 Y3.327 
G1 X30.576 Y4.905 
G1  Y14.394 
G1 X30.660 Y14.615 
G1 X32.814 Y16.755 
G1  Y23.730 
G1 X26.813 Y29.735 
G1 X26.790 Y33.821 
G1 X26.683 Y33.943 
G1 X26.570 Y34.092 
G1 X26.488 Y34.250 
G1 X26.441 Y34.416 
G1 X26.426 Y34.595 
G1 X26.445 Y34.787 
G1 X26.500 Y34.967 
G1 X26.588 Y35.130 
G1 X26.704 Y35.272 
G1 X26.845 Y35.390 
G1 X27.006 Y35.479 
G1 X27.185 Y35.536 
G1 X27.372 Y35.556 
G1 X27.535 Y35.556 
G1 X31.309 Y39.307 
G0   Z1.000
G0 X15.000 Y2.765 
G1   Z-0.100F180.0
G1 X14.914 Y2.803 
G1 X14.801 Y2.816 
G1 X14.665 Y2.798 
G1 X14.559 Y2.747 
G1 X14.479 Y2.666 
G1 X14.426 Y2.553 
G1 X14.409 Y2.432 
G1 X14.430 Y2.322 
G1 X14.482 Y2.225 
G1 X14.560 Y2.145 
G1 X14.655 Y2.090 
G1 X14.760 Y2.065 
G1 X14.870 Y2.072 
G1 X14.980 Y2.119 
G1 X15.073 Y2.198 
G1 X15.144 Y2.292 
G1 X15.181 Y2.375 
G1 X15.191 Y2.436 
G1 X15.180 Y2.499 
G1 X15.140 Y2.590 
G1 X15.072 Y2.699 
G1 X15.000 Y2.765 
G0   Z1.000
G0 X14.936 Y3.293 
G1   Z-0.100F180.0
G1 X14.975 Y4.089 
G1 X15.086 Y4.280 
G1 X17.452 Y6.637 
G1 X17.597 Y6.691 
G1 X17.759 Y6.726 
G1 X17.920 Y6.713 
G1 X18.067 Y6.656 
G1 X18.192 Y6.562 
G1 X18.289 Y6.440 
G1 X18.350 Y6.294 
G1 X18.370 Y6.132 
G1 X18.341 Y5.969 
G1 X18.288 Y5.808 
G1 X16.101 Y3.621 
G1  Y2.257 
G1 X15.996 Y2.110 
G1 X15.883 Y1.997 
G1 X15.748 Y1.913 
G1 X15.682 Y1.881 
G1 X15.665 Y1.866 
G1 X15.657 Y1.846 
G1 X15.654 Y1.783 
G1  Y1.642 
G1 X15.653 Y1.629 
G1 X15.650 Y1.616 
G1 X15.645 Y1.603 
G1 X15.638 Y1.591 
G1 X15.628 Y1.580 
G1 X15.617 Y1.571 
G1 X15.605 Y1.564 
G1 X15.593 Y1.559 
G1 X15.580 Y1.556 
G1 X15.567 Y1.555 
G1 X14.021  
G1 X14.009 Y1.556 
G1 X13.996 Y1.559 
G1 X13.983 Y1.564 
G1 X13.971 Y1.571 
G1 X13.960 Y1.580 
G1 X13.951 Y1.591 
G1 X13.944 Y1.603 
G1 X13.938 Y1.616 
G1 X13.936 Y1.629 
G1 X13.935 Y1.642 
G1  Y3.186 
G1 X13.936 Y3.198 
G1 X13.938 Y3.211 
G1 X13.943 Y3.224 
G1 X13.950 Y3.236 
G1 X13.959 Y3.246 
G1 X13.970 Y3.256 
G1 X13.982 Y3.263 
G1 X13.994 Y3.268 
G1 X14.007 Y3.271 
G1 X14.019 Y3.272 
G1 X14.936 Y3.293 
G0   Z1.000
G0 X23.572 Y2.527 
G1   Z-0.100F180.0
G1 X23.568 Y2.439 
G1 X23.572 Y2.353 
G1 X23.586 Y2.298 
G1 X23.614 Y2.250 
G1 X23.665 Y2.192 
G1 X23.765 Y2.119 
G1 X23.882 Y2.075 
G1 X24.000 Y2.063 
G1 X24.100 Y2.085 
G1 X24.158 Y2.121 
G1 X24.216 Y2.173 
G1 X24.289 Y2.279 
G1 X24.323 Y2.388 
G1 X24.325 Y2.494 
G1 X24.297 Y2.594 
G1 X24.242 Y2.682 
G1 X24.162 Y2.752 
G1 X24.059 Y2.799 
G1 X23.931 Y2.817 
G1 X23.873 Y2.811 
G1 X23.824 Y2.795 
G1 X23.689 Y2.698 
G1 X23.620 Y2.629 
G1 X23.587 Y2.580 
G1 X23.572 Y2.527 
G0   Z1.000
G0 X23.601 Y3.292 
G1   Z-0.100F180.0
G1 X23.640 Y4.577 
G1 X23.752 Y4.768 
G1 X25.281 Y6.287 
G1 X27.119  
G1 X27.316 Y6.103 
G1 X27.419 Y6.002 
G1 X27.484 Y5.906 
G1 X27.510 Y5.793 
G1 X27.514 Y5.650 
G1 X27.510 Y5.510 
G1 X27.488 Y5.403 
G1 X27.431 Y5.316 
G1 X27.344 Y5.236 
G1 X27.223 Y5.148 
G1 X27.100 Y5.096 
G1 X26.968 Y5.085 
G1 X26.822 Y5.106 
G1 X26.686 Y5.136 
G1 X25.794 Y5.137 
G1 X24.766 Y4.107 
G1 X24.821 Y1.643 
G1 X24.821 Y1.632 
G1 X24.819 Y1.620 
G1 X24.815 Y1.608 
G1 X24.809 Y1.597 
G1 X24.801 Y1.586 
G1 X24.792 Y1.577 
G1 X24.782 Y1.569 
G1 X24.770 Y1.563 
G1 X24.758 Y1.558 
G1 X24.747 Y1.556 
G1 X24.735 Y1.555 
G1 X23.135  
G1 X23.123 Y1.556 
G1 X23.110 Y1.559 
G1 X23.097 Y1.564 
G1 X23.085 Y1.571 
G1 X23.074 Y1.580 
G1 X23.065 Y1.591 
G1 X23.058 Y1.603 
G1 X23.053 Y1.616 
G1 X23.050 Y1.629 
G1 X23.049 Y1.642 
G1  Y3.185 
G1 X23.050 Y3.197 
G1 X23.052 Y3.209 
G1 X23.057 Y3.222 
G1 X23.064 Y3.234 
G1 X23.073 Y3.244 
G1 X23.083 Y3.254 
G1 X23.095 Y3.261 
G1 X23.107 Y3.266 
G1 X23.119 Y3.270 
G1 X23.131 Y3.271 
G1 X23.601 Y3.292 
G0   Z1.000
G0 X26.109 Y2.586 
G1   Z-0.100F180.0
G1 X26.082 Y2.486 
G1 X26.087 Y2.381 
G1 X26.125 Y2.276 
G1 X26.202 Y2.177 
G1 X26.294 Y2.114 
G1 X26.410 Y2.075 
G1 X26.528 Y2.065 
G1 X26.625 Y2.086 
G1 X26.690 Y2.130 
G1 X26.761 Y2.203 
G1 X26.814 Y2.307 
G1 X26.833 Y2.448 
G1 X26.828 Y2.529 
G1 X26.813 Y2.584 
G1 X26.782 Y2.635 
G1 X26.720 Y2.704 
G1 X26.654 Y2.764 
G1 X26.602 Y2.796 
G1 X26.553 Y2.812 
G1 X26.489 Y2.816 
G1 X26.355 Y2.798 
G1 X26.248 Y2.749 
G1 X26.165 Y2.676 
G1 X26.109 Y2.586 
G0   Z1.000
G0 X28.109 Y13.002 
G1   Z-0.100F180.0
G1 X28.207 Y12.983 
G1 X28.306 Y12.990 
G1 X28.380 Y13.030 
G1 X28.478 Y13.120 
G1 X28.564 Y13.254 
G1 X28.582 Y13.311 
G1 X28.587 Y13.369 
G1 X28.580 Y13.428 
G1 X28.560 Y13.486 
G1 X28.466 Y13.623 
G1 X28.399 Y13.689 
G1 X28.351 Y13.722 
G1 X28.297 Y13.736 
G1 X28.206 Y13.740 
G1 X28.127 Y13.734 
G1 X28.058 Y13.716 
G1 X27.999 Y13.687 
G1 X27.949 Y13.649 
G1 X27.906 Y13.600 
G1 X27.871 Y13.540 
G1 X27.846 Y13.469 
G1 X27.830 Y13.384 
G1 X27.824 Y13.296 
G1 X27.832 Y13.247 
G1 X27.858 Y13.201 
G1 X27.921 Y13.129 
G1 X28.015 Y13.049 
G1 X28.109 Y13.002 
G0   Z1.000
G0 X22.484 Y34.215 
G1   Z-0.100F180.0
G1 X22.585 Y34.268 
G1 X22.678 Y34.357 
G1 X22.752 Y34.494 
G1 X22.766 Y34.556 
G1 X22.769 Y34.620 
G1 X22.759 Y34.682 
G1 X22.737 Y34.744 
G1 X22.701 Y34.805 
G1 X22.650 Y34.864 
G1 X22.581 Y34.928 
G1 X22.529 Y34.958 
G1 X22.467 Y34.972 
G1 X22.363 Y34.977 
G1 X22.261 Y34.973 
G1 X22.200 Y34.960 
G1 X22.153 Y34.935 
G1 X22.098 Y34.886 
G1 X22.018 Y34.786 
G1 X21.978 Y34.691 
G1 X21.972 Y34.589 
G1 X22.001 Y34.466 
G1 X22.035 Y34.391 
G1 X22.079 Y34.327 
G1 X22.131 Y34.276 
G1 X22.190 Y34.238 
G1 X22.256 Y34.212 
G1 X22.329 Y34.199 
G1 X22.407 Y34.200 
G1 X22.484 Y34.215 
G0   Z1.000
G0 X29.422 Y39.861 
G1   Z-0.100F180.0
G1 X29.483 Y39.790 
G1 X29.559 Y39.740 
G1 X29.644 Y39.714 
G1 X29.736 Y39.715 
G1 X29.829 Y39.743 
G1 X29.924 Y39.807 
G1 X29.978 Y39.861 
G1 X30.007 Y39.904 
G1 X30.020 Y39.951 
G1 X30.025 Y40.019 
G1 X30.007 Y40.127 
G1 X29.957 Y40.224 
G1 X29.880 Y40.304 
G1 X29.782 Y40.360 
G1 X29.721 Y40.373 
G1 X29.654 Y40.367 
G1 X29.583 Y40.344 
G1 X29.514 Y40.304 
G1 X29.453 Y40.252 
G1 X29.406 Y40.192 
G1 X29.377 Y40.129 
G1 X29.366 Y40.065 
G1 X29.381 Y39.954 
G1 X29.422 Y39.861 
G0   Z1.000
G0 X4.689 Y8.626 
G1   Z-0.100F180.0
G1 X4.616 Y8.678 
G1 X4.519 Y8.709 
G1 X4.393 Y8.719 
G1 X4.332 Y8.712 
G1 X4.276 Y8.692 
G1 X4.161 Y8.606 
G1 X4.120 Y8.554 
G1 X4.086 Y8.493 
G1 X4.065 Y8.427 
G1 X4.058 Y8.362 
G1 X4.072 Y8.249 
G1 X4.111 Y8.152 
G1 X4.169 Y8.073 
G1 X4.244 Y8.013 
G1 X4.331 Y7.974 
G1 X4.427 Y7.959 
G1 X4.528 Y7.970 
G1 X4.629 Y8.009 
G1 X4.707 Y8.072 
G1 X4.769 Y8.155 
G1 X4.806 Y8.254 
G1 X4.816 Y8.351 
G1 X4.798 Y8.447 
G1 X4.751 Y8.548 
G1 X4.689 Y8.626 
G0   Z1.000
G0 X5.319 Y8.933 
G1   Z-0.100F180.0
G1 X10.849  
G1 X15.765 Y13.820 
G1 X15.888 Y13.898 
G1 X27.321 Y13.900 
G1  Y14.180 
G1 X27.322 Y14.192 
G1 X27.325 Y14.205 
G1 X27.330 Y14.218 
G1 X27.337 Y14.230 
G1 X27.346 Y14.241 
G1 X27.357 Y14.250 
G1 X27.369 Y14.257 
G1 X27.382 Y14.262 
G1 X27.395 Y14.265 
G1 X27.407 Y14.266 
G1 X28.289  
G1 X31.349 Y17.332 
G1  Y21.243 
G1 X21.895 Y30.676 
G1 X21.787 Y30.884 
G1  Y33.791 
G1 X21.726 Y33.846 
G1 X21.627 Y33.963 
G1 X21.520 Y34.125 
G1 X21.452 Y34.271 
G1 X21.412 Y34.428 
G1 X21.399 Y34.590 
G1 X21.411 Y34.752 
G1 X21.449 Y34.911 
G1 X21.512 Y35.063 
G1 X21.599 Y35.203 
G1 X21.701 Y35.318 
G1 X21.765 Y35.402 
G1 X21.790 Y35.479 
G1 X21.807 Y35.583 
G1 X21.853 Y35.701 
G1 X21.920 Y35.827 
G1 X23.222 Y37.123 
G1 X25.968 Y37.146 
G1 X28.867 Y40.044 
G1  Y40.113 
G1 X28.883 Y40.237 
G1 X28.926 Y40.363 
G1 X28.993 Y40.481 
G1 X29.079 Y40.590 
G1 X29.181 Y40.686 
G1 X29.297 Y40.767 
G1 X29.423 Y40.829 
G1 X29.558 Y40.869 
G1 X29.755 Y40.878 
G1 X29.946 Y40.837 
G1 X30.120 Y40.753 
G1 X30.272 Y40.633 
G1 X30.396 Y40.485 
G1 X30.485 Y40.313 
G1 X30.532 Y40.124 
G1 X30.528 Y39.927 
G1 X30.492 Y39.784 
G1 X30.434 Y39.652 
G1 X30.355 Y39.532 
G1 X30.260 Y39.427 
G1 X30.152 Y39.339 
G1 X30.032 Y39.271 
G1 X29.903 Y39.227 
G1 X29.773 Y39.211 
G1 X29.701 Y39.211 
G1 X26.625 Y36.127 
G1 X26.375 Y35.994 
G1 X23.762  
G1 X23.054 Y35.288 
G1 X23.127 Y35.197 
G1 X23.225 Y35.052 
G1 X23.295 Y34.895 
G1 X23.335 Y34.732 
G1 X23.344 Y34.566 
G1 X23.322 Y34.401 
G1 X23.270 Y34.239 
G1 X23.188 Y34.083 
G1 X23.080 Y33.939 
G1 X22.937 Y33.776 
G1  Y31.292 
G1 X32.366 Y21.864 
G1 X32.499 Y21.614 
G1  Y16.978 
G1 X32.408 Y16.739 
G1 X30.259 Y14.612 
G1 X30.261 Y5.415 
G1 X27.336 Y2.477 
G1 X27.317 Y2.320 
G1 X27.267 Y2.136 
G1 X27.169 Y1.954 
G1 X27.037 Y1.797 
G1 X26.879 Y1.680 
G1 X26.688 Y1.616 
G1 X26.452 Y1.597 
G1 X26.242 Y1.612 
G1 X26.090 Y1.650 
G1 X25.945 Y1.749 
G1 X25.828 Y1.866 
G1 X25.735 Y2.001 
G1 X25.666 Y2.149 
G1 X25.624 Y2.305 
G1 X25.610 Y2.467 
G1 X25.626 Y2.629 
G1 X25.673 Y2.786 
G1 X25.731 Y2.893 
G1 X25.811 Y2.993 
G1 X26.007 Y3.157 
G1 X26.240 Y3.271 
G1 X26.366 Y3.304 
G1 X26.485 Y3.315 
G1 X26.532 Y3.315 
G1 X29.111 Y5.888 
G1  Y13.445 
G1 X29.095 Y13.375 
G1 X29.072 Y13.034 
G1 X29.060 Y12.610 
G1 X29.059 Y12.598 
G1 X29.056 Y12.585 
G1 X29.051 Y12.573 
G1 X29.044 Y12.561 
G1 X29.035 Y12.551 
G1 X29.024 Y12.542 
G1 X29.012 Y12.535 
G1 X29.000 Y12.530 
G1 X28.987 Y12.527 
G1 X28.975 Y12.526 
G1 X27.414 Y12.504 
G1 X27.402 Y12.505 
G1 X27.390 Y12.507 
G1 X27.378 Y12.511 
G1 X27.367 Y12.517 
G1 X27.356 Y12.525 
G1 X27.347 Y12.535 
G1 X27.339 Y12.546 
G1 X27.333 Y12.557 
G1 X27.329 Y12.569 
G1 X27.327 Y12.580 
G1 X27.310 Y12.730 
G1 X16.315 Y12.750 
G1 X11.404 Y7.840 
G1 X11.142 Y7.743 
G1 X5.319  
G1  Y7.585 
G1 X5.318 Y7.572 
G1 X5.315 Y7.560 
G1 X5.310 Y7.547 
G1 X5.303 Y7.535 
G1 X5.293 Y7.524 
G1 X5.283 Y7.515 
G1 X5.271 Y7.507 
G1 X5.258 Y7.502 
G1 X5.245 Y7.499 
G1 X5.232 Y7.499 
G1 X3.686  
G1 X3.674 Y7.499 
G1 X3.661 Y7.502 
G1 X3.648 Y7.507 
G1 X3.636 Y7.515 
G1 X3.625 Y7.524 
G1 X3.616 Y7.535 
G1 X3.609 Y7.547 
G1 X3.604 Y7.560 
G1 X3.601 Y7.572 
G1 X3.600 Y7.585 
G1  Y9.132 
G1 X3.601 Y9.144 
G1 X3.604 Y9.157 
G1 X3.609 Y9.170 
G1 X3.616 Y9.182 
G1 X3.625 Y9.193 
G1 X3.636 Y9.202 
G1 X3.648 Y9.209 
G1 X3.661 Y9.214 
G1 X3.674 Y9.217 
G1 X3.686 Y9.218 
G1 X5.232  
G1 X5.245 Y9.217 
G1 X5.258 Y9.214 
G1 X5.271 Y9.209 
G1 X5.283 Y9.202 
G1 X5.293 Y9.193 
G1 X5.303 Y9.182 
G1 X5.310 Y9.170 
G1 X5.315 Y9.157 
G1 X5.318 Y9.144 
G1 X5.319 Y9.132 
G1  Y8.933 
G0   Z1.000
G0 X31.190 Y2.547 
G1   Z-0.100F180.0
G1 X31.162 Y2.381 
G1 X31.151 Y2.213 
G1 X31.158 Y2.043 
G1 X31.183 Y1.876 
G1 X31.227 Y1.711 
G1 X31.288 Y1.551 
G1 X31.369 Y1.399 
G1 X31.468 Y1.255 
G1 X31.586 Y1.122 
G1 X31.725 Y1.000 
G1 X31.883 Y0.896 
G1 X32.055 Y0.811 
G1 X32.238 Y0.746 
G1 X32.427 Y0.702 
G1 X32.620 Y0.681 
G1 X32.810 Y0.682 
G1 X32.994 Y0.708 
G1 X33.166 Y0.764 
G1 X33.356 Y0.851 
G1 X33.503 Y0.941 
G1 X33.635 Y1.045 
G1 X33.754 Y1.161 
G1 X33.858 Y1.287 
G1 X33.947 Y1.422 
G1 X34.021 Y1.565 
G1 X34.080 Y1.714 
G1 X34.122 Y1.868 
G1 X34.149 Y2.025 
G1 X34.159 Y2.184 
G1 X34.152 Y2.343 
G1 X34.128 Y2.502 
G1 X34.087 Y2.658 
G1 X34.029 Y2.810 
G1 X33.952 Y2.958 
G1 X33.858 Y3.098 
G1 X33.663 Y3.311 
G1 X33.443 Y3.478 
G1 X33.202 Y3.598 
G1 X32.945 Y3.672 
G1 X32.677 Y3.698 
G1 X32.403 Y3.675 
G1 X32.129 Y3.602 
G1 X31.859 Y3.476 
G1 X31.715 Y3.381 
G1 X31.587 Y3.270 
G1 X31.475 Y3.146 
G1 X31.379 Y3.010 
G1 X31.299 Y2.863 
G1 X31.236 Y2.708 
G1 X31.190 Y2.547 
G0   Z1.000
G0 X30.792 Y2.734 
G1   Z-0.100F180.0
G1 X30.859 Y2.913 
G1 X30.941 Y3.087 
G1 X31.038 Y3.251 
G1 X31.148 Y3.404 
G1 X31.269 Y3.540 
G1 X31.414 Y3.672 
G1 X31.567 Y3.788 
G1 X31.727 Y3.886 
G1 X31.892 Y3.969 
G1 X32.063 Y4.034 
G1 X32.237 Y4.082 
G1 X32.413 Y4.114 
G1 X32.592 Y4.129 
G1 X32.770 Y4.127 
G1 X32.948 Y4.107 
G1 X33.124 Y4.071 
G1 X33.296 Y4.017 
G1 X33.465 Y3.947 
G1 X33.628 Y3.859 
G1 X33.785 Y3.754 
G1 X33.934 Y3.632 
G1 X34.087 Y3.482 
G1 X34.219 Y3.323 
G1 X34.331 Y3.157 
G1 X34.423 Y2.981 
G1 X34.494 Y2.797 
G1 X34.544 Y2.604 
G1 X34.574 Y2.402 
G1 X34.584 Y2.191 
G1 X34.574 Y1.991 
G1 X34.544 Y1.797 
G1 X34.496 Y1.610 
G1 X34.430 Y1.431 
G1 X34.348 Y1.261 
G1 X34.250 Y1.100 
G1 X34.138 Y0.951 
G1 X34.012 Y0.813 
G1 X33.873 Y0.688 
G1 X33.722 Y0.577 
G1 X33.561 Y0.481 
G1 X33.390 Y0.400 
G1 X33.210 Y0.337 
G1 X33.023 Y0.290 
G1 X32.829 Y0.263 
G1 X32.628 Y0.255 
G1 X32.386 Y0.275 
G1 X32.149 Y0.320 
G1 X31.850 Y0.429 
G1 X31.575 Y0.587 
G1 X31.329 Y0.787 
G1 X31.116 Y1.022 
G1 X30.942 Y1.286 
G1 X30.812 Y1.573 
G1 X30.729 Y1.877 
G1 X30.701 Y2.190 
G1 X30.712 Y2.370 
G1 X30.743 Y2.552 
G1 X30.792 Y2.734 
G0   Z1.000
G0 X34.635 Y0.181 
G1   Z-0.100F180.0
G1 X34.691 Y12.735 
G1 X34.665 Y42.284 
G1 X0.480 Y42.304 
G1 X0.459 Y40.103 
G1 X0.512 Y40.209 
G1 X0.678 Y40.456 
G1 X0.868 Y40.676 
G1 X1.017 Y40.810 
G1 X1.173 Y40.927 
G1 X1.337 Y41.025 
G1 X1.506 Y41.106 
G1 X1.681 Y41.169 
G1 X1.858 Y41.214 
G1 X2.039 Y41.241 
G1 X2.220 Y41.251 
G1 X2.401 Y41.242 
G1 X2.581 Y41.215 
G1 X2.759 Y41.171 
G1 X2.933 Y41.109 
G1 X3.102 Y41.028 
G1 X3.265 Y40.930 
G1 X3.421 Y40.815 
G1 X3.570 Y40.680 
G1 X3.803 Y40.409 
G1 X3.979 Y40.114 
G1 X4.097 Y39.801 
G1 X4.155 Y39.477 
G1 X4.155 Y39.146 
G1 X4.094 Y38.813 
G1 X3.974 Y38.486 
G1 X3.793 Y38.168 
G1 X3.648 Y37.986 
G1 X3.469 Y37.821 
G1 X3.256 Y37.673 
G1 X3.010 Y37.541 
G1 X2.833 Y37.463 
G1 X2.677 Y37.418 
G1 X2.223 Y37.399 
G1 X1.945 Y37.402 
G1 X1.757 Y37.420 
G1 X1.595 Y37.470 
G1 X1.397 Y37.559 
G1 X1.107 Y37.727 
G1 X0.854 Y37.934 
G1 X0.644 Y38.177 
G1 X0.482 Y38.451 
G1 X0.437 Y38.558 
G1 X0.436 Y2.988 
G1 X0.445 Y3.012 
G1 X0.528 Y3.175 
G1 X0.632 Y3.333 
G1 X0.756 Y3.482 
G1 X0.896 Y3.622 
G1 X1.052 Y3.751 
G1 X1.222 Y3.866 
G1 X1.402 Y3.965 
G1 X1.574 Y4.044 
G1 X1.729 Y4.089 
G1 X2.200 Y4.109 
G1 X2.484 Y4.106 
G1 X2.674 Y4.090 
G1 X2.829 Y4.047 
G1 X3.004 Y3.970 
G1 X3.252 Y3.824 
G1 X3.496 Y3.633 
G1 X3.711 Y3.419 
G1 X3.871 Y3.202 
G1 X4.017 Y2.892 
G1 X4.106 Y2.567 
G1 X4.138 Y2.235 
G1 X4.116 Y1.905 
G1 X4.041 Y1.584 
G1 X3.913 Y1.280 
G1 X3.735 Y1.003 
G1 X3.626 Y0.875 
G1 X3.505 Y0.758 
G1 X3.359 Y0.640 
G1 X3.206 Y0.539 
G1 X3.048 Y0.453 
G1 X2.884 Y0.383 
G1 X2.716 Y0.330 
G1 X2.545 Y0.292 
G1 X2.373 Y0.270 
G1 X2.199 Y0.263 
G1 X2.026 Y0.273 
G1 X1.854 Y0.299 
G1 X1.685 Y0.340 
G1 X1.519 Y0.398 
G1 X1.357 Y0.471 
G1 X1.200 Y0.560 
G1 X1.050 Y0.664 
G1 X0.907 Y0.785 
G1 X0.716 Y0.986 
G1 X0.553 Y1.203 
G1 X0.440 Y1.403 
G1 X0.455 Y0.201 
G1 X34.635 Y0.181 
G0   Z1.000
G0 X3.087 Y38.072 
G1   Z-0.100F180.0
G1 X3.283 Y38.238 
G1 X3.391 Y38.357 
G1 X3.485 Y38.485 
G1 X3.564 Y38.618 
G1 X3.628 Y38.756 
G1 X3.676 Y38.898 
G1 X3.710 Y39.043 
G1 X3.729 Y39.190 
G1 X3.732 Y39.337 
G1 X3.721 Y39.484 
G1 X3.695 Y39.630 
G1 X3.653 Y39.774 
G1 X3.597 Y39.914 
G1 X3.526 Y40.050 
G1 X3.440 Y40.181 
G1 X3.340 Y40.305 
G1 X3.224 Y40.422 
G1 X3.050 Y40.565 
G1 X2.878 Y40.669 
G1 X2.685 Y40.746 
G1 X2.451 Y40.805 
G1 X2.252 Y40.828 
G1 X2.043 Y40.815 
G1 X1.822 Y40.768 
G1 X1.595 Y40.687 
G1 X1.404 Y40.574 
G1 X1.201 Y40.401 
G1 X1.013 Y40.193 
G1 X0.869 Y39.978 
G1 X0.796 Y39.834 
G1 X0.760 Y39.723 
G1 X0.742 Y39.316 
G1 X0.746 Y39.076 
G1 X0.760 Y38.919 
G1 X0.790 Y38.801 
G1 X0.843 Y38.674 
G1 X0.974 Y38.457 
G1 X1.155 Y38.249 
G1 X1.366 Y38.067 
G1 X1.590 Y37.932 
G1 X1.715 Y37.879 
G1 X1.831 Y37.845 
G1 X2.145 Y37.812 
G1 X2.416 Y37.812 
G1 X2.587 Y37.830 
G1 X2.894 Y37.952 
G1 X3.087 Y38.072 
G0   Z1.000
G0 X0.060 Y35.694 
G1   Z-0.100F180.0
G1 X0.114 Y42.595 
G1 X0.115 Y42.607 
G1 X0.118 Y42.620 
G1 X0.123 Y42.633 
G1 X0.130 Y42.645 
G1 X0.140 Y42.655 
G1 X0.150 Y42.664 
G1 X0.162 Y42.672 
G1 X0.175 Y42.677 
G1 X0.188 Y42.679 
G1 X0.200 Y42.680 
G1 X34.975  
G1 X34.987 Y42.680 
G1 X34.999 Y42.677 
G1 X35.010 Y42.673 
G1 X35.021 Y42.667 
G1 X35.032 Y42.660 
G1 X35.041 Y42.650 
G1 X35.049 Y42.640 
G1 X35.055 Y42.629 
G1 X35.059 Y42.617 
G1 X35.061 Y42.605 
G1 X35.062 Y42.594 
G1 X35.062 Y6.791 
G1 X35.008 Y-0.110 
G1 X35.007 Y-0.122 
G1 X35.004 Y-0.135 
G1 X34.999 Y-0.147 
G1 X34.991 Y-0.159 
G1 X34.982 Y-0.170 
G1 X34.971 Y-0.179 
G1 X34.959 Y-0.187 
G1 X34.947 Y-0.192 
G1 X34.934 Y-0.194 
G1 X34.921 Y-0.195 
G1 X0.146  
G1 X0.135 Y-0.195 
G1 X0.123 Y-0.192 
G1 X0.112 Y-0.188 
G1 X0.100 Y-0.182 
G1 X0.090 Y-0.174 
G1 X0.081 Y-0.165 
G1 X0.073 Y-0.155 
G1 X0.067 Y-0.144 
G1 X0.063 Y-0.132 
G1 X0.061 Y-0.120 
G1 X0.060 Y-0.109 
G1 X0.060 Y35.694 
G0   Z1.000
M92
;%
